P2
# CREATOR: XV Version 3.10a  Rev: 12/29/94
300 132
255
255 255 255 255 255 255 255 255 255 255 255 255 255 255 255 255 255 
255 255 255 255 255 255 255 255 255 255 255 255 255 255 255 255 255 
255 255 255 255 255 255 255 255 255 255 242  17   0 165 165 153 160 
160 160 160 160 160 160 160 160 160 160 160 160 160 160 160 160 160 
160 160 160 160 160 160 160 160 160 160 160 160 160 160 160 160 160 
160 160 160 160 160 160 160 160 160 160 160 160 160 160 160 160 160 
160 160 160 160 160 160 160 160 160 160 160 160 160 160 160 160 160 
160 160 160 160 160 160 160 160 160 160 160 160 160 160 160 160 160 
160 160 160 160 160 160 160 160 160 160 160 160 160 160 160 160 160 
160 160 160 160 160 160 160 160 160 160 160 160 160 160 160 160 160 
160 160 160 160 160 160 160 160 160 160 160 160 160 160 160 160 160 
160 160 160 160 160 160 160 160 160 160 160 160 160 160 160 160 160 
160 160 160 160 160 160 160 160 160 160 160 160 160 160 160 160 160 
160 153 148 148 132 123 114 102  90  64  51  31   8   0   0   0   0 
  0   0   0   0   0   0   0   0   0   0  26  41  55 106 160 188 235 
255 255 255 255 250 235 226 226 235 237 237 237 237 237 237 237 237 
237 237 237 237 237 237 246 246 246 246 246 246 246 246 246 237 237 
237 237 237 237 237 237 237 246 246 246 246 255 255 255 255 255 255 
255 255 255 255 255 255 255 255 255 255 255 255 255 255 255 255 255 
255 255 255 255 255 255 255 255 255 255 255 255 255 255 255 255 255 
255 255 255 255 245   0  31 255 255 255 255 255 255 255 255 255 255 
255 255 255 255 255 255 255 255 255 255 255 255 255 255 255 255 255 
255 255 255 255 255 255 255 255 255 255 255 255 255 255 255 255 255 
255 255 255 255 255 255 255 255 255 255 255 255 255 255 255 255 255 
255 255 255 255 255 255 255 255 255 255 255 255 255 255 255 255 255 
255 255 255 255 255 255 255 255 255 255 255 255 255 255 255 255 255 
255 255 255 255 255 255 255 255 255 255 255 255 255 255 255 255 255 
255 255 255 255 255 255 255 255 255 255 255 255 255 255 255 255 255 
255 255 255 255 255 255 255 255 255 255 255 255 255 255 255 255 255 
255 255 255 255 255 255 255 255 255 255 255 255 255 255 255 255 255 
255 255 255 255 255 255 255 255 255 255 255 255 255 255 255 255 255 
255 255 255 255 255 245 235 235 224 215 204 165 132 102  64  31   0 
  0   0   0   0   0   0   0   0   0   0  17  26  99 146 188 250 255 
255 255 237 235 235 235 235 237 237 237 237 237 237 237 237 237 237 
246 246 246 246 246 246 246 246 246 246 246 246 246 246 246 246 246 
246 246 246 246 246 255 255 255 255 255 255 255 255 255 255 255 255 
255 255 255 255 255 255 255 255 255 255 255 255 255 255 255 255 255 
255 255 255 255 255 255 255 255 255 255 255 255 255 255 255 245   0 
 17 255 255 255 255 255 255 255 255 255 255 255 255 255 255 255 255 
255 255 255 255 255 255 255 255 255 255 255 255 255 255 255 255 255 
255 255 255 255 255 255 255 255 255 255 255 255 255 255 255 255 255 
255 255 255 255 255 255 255 255 255 255 255 255 255 255 255 255 255 
255 255 255 255 255 255 255 255 255 255 255 255 255 255 255 255 255 
255 255 255 255 255 255 255 255 255 255 255 255 255 255 255 255 255 
255 255 255 255 255 255 255 255 255 255 255 255 255 255 255 255 255 
255 255 255 255 255 255 255 255 255 255 255 255 255 255 255 255 255 
255 255 255 255 255 255 255 255 255 255 255 255 255 255 255 255 255 
255 255 255 255 255 255 255 255 255 255 255 255 255 255 255 255 255 
255 255 255 255 255 255 255 255 255 255 255 255 255 255 255 255 255 
255 255 255 255 255 255 255 255 255 255 235 235 197 148 102  60   8 
  0   0   0   0   0   0   0   0   0  17  55 130 172 235 255 255 250 
235 226 226 226 226 235 235 235 235 235 235 235 235 235 235 237 237 
237 237 246 246 246 246 246 246 246 246 246 246 246 246 246 246 255 
255 255 255 255 255 255 255 255 255 255 255 255 255 255 255 255 255 
255 255 255 255 255 255 255 255 255 255 255 255 255 255 255 255 255 
255 255 255 255 255 255 255 255 255 245   0  17 255 255 255 255 255 
255 255 255 255 255 255 255 255 255 255 255 255 255 255 255 255 255 
255 255 255 255 255 255 255 255 255 255 255 255 255 255 255 255 255 
255 255 255 255 255 255 255 255 255 255 255 255 255 255 255 255 255 
255 255 255 255 255 255 255 255 255 255 255 255 255 255 255 255 255 
255 255 255 255 255 255 255 255 255 255 255 255 255 255 255 255 255 
255 255 255 255 255 255 255 255 255 255 255 255 255 255 255 255 255 
255 255 255 255 255 255 255 255 255 255 255 255 255 255 255 255 255 
255 255 255 255 255 255 255 255 255 255 255 255 255 255 255 255 255 
255 255 255 255 255 255 255 255 255 255 255 255 255 255 255 255 255 
255 255 255 255 255 255 255 255 255 255 255 255 255 255 255 255 255 
255 255 255 255 255 255 255 255 255 255 255 255 255 255 255 255 255 
255 255 255 255 255 255 255 255 255 255 246 246 197 138  82  20   0 
  0   0   0   0   0   0   0   8  55 120 188 250 250 250 235 226 226 
226 226 226 232 232 232 237 237 237 237 237 237 237 246 246 246 246 
246 246 246 246 246 246 246 246 246 246 255 255 255 255 255 255 255 
255 255 255 255 255 255 255 255 255 255 255 255 255 255 255 255 255 
255 255 255 255 255 255 255 255 255 255 255 255 255 255 255 255 255 
255 255 255 245   0  17 255 255 255 255 255 255 255 255 255 255 255 
255 255 255 255 255 255 255 255 255 255 255 255 255 255 255 255 255 
255 255 255 255 255 255 255 255 255 255 255 255 255 255 255 255 255 
255 255 255 255 255 255 255 255 255 255 255 255 255 255 255 255 255 
255 255 255 255 255 255 255 255 255 255 255 255 255 255 255 255 255 
255 255 255 255 255 255 255 255 255 255 255 255 255 255 255 255 255 
255 255 255 255 255 255 255 255 255 255 255 255 255 255 255 255 255 
255 255 255 255 255 255 255 255 255 255 255 255 255 255 255 255 255 
255 255 255 255 255 255 255 255 255 255 255 255 255 255 255 255 255 
255 255 255 255 255 255 255 255 255 255 255 255 255 255 255 255 255 
255 255 255 255 255 255 255 255 255 255 255 255 255 255 255 255 255 
255 255 255 255 255 255 255 255 255 255 255 255 255 255 255 255 255 
255 255 255 255 255 255 255 255 255 255 255 188 123  64   0   0   0 
  0   0   0   0   0   8  82 150 218 250 235 235 235 218 218 218 218 
218 226 226 226 226 226 226 226 226 226 226 226 235 237 237 237 237 
237 237 237 237 255 255 255 255 255 255 255 255 255 255 255 255 255 
255 255 255 255 255 255 255 255 255 255 255 255 255 255 255 255 255 
255 255 255 255 255 255 255 255 255 255 255 255 255 255 242   0  17 
255 255 255 255 255 255 255 255 255 255 255 255 255 255 255 255 255 
255 255 255 255 255 255 255 255 255 255 255 255 255 255 255 255 255 
255 255 255 255 255 255 255 255 255 255 255 255 255 255 255 255 255 
255 255 255 255 255 255 255 255 255 255 255 255 255 255 255 255 255 
255 255 255 255 255 255 255 255 255 255 255 255 255 255 255 255 255 
255 255 255 255 255 255 255 255 255 255 255 255 255 255 255 255 255 
255 255 255 255 255 255 255 255 255 255 255 255 255 255 255 255 255 
255 255 255 255 255 255 255 255 255 255 255 255 255 255 255 255 255 
255 255 255 255 255 255 255 255 255 255 255 255 255 255 255 255 255 
255 255 255 255 255 255 255 255 255 255 255 255 255 255 255 255 255 
255 255 255 255 255 255 255 255 255 255 255 255 255 255 255 255 255 
255 255 255 255 255 255 255 255 255 255 255 255 255 255 255 255 255 
255 255 255 255 255 255 255 255 255 204 138  64   0   0   0   0   0 
  0   0   0  55 130 200 235 250 250 235 218 218 218 218 218 218 218 
218 218 218 218 218 218 218 226 235 235 235 235 235 235 235 255 255 
255 255 255 255 255 255 255 255 255 255 255 255 255 255 255 255 255 
255 255 255 255 255 255 255 255 255 255 255 255 255 255 255 255 255 
255 255 255 255 255 255 255 255 245   0  17 255 255 255 255 255 255 
255 255 255 255 148 116 188 255 255 255 255 255 255 255 255 235 209 
197 209 197 227 255 255 255 255 255 235 209 197 209 197 227 255 255 
255 255 255 227 245 255 255 255 255 255 255 255 255 206 116 137 197 
255 255 255 255 255 255 245 245 255 255 255 255 255 255 255 255 255 
235 255 255 255 255 255 255 255 255 235 245 255 255 255 255 255 255 
255 255 255 255 255 255 255 255 255 255 235 235 255 255 255 245 255 
255 255 255 214 255 255 255 255 255 255 227 197 209 206 206 245 255 
255 255 255 255 235 209 197 214 255 255 255 255 255 255 255 255 255 
255 255 255 255 255 255 255 255 170 116 197 255 255 255 255 255 255 
255 235 255 255 255 255 255 245 209 197 214 227 209 197 209 255 255 
255 255 255 255 227 206 206 206 206 245 255 255 255 255 255 255 255 
255 255 255 255 255 255 255 255 255 255 255 255 255 255 255 255 255 
255 255 255 255 255 255 255 197 138  51   0   0   0   0   0   0   0 
 37 106 188 235 250 250 235 218 218 218 226 226 235 226 226 226 226 
226 226 235 235 235 235 235 235 235 255 255 255 255 255 255 255 255 
255 255 255 255 255 255 255 255 255 255 255 255 255 250 250 250 250 
250 250 250 250 250 250 250 250 250 250 250 250 250 250 250 250 250 
250 255 242   0  17 255 255 255 255 255 255 255 255 245  51  51  87 
 40  65 255 255 255 255 255 255 245  51  40  51  51  40 148 255 255 
255 255 245  65  40  65  51  40 137 255 255 255 255 255  65 116 255 
255 255 255 255 255 255 116  40  65  65  51 255 255 255 255 255 255 
 87  87 255 255 255 255 255 255 255 255 148 116 255 255 255 255 255 
255 255 255  65 116 255 255 255 255 255 255 255 255 255 255 255 255 
255 255 255 255 116  51 214 255 255  65 209 255 255 167  40 245 255 
255 255 255 227  40  51  51  51  51 197 255 255 255 255 227  51  51 
 51  40  87 255 255 255 255 255 255 255 255 255 255 255 255 255 255 
255  87  40  87  51 245 255 255 255 255 255 197  51 188 255 255 255 
255 197  51  51  51  40  51  40  51 255 255 255 255 255 188  40  51 
 51  51  51 214 255 255 255 255 255 255 255 255 255 255 255 255 255 
255 255 255 255 255 255 255 255 255 255 255 255 255 255 255 255 255 
255 255 255 255 235 165  90   0   0   0   0   0   0   0  31 118 200 
246 255 255 235 218 218 218 218 218 218 218 218 218 218 218 218 226 
226 226 226 255 255 255 255 255 255 255 255 255 255 255 255 255 255 
255 255 255 255 246 246 246 246 246 246 246 246 246 246 246 246 246 
246 246 246 246 246 246 246 246 246 246 246 246 255 245   0  17 255 
255 255 255 255 255 255 255  51  87 255 255 255  40 148 255 255 255 
255 255 245  65 170 255 255 255 255 255 255 255 255 245  65 148 255 
245 255 255 255 255 255 255 255  87 137 255 255 255 255 255 255 148 
 40 235 255 255 255 255 255 255 255 255 255 116 116 255 255 255 255 
255 255 255 255  65  51 255 255 255 255 255 255 255 255  87 137 255 
255 255 255 255 255 255 255 255 255 255 255 255 255 255 255 227  51 
188 255 255  51 116 255 255  87  87 255 255 255 255 255 227  40 255 
255 255 255 255 255 255 255 255 214  65 188 255 255  51 137 255 255 
255 255 255 255 255 255 255 255 255 255 255 188  40 255 255 235 255 
255 255 255 255 255 209  65 197 255 255 255 255 255 245 255 197  65 
245 255 255 255 255 255 255 255 188  51 255 255 255 255 255 255 255 
255 255 255 255 255 255 255 255 255 255 255 255 255 255 255 255 255 
255 255 255 255 255 255 255 255 255 255 255 255 255 255 255 255 255 
255 255 197 114  31   0   0   0   0   0   0  41 130 218 255 255 250 
226 218 226 226 226 226 226 226 226 226 226 226 226 226 255 255 255 
255 255 255 255 255 255 255 255 255 255 250 250 250 250 250 250 250 
250 246 246 246 246 246 246 246 246 246 246 246 246 246 246 246 246 
246 246 246 246 246 246 255 242   0  17 255 255 255 255 255 255 255 
197  51 227 255 255 255 148  51 255 255 255 255 255 235  87 245 255 
255 255 255 255 255 255 255 245  87 197 255 255 255 255 255 255 255 
255 255  87 137 255 255 255 255 255 255  51 137 255 255 255 255 255 
255 255 255 255 255 116 116 255 255 255 255 255 255 255 235  65  51 
197 255 255 255 255 255 255 255  87 137 255 255 255 255 255 255 255 
255 255 255 255 255 255 255 255 255 255  65 116 255 255  51  40 255 
255  51 179 255 255 255 255 255 227  40 255 255 255 255 255 255 255 
255 255 209  87 255 255 255  51 137 255 255 255 255 255 255 255 255 
255 255 255 255 255 188  40 255 255 255 255 255 255 255 255 255 209 
 87 197 255 255 255 255 255 255 255 206  65 245 255 255 255 255 255 
255 255 188  65 255 255 255 255 255 255 255 255 255 255 255 255 255 
255 255 255 255 255 255 255 255 255 255 255 255 255 255 255 255 255 
255 255 255 255 255 255 255 255 255 255 255 255 255 255 255 255 204 
123  26   0   0   0   0   0   8  60 179 246 255 255 237 237 237 237 
237 237 237 237 237 237 237 237 255 255 255 255 255 255 255 255 255 
255 255 250 250 250 250 250 250 246 246 246 246 246 246 246 246 246 
246 246 246 246 246 246 246 246 246 246 246 246 246 246 246 246 246 
255 245   0  17 255 255 255 255 255 255 255 137  51 255 255 255 255 
227  40 255 255 255 255 255 245  65  51  65  51 197 255 255 255 255 
255 255  87  40  65  51 179 255 255 255 255 255 255  87 137 255 255 
255 255 255 227  40 255 255 255 255 255 255 255 255 255 255 255 116 
116 255 255 255 255 255 255 255 116 148 137 116 255 255 255 255 255 
255 255  87 137 255 255 255 255 255 255 255 255 255 255 255 255 255 
255 255 255 255 137  65 255 116 170  40 255 245  40 255 255 255 255 
255 255 227  40  87  65  87 235 255 255 255 255 255 227  65  51  51 
 51 170 255 255 255 255 255 255 255 255 255 255 255 255 255 255 255 
 65  40 197 255 255 255 255 255 255 255 209  87 197 255 255 255 255 
255 255 255 197  65 245 255 255 255 255 255 255 255 197  51  65  65 
 65 255 255 255 255 255 255 255 255 255 255 255 255 255 255 255 255 
255 255 255 255 255 255 255 255 255 255 255 255 255 255 255 255 255 
255 255 255 255 255 255 255 255 255 255 255 255 255 204 106   0   0 
  0   0   0   0  20 106 210 255 255 246 235 235 235 242 242 242 246 
246 246 255 255 255 255 255 255 255 255 255 255 255 255 255 255 255 
250 246 246 246 246 246 246 246 246 246 246 246 246 246 246 246 246 
246 246 246 246 246 246 246 246 246 246 246 255 242   0  17 255 255 
255 255 255 255 255 116  65 255 255 255 255 245  40 255 255 255 255 
255 245  65  87 170 137 227 255 255 255 255 255 245  87  87 179 137 
214 255 255 255 255 255 255  87 137 255 255 255 255 255 209  40 255 
255 255 255 255 255 255 255 255 255 255 116 116 255 255 255 255 255 
255 255  51 255 245  65 214 255 255 255 255 255 255  87 137 255 255 
255 255 255 255 255 255 255 255 255 255 255 255 255 255 255 214  40 
255  51 255 116 148 179  65 255 255 255 255 255 255 227  40 188 137 
148 245 255 255 255 255 255 214  65 148 255 167  51 197 255 255 255 
255 255 255 255 255 255 255 255 255 255 255 255 137  40  65 255 255 
255 255 255 255 209  87 197 255 255 255 255 255 255 255 197  65 245 
255 255 255 255 255 255 255 197  51 148 148 137 255 255 255 255 255 
255 255 255 255 255 255 255 255 255 255 255 255 255 255 255 255 255 
255 255 255 255 255 255 255 255 255 255 255 255 255 255 255 255 255 
255 255 255 255 255 255 255 255 255 255 188  64   0   0   0   0   0 
  0  47 162 250 255 235 218 226 226 226 226 226 226 255 255 255 255 
255 255 255 255 255 255 255 255 255 250 246 246 246 246 246 246 246 
242 242 242 242 242 242 242 242 242 242 242 242 242 242 242 242 242 
242 242 242 242 242 255 242   0  17 255 255 255 255 255 255 255 148 
 51 255 255 255 255 197  40 255 255 255 255 255 235  65 197 255 255 
255 255 255 255 255 255 245  65 170 255 255 255 255 255 255 255 255 
255  87 137 255 255 255 255 255 227  40 227 255 255 255 255 255 255 
255 255 255 255 116 116 255 255 255 255 255 255 197  65 255 255  51 
197 255 255 255 255 255 255  87 137 255 255 255 255 255 255 255 255 
255 255 255 255 255 255 255 255 255 255  65 116  65 255 209  51  87 
137 255 255 255 255 255 255 227  40 255 255 255 255 255 255 255 255 
255 214  65 214 255 255 116  65 245 255 255 255 255 255 255 255 255 
255 255 255 255 255 255 255 255  51 148 255 255 255 255 255 209  87 
197 255 255 255 255 255 255 255 197  65 245 255 255 255 255 255 255 
255 188  51 255 255 255 255 255 255 255 255 255 255 255 255 255 255 
255 255 255 255 255 255 255 255 255 255 255 255 255 255 255 255 255 
255 255 255 255 255 255 255 255 255 255 255 255 255 255 255 255 255 
255 255 255 255 255 255 255 132   0   0   0   0   0   0  17 130 235 
255 226 218 218 218 218 218 255 255 255 255 255 255 255 255 255 255 
255 255 250 246 246 246 246 246 246 246 242 242 242 242 242 242 242 
242 242 242 242 242 242 242 242 242 242 242 242 242 242 242 242 255 
245   0  20 255 255 255 255 255 255 255 255  40 197 255 255 255  87 
 51 255 255 255 255 255 245  65 188 255 255 255 255 255 255 255 255 
245  65 148 255 255 255 255 255 255 255 255 255  87 137 255 255 255 
255 255 255  40  87 255 255 255 255 255 255 255 255 255 255 116 116 
255 255 255 255 255 255  87  51  51  65  40  87 255 255 255 255 255 
255  87 137 255 255 255 255 255 255 255 255 255 255 255 255 255 255 
255 255 255 255 167  40 137 255 255  40  40 245 255 255 255 255 255 
255 227  40 255 255 255 255 255 255 255 255 255 214  65 197 255 255 
148  51 227 255 255 255 255 255 255 255 255 255 255 255 255 255 255 
255 255 137  87 255 255 255 255 255 209  87 197 255 255 255 255 255 
255 255 197  65 245 255 255 255 255 255 255 255 188  51 255 255 255 
255 255 255 255 255 255 255 255 255 255 255 255 255 255 255 255 255 
255 255 255 255 255 255 255 255 255 255 255 255 255 255 255 255 255 
255 255 255 255 255 255 255 255 255 255 255 255 255 255 255 255 255 
255 255 255 204  64   0   0   0   0   0   0 114 235 255 246 226 226 
226 255 255 255 255 255 255 255 255 255 255 255 250 246 246 246 246 
246 246 246 242 242 242 242 242 242 242 242 242 242 242 242 242 242 
242 242 242 242 242 242 242 242 242 237 255 245   0  20 255 255 255 
255 255 255 255 255 116  40 245 255 148  40 227 255 255 255 255 255 
245  65 188 255 255 255 255 255 255 255 255 245  65 148 255 255 255 
255 255 255 255 255 255  87 137 255 255 255 255 255 255 206  40 167 
255 255  87 116 255 255 255 255 255 116 116 255 255 255 255 255 245 
 51 235 255 255 227  51 227 255 255 255 255 255  87 116 255 214 214 
245 255 255 255 255 255 255 255 255 255 255 255 255 255 255 245  40 
206 255 255  87  51 255 255 255 255 255 255 255 227  40 255 214 214 
214 245 255 255 255 255 214  65 227 255 227  40 137 255 255 255 255 
255 255 255 255 255 255 255 255 255 227 148 255 255  40 167 255 255 
255 255 255 209  65 197 255 255 255 255 255 255 255 197  51 245 255 
255 255 255 255 255 255 188  51 235 227 214 214 255 255 255 255 255 
255 255 255 255 255 255 255 255 255 255 255 255 255 255 255 255 255 
255 255 255 255 255 255 255 255 255 255 255 255 255 255 255 255 255 
255 255 255 255 255 255 255 255 255 255 255 255 255 255 255 255 255 
114   0   0   0   0   0   0 106 237 255 250 246 255 255 255 255 255 
255 255 255 255 255 250 250 246 246 246 246 246 246 246 246 237 237 
237 237 237 237 237 237 237 237 237 237 237 237 237 237 237 237 237 
237 237 237 237 255 245   0  26 255 255 255 255 255 255 255 255 255 
137  40  40  40 227 255 255 255 255 255 255 245  65 188 255 255 255 
255 255 255 255 255 245  87 148 255 255 255 255 255 255 255 255 255 
 87 137 255 255 255 255 255 255 255 227  40  40  40  65 255 255 255 
255 255 255 116 116 255 255 255 255 255 116  65 245 255 255 255  40 
170 255 255 255 255 255 116  40  40  40  40 148 255 255 255 255 255 
255 255 255 255 255 255 255 255 255 255 116 227 255 255 206 116 255 
255 255 255 255 255 255 235  40  40  40  40  40 188 255 255 255 255 
235  65  40  40  40 197 255 255 255 255 255 255 255 255 255 255 255 
255 255 255 214  40  40  40 116 255 255 255 255 255 255 206  65 197 
255 255 255 255 255 255 255 188  51 235 255 255 255 255 255 255 255 
197  51  40  40  40  40 209 255 255 255 255 255 255 255 255 255 255 
255 255 255 255 255 255 255 255 255 255 255 255 255 255 255 255 255 
255 255 255 255 255 255 255 255 255 255 255 255 255 255 255 255 255 
255 255 255 255 255 255 255 255 255 255 255 255 255 160   0   0   0 
  0   0   0  82 219 255 255 255 255 255 255 255 255 255 255 255 250 
246 246 246 246 246 246 246 242 242 242 237 237 237 237 237 237 237 
237 237 237 237 237 237 237 237 237 237 237 237 237 237 237 255 242 
 20   0  70  70  70  70  70  70  70  70  70 106 128 128 145 106  70 
 70  70  70  70  70  70 128 106  70  70  70  70  70  70  70  70 106 
150 128  70 106 106 106 106 106 106 106  70 161 145 106 106 106 106 
106 106 106 145 188 161 161 186 128 106 106 106 106 128 167 167 128 
128 128 128 128 167 197 145 128 128 128 210 167 128 145 145 145 145 
197 227 227 227 227 188 145 150 150 150 150 150 161 161 161 161 161 
161 161 161 167 197 179 167 167 197 197 179 179 179 179 179 179 179 
197 255 255 255 255 255 209 179 188 188 188 206 255 255 255 255 227 
197 197 197 197 206 206 206 206 206 209 209 209 209 209 245 255 235 
255 255 227 227 227 227 227 227 245 255 255 227 227 235 235 235 235 
235 255 255 255 245 245 245 245 245 255 255 255 255 255 255 255 255 
255 255 255 255 255 255 255 255 255 255 255 255 255 255 255 255 255 
255 255 255 255 255 255 255 255 255 255 255 255 255 255 255 255 255 
255 255 255 255 255 255 255 255 255 255 255 255 255 255 255 255 255 
255 255 255 255 255 255 255 255 255 169  26   0   0   0   0   0  76 
255 255 255 255 255 255 255 255 246 246 246 246 246 246 246 246 246 
246 246 242 242 237 237 237 237 237 237 237 237 237 237 237 237 237 
237 237 237 237 237 237 237 237 237 255 242  17   0 128 128 128 128 
128 128 128 128 128 128 128 128 128 128 128 128 128 128 128 128 128 
128 128 128 128 128 128 128 145 145 145 145 128 145 145 145 145 145 
145 145 145 145 145 145 145 150 150 150 150 150 150 150 150 150 161 
161 145 161 161 161 161 161 161 161 161 167 167 167 167 167 167 167 
167 167 167 167 167 167 179 179 179 179 179 179 167 167 167 167 179 
188 188 188 188 188 188 188 188 188 188 188 188 188 188 188 197 197 
197 197 197 197 197 197 197 197 206 206 206 206 197 197 197 197 197 
206 206 209 209 209 209 206 206 206 206 209 214 214 214 214 214 227 
227 227 227 227 227 227 227 227 227 227 245 227 227 227 227 227 235 
235 235 235 227 235 245 245 245 245 245 245 245 245 245 245 245 245 
245 245 255 255 255 255 255 255 255 255 255 255 255 255 255 255 255 
255 255 255 255 255 255 255 255 255 255 255 255 255 255 255 255 255 
255 255 255 255 255 255 255 255 255 255 255 255 255 255 255 255 255 
255 255 255 255 255 255 255 255 255 255 255 255 255 255 255 255 255 
255 255 255 255 255 176  31   0   0   0   0 255 255 255 255 255 255 
255 250 250 250 246 246 246 246 246 246 242 242 242 237 237 237 237 
237 237 237 237 237 237 237 237 237 237 237 237 237 237 237 237 237 
237 237 232 255 242   8   0 106 106 106 106 106 106 106 106 106 106 
106 106 106 128 128 128 128 128 128 128 128 128 128 128 128 128 128 
128 128 128 128 128 128 128 128 128 128 128 128 145 145 145 145 145 
145 145 145 145 145 150 150 150 150 150 150 150 150 150 150 150 150 
161 161 161 161 161 161 161 161 161 161 167 167 167 167 167 167 167 
167 167 167 167 179 179 179 179 179 179 179 179 179 179 179 179 188 
188 188 188 188 188 188 188 188 188 188 188 188 197 197 197 197 197 
197 197 197 197 197 206 206 206 206 206 206 206 206 206 206 206 206 
209 209 214 214 214 214 214 214 214 227 227 227 227 227 227 227 227 
227 227 227 227 227 227 227 227 227 227 227 227 235 235 235 245 245 
245 245 245 245 245 245 245 245 245 245 245 245 245 245 255 255 255 
255 255 255 255 255 255 255 255 255 255 255 255 255 255 255 255 255 
255 255 255 255 255 255 255 255 255 255 255 255 255 255 255 255 255 
255 255 255 255 255 255 255 255 255 255 255 255 255 255 255 255 255 
255 255 255 255 255 255 255 255 255 255 255 255 255 255 255 255 255 
255 179  41   0   0 255 255 255 255 255 255 255 255 246 246 246 246 
246 246 246 246 246 242 237 237 237 237 237 235 235 235 237 237 237 
237 237 237 237 237 237 237 237 237 237 237 237 237 232 255 242  17 
  0 106 106 106 106 106 106 106 106 106 106 106 106 106 106 106 106 
106 106 106 106 106 106 106 128 128 128 128 128 128 128 128 128 128 
128 128 128 128 128 128 128 128 128 128 128 128 128 145 145 145 145 
145 145 150 150 150 150 150 150 150 150 150 150 150 161 161 161 161 
161 161 161 161 161 161 161 161 161 167 167 167 167 167 167 167 167 
179 179 179 179 179 186 186 186 186 186 186 186 186 186 186 186 186 
186 188 188 188 188 188 188 188 197 197 197 197 197 210 210 210 210 
210 210 210 210 210 210 210 210 210 210 210 210 210 210 210 210 210 
214 214 214 227 227 227 227 227 227 227 227 227 227 227 227 227 227 
227 235 235 235 245 245 245 245 245 245 245 245 245 245 245 245 245 
245 245 245 245 245 245 245 245 255 255 255 255 255 255 255 255 255 
255 255 255 255 255 255 255 255 255 255 255 255 255 255 255 255 255 
255 255 255 255 255 255 255 255 255 255 255 255 255 255 255 255 255 
255 255 255 255 255 255 255 255 255 255 255 255 255 255 255 255 255 
255 255 255 255 255 255 255 255 255 255 255 255 255 255 176  51 255 
255 255 255 255 255 255 246 246 246 246 246 246 246 246 246 242 237 
237 237 237 237 235 235 235 235 235 235 235 235 235 235 235 235 235 
235 235 235 235 235 235 235 232 255 242   0   0 167 167 165 165 165 
165 165 165 165 165 165 165 165 165 165 165 165 165 165 165 165 165 
165 165 165 167 167 167 167 167 167 167 167 167 167 167 167 167 167 
167 167 167 167 167 167 167 167 167 167 167 167 167 167 167 167 167 
167 167 167 167 167 167 167 167 167 167 167 167 167 167 167 167 167 
167 167 167 167 167 167 167 167 167 167 167 167 167 167 167 167 188 
188 188 188 188 188 188 188 188 188 188 188 188 188 188 188 188 188 
188 188 188 188 188 188 188 188 188 188 188 188 188 188 188 188 188 
188 188 188 188 188 188 188 188 188 192 192 192 192 192 192 192 192 
192 192 192 192 192 192 192 192 192 192 192 192 192 192 192 192 192 
192 192 192 192 192 192 207 176 218 255 255 255 255 255 255 255 255 
255 255 255 255 255 255 255 255 255 255 255 255 255 255 255 255 255 
255 255 255 255 255 255 255 255 255 255 255 255 255 255 255 255 255 
255 255 255 255 255 255 255 255 255 255 255 255 255 255 255 255 255 
255 255 255 255 255 255 255 255 255 255 255 255 255 255 255 255 255 
255 255 255 255 255 255 255 255 255 255 255 255 255 255 255 255 255 
255 246 246 246 246 246 246 242 242 237 237 237 237 237 235 235 232 
232 232 232 232 232 232 232 232 232 232 232 235 235 232 232 232 232 
232 232 255 242   0   8 182 182 182 182 182 182 182 182 182 182 182 
182 182 182 182 182 182 182 182 182 182 182 182 182 182 182 182 182 
182 182 182 182 182 182 182 182 182 182 182 182 182 182 182 182 182 
182 182 182 182 182 182 182 182 182 182 182 182 182 182 182 182 182 
182 182 182 182 182 182 182 182 182 182 182 182 182 182 182 182 182 
182 182 182 182 182 182 182 182 182 182 182 182 182 165 165 182 182 
182 165 165 165 165 165 165 165 165 165 165 165 165 165 165 165 165 
165 165 165 165 165 165 165 165 165 165 165 165 165 165 165 165 165 
165 165 165 165 165 165 165 165 165 165 165 165 165 165 159 159 159 
159 159 159 159 159 159 159 159 159 159 159 159 159 159 159 159 159 
159 113 189 255 255 255 255 255 255 255 255 255 255 255 255 255 255 
255 255 255 255 255 255 255 255 255 255 255 255 255 255 255 255 255 
255 255 255 255 255 255 255 255 255 255 255 255 255 255 255 255 255 
255 255 255 255 255 255 255 255 255 255 255 255 255 255 255 255 255 
255 255 255 255 255 255 255 255 255 255 255 255 255 255 255 255 255 
255 255 255 255 255 255 255 255 255 255 246 246 246 246 246 246 246 
246 237 237 237 237 237 237 237 232 232 232 232 232 232 232 232 232 
232 232 232 232 232 232 232 232 232 232 232 232 226 255 242   0   8 
181 181 172 172 170 170 170 170 170 170 170 172 172 172 172 172 172 
172 172 172 172 172 172 172 172 172 172 172 172 172 172 172 172 172 
172 172 172 172 172 172 172 172 172 172 172 172 172 172 172 172 172 
172 172 172 172 172 172 172 172 172 172 172 172 172 172 172 172 172 
172 172 176 176 176 176 176 176 176 172 172 172 172 172 172 172 172 
176 176 176 176 176 176 176 176 176 176 176 176 176 176 176 176 176 
176 176 172 172 172 176 181 181 181 181 181 181 181 181 181 176 176 
176 181 181 181 181 176 176 176 176 176 176 176 176 176 176 176 172 
172 181 181 176 176 176 176 176 176 176 176 176 176 176 176 176 176 
176 176 176 176 176 176 176 176 176 176 176 181 142 207 255 255 255 
255 255 255 255 255 255 255 255 255 255 255 255 255 255 255 255 255 
255 255 255 255 255 255 255 255 255 255 255 255 255 255 255 255 255 
255 255 255 255 255 255 255 255 255 255 255 255 255 255 255 255 255 
255 255 255 255 255 255 255 255 255 255 255 255 255 255 255 255 255 
255 255 255 255 255 255 255 255 255 255 255 255 255 255 255 255 255 
255 255 255 255 255 246 246 246 246 242 242 242 242 237 237 237 237 
237 232 232 232 232 232 232 232 232 232 232 232 232 232 232 232 232 
232 232 232 232 232 232 226 250 237   0   8 189 189 172 172 176 176 
176 176 176 176 176 172 172 172 172 172 172 172 172 172 172 172 172 
172 176 176 176 176 176 176 176 176 176 176 176 176 176 176 172 172 
172 172 176 176 176 176 176 176 176 176 176 176 176 176 176 176 176 
176 176 176 176 176 176 176 176 176 176 176 176 176 176 176 176 176 
176 176 176 176 176 176 176 176 176 176 176 176 176 176 176 176 176 
176 172 176 176 176 176 176 176 176 176 176 176 176 176 176 176 176 
176 176 176 176 176 176 176 176 176 176 176 176 176 176 176 176 176 
176 176 176 172 172 176 176 176 176 176 176 176 176 176 176 176 176 
176 176 176 176 176 176 176 176 176 176 176 176 176 176 176 176 172 
172 172 172 176 176 176 142 207 255 255 255 255 255 255 255 255 255 
255 255 255 255 255 255 255 255 255 255 255 255 255 255 255 255 255 
255 255 255 255 255 255 255 255 255 255 255 255 255 255 255 255 255 
255 255 255 255 255 255 255 255 255 255 255 255 255 255 255 255 255 
255 255 255 255 255 255 255 255 255 255 255 255 255 255 255 255 255 
255 255 255 255 255 255 255 255 255 255 255 255 255 255 255 255 246 
246 246 242 242 242 237 237 237 237 237 237 232 232 232 226 226 226 
226 226 226 226 226 226 226 226 226 226 226 226 226 226 226 226 226 
226 250 237   0   8 189 189 172 172 172 172 172 172 172 172 172 172 
172 172 172 172 172 172 172 172 172 172 172 172 172 172 172 176 176 
176 176 176 176 176 176 176 176 176 176 176 176 176 176 176 176 176 
176 176 176 176 176 176 176 176 176 176 176 176 176 176 176 176 176 
176 176 176 176 176 176 176 176 176 176 176 176 176 176 172 172 172 
172 176 176 176 176 176 176 176 176 176 176 176 176 176 176 176 176 
172 172 176 176 176 176 176 176 176 176 176 176 176 176 176 176 176 
176 176 176 176 176 176 176 176 176 176 176 176 176 176 172 176 176 
176 176 176 176 172 172 172 172 176 176 176 176 176 176 176 172 172 
172 172 172 176 176 176 176 176 176 176 176 176 176 176 176 176 176 
150 207 255 255 255 255 255 255 255 255 255 255 255 255 255 255 255 
255 255 255 255 255 255 255 255 255 255 255 255 255 255 255 255 255 
255 255 255 255 255 255 255 255 255 255 255 255 255 255 255 255 255 
255 255 255 255 255 255 255 255 255 255 255 255 255 255 255 255 255 
255 255 255 255 255 255 255 255 255 255 255 255 255 255 255 255 255 
255 255 255 255 255 255 255 255 255 250 246 246 246 246 246 242 237 
237 237 237 237 237 232 232 232 226 226 226 226 226 226 226 226 226 
226 226 226 226 226 226 226 226 226 226 226 226 250 237   0   8 189 
189 172 172 172 172 172 172 172 172 172 176 176 176 176 176 176 176 
176 176 172 172 172 172 172 172 172 176 176 176 176 176 176 176 176 
176 176 176 176 176 176 176 176 176 176 176 176 176 176 176 176 176 
176 176 176 176 176 176 176 176 176 176 176 176 176 176 176 176 176 
176 176 176 176 176 176 176 176 176 176 176 176 176 176 176 176 176 
176 176 176 176 176 176 181 176 176 176 176 176 176 176 176 176 176 
176 176 176 176 176 176 176 176 176 176 176 176 176 176 176 176 176 
176 176 176 176 176 176 176 176 172 172 176 176 176 176 176 176 176 
176 172 172 172 172 176 176 172 172 176 176 176 176 176 176 176 176 
176 176 176 176 176 176 176 176 176 176 176 150 207 255 255 255 255 
255 255 255 255 255 255 255 255 255 255 255 255 255 255 255 255 255 
255 255 255 255 255 255 255 255 255 255 255 255 255 255 255 255 255 
255 255 255 255 255 255 255 255 255 255 255 255 255 255 255 255 255 
255 255 255 255 255 255 255 255 255 255 255 255 255 255 255 255 255 
255 255 255 255 255 255 255 255 255 255 255 255 255 255 255 255 255 
255 255 255 255 246 246 246 246 246 237 237 237 237 237 237 237 232 
226 226 226 226 226 226 226 226 226 226 226 226 226 226 226 226 226 
226 226 226 226 226 226 250 235   0   8 189 189 172 172 172 172 172 
172 172 172 172 172 172 172 172 172 172 172 172 172 172 172 172 172 
172 172 172 176 176 176 176 176 176 176 176 176 176 176 176 176 176 
176 176 176 176 176 176 176 176 176 176 176 176 176 176 176 176 176 
176 176 176 176 176 176 176 176 176 176 176 176 176 176 176 176 176 
176 176 176 176 176 176 176 176 176 176 176 176 176 176 176 176 176 
190 179 179 179 176 176 176 176 176 176 176 176 176 176 176 176 176 
176 176 176 176 176 176 176 176 176 176 176 176 176 176 176 176 176 
176 176 176 172 172 176 176 176 176 176 176 176 176 176 176 176 176 
176 176 176 176 176 176 176 176 172 172 172 172 172 172 172 176 176 
176 176 176 176 176 150 207 255 255 255 255 255 255 255 255 255 255 
255 255 255 255 255 255 255 255 255 255 255 255 255 255 255 255 255 
255 255 255 255 255 255 255 255 255 255 255 255 255 255 255 255 255 
255 255 255 255 255 255 255 255 255 255 255 255 255 255 255 255 255 
255 255 255 255 255 255 255 255 255 255 255 255 255 255 255 255 255 
255 255 255 255 255 255 255 255 255 255 255 255 255 255 246 246 246 
242 242 242 237 237 237 237 237 237 232 232 226 226 226 226 226 226 
226 226 226 226 226 226 226 226 226 226 226 226 226 226 226 226 226 
250 235   0   8 189 181 172 172 172 172 172 172 172 172 172 172 172 
172 172 172 172 172 172 172 172 172 172 172 172 172 172 172 172 172 
176 176 176 176 176 176 176 176 176 176 176 176 176 176 176 176 176 
176 176 176 176 176 176 176 176 176 176 176 176 176 176 176 176 176 
176 172 172 172 172 172 172 176 176 176 176 176 176 176 176 176 176 
176 176 176 176 179 179 179 176 189 181 181 207 189 189 172 181 176 
176 181 181 176 176 176 176 176 176 176 176 176 176 176 176 176 176 
176 176 176 176 176 176 176 176 176 176 176 176 176 176 176 176 176 
176 176 176 176 176 176 176 176 176 176 176 176 176 176 172 172 172 
172 172 172 172 172 172 172 172 172 172 172 172 172 172 172 176 150 
207 255 255 255 255 255 255 255 255 255 255 255 255 255 255 255 255 
255 255 255 255 255 255 255 255 255 255 255 255 255 255 255 255 255 
255 255 255 255 255 255 255 255 255 255 255 255 255 255 255 255 255 
255 255 255 255 255 255 255 255 255 255 255 255 255 255 255 255 255 
255 255 255 255 255 255 255 255 255 255 255 255 255 255 255 255 255 
255 255 255 255 255 255 255 255 246 246 246 246 246 237 237 237 237 
237 232 232 232 226 226 226 226 226 226 226 226 226 226 226 226 226 
226 226 226 226 226 226 226 226 226 226 226 250 235   0   8 189 189 
172 172 172 172 172 172 172 172 172 172 172 172 172 172 172 172 172 
172 172 172 172 172 172 172 172 172 172 172 176 176 176 176 172 172 
176 176 176 176 176 176 176 176 176 176 172 176 176 176 176 176 176 
176 176 176 176 176 176 176 176 176 176 176 176 176 176 176 176 176 
176 176 176 176 176 176 176 176 176 176 176 176 176 176 176 176 172 
172 172 172 172 172 117 117 176 189 176 176 176 176 176 176 176 176 
176 176 176 176 176 176 176 176 176 176 176 176 176 176 176 176 176 
176 176 176 176 176 176 176 176 176 176 176 176 176 176 176 176 176 
176 176 176 176 176 176 176 176 172 172 172 172 172 172 172 172 176 
176 176 176 176 176 176 176 176 176 176 150 207 255 255 255 255 255 
255 255 255 255 255 255 255 255 255 255 255 255 255 255 255 255 255 
255 255 255 255 255 255 255 255 255 255 255 255 255 255 255 255 255 
255 255 255 255 255 255 255 255 255 255 255 255 255 255 255 255 255 
255 255 255 255 255 255 255 255 255 255 255 255 255 255 255 255 255 
255 255 255 255 255 255 255 255 255 255 255 255 255 255 255 255 255 
255 250 250 250 250 242 242 237 237 237 237 237 237 232 226 226 226 
226 226 226 226 226 226 226 226 226 226 226 226 226 226 226 226 226 
226 226 226 226 218 250 235   0   8 189 189 172 172 172 176 176 176 
176 176 176 176 176 176 176 176 172 172 172 172 172 172 172 172 172 
172 172 172 172 172 176 176 176 176 172 172 176 176 176 176 176 176 
176 176 176 176 176 176 176 176 176 176 176 176 176 176 176 176 176 
176 176 176 176 176 176 176 176 176 176 176 176 176 176 176 176 176 
176 176 176 176 176 176 181 181 181 181 181 172 170 188 172 188 150 
120 150 188 176 176 192 189 189 181 172 172 181 181 176 176 176 176 
176 176 176 176 176 176 176 176 176 176 176 176 176 176 176 176 176 
176 176 176 176 176 176 176 176 176 176 176 176 176 176 176 176 176 
176 176 176 176 176 176 176 176 176 176 176 176 176 176 176 176 176 
176 176 176 176 150 207 255 255 255 255 255 255 255 255 255 255 255 
255 255 255 255 255 255 255 255 255 255 255 255 255 255 255 255 255 
255 255 255 255 255 255 255 255 255 255 255 255 255 255 255 255 255 
255 255 255 255 255 255 255 255 255 255 255 255 255 255 255 255 255 
255 255 255 255 255 255 255 255 255 255 255 255 255 255 255 255 255 
255 255 255 255 255 255 255 255 255 255 255 255 250 246 246 246 246 
237 237 237 237 237 237 232 226 226 226 226 226 218 218 218 218 218 
218 218 218 218 218 218 218 218 218 218 226 226 226 226 226 218 250 
235   0   8 189 189 172 172 172 172 172 172 172 172 172 172 172 172 
172 172 176 176 176 176 176 176 176 176 176 176 176 176 176 176 176 
176 176 176 176 176 176 176 176 176 176 176 176 176 176 176 176 176 
176 176 176 176 176 176 176 176 176 176 176 176 176 176 176 176 176 
176 176 176 176 176 176 176 176 176 176 176 172 172 181 181 181 181 
181 181 181 181 207 235 235 200 250 255 235 120 138 130 150 150 150 
150 155 176 176 176 176 179 179 179 176 176 176 176 176 176 176 176 
176 176 176 176 176 176 176 176 176 176 176 176 176 176 176 176 176 
176 176 176 176 176 176 176 176 176 176 176 176 176 176 176 176 176 
176 176 176 176 176 176 176 176 176 176 176 176 176 176 181 150 207 
255 255 255 255 255 255 255 255 255 255 255 255 255 255 255 255 255 
255 255 255 255 255 255 255 255 255 255 255 255 255 255 255 255 255 
255 255 255 255 255 255 255 255 255 255 255 255 255 255 255 255 255 
255 255 255 255 255 255 255 255 255 255 255 255 255 255 255 255 255 
255 255 255 255 255 255 255 255 255 255 255 255 255 255 255 255 255 
255 255 255 255 255 255 250 250 250 242 242 242 237 237 237 237 237 
232 232 226 226 226 226 218 218 218 218 218 218 218 218 218 218 218 
218 218 218 218 218 218 218 218 218 218 246 226   0   8 189 189 172 
172 172 172 172 172 172 172 172 172 172 176 172 172 172 172 181 176 
176 176 176 176 176 176 176 176 176 176 176 176 176 176 176 176 176 
176 176 176 176 176 179 179 179 176 176 176 176 176 176 176 176 176 
172 172 172 172 172 176 176 176 176 176 176 176 176 176 176 176 176 
176 176 176 176 176 176 176 155 170 162 155 150 162 117  82 130 162 
185 106 179 219 210 128 167 167 160 150 150 138 138 170 181 179 179 
179 176 176 176 176 176 176 176 176 176 176 176 176 176 176 176 176 
176 176 176 176 176 176 176 176 181 181 181 176 176 172 176 176 176 
176 176 176 176 176 176 176 176 176 176 176 176 176 176 176 176 176 
176 176 176 176 176 176 176 176 176 157 207 255 255 255 255 255 255 
255 255 255 255 255 255 255 255 255 255 255 255 255 255 255 255 255 
255 255 255 255 255 255 255 255 255 255 255 255 255 255 255 255 255 
255 255 255 255 255 255 255 255 255 255 255 255 255 255 255 255 255 
255 255 255 255 255 255 255 255 255 255 255 255 255 255 255 255 255 
255 255 255 255 255 255 255 255 255 255 255 255 255 255 255 255 255 
255 246 246 246 246 237 237 237 237 237 232 232 226 226 226 226 226 
218 218 218 218 218 218 218 218 218 218 218 218 218 218 218 218 218 
218 218 218 218 250 226   0   8 189 189 172 172 172 172 172 172 172 
172 172 172 176 176 172 172 172 172 176 176 176 176 176 176 176 176 
176 176 176 176 176 176 176 176 176 176 176 176 176 176 176 176 176 
176 176 179 179 179 179 179 179 176 181 176 176 176 172 172 176 172 
172 172 176 176 176 176 176 176 176 176 176 176 176 176 176 176 176 
189 150 117 130 146 130 146 120  82  71  76  76  55  47  55  82  94 
106 132 123 123 150 138 162 176 192 181 181 181 181 181 176 176 176 
179 179 179 179 181 181 176 176 176 176 176 176 176 176 176 176 176 
176 176 176 176 176 176 176 176 176 176 176 176 176 176 176 176 176 
176 176 176 176 176 176 176 176 176 176 176 176 176 176 176 176 176 
176 176 176 150 210 255 255 255 255 255 255 255 255 255 255 255 255 
255 255 255 255 255 255 255 255 255 255 255 255 255 255 255 255 255 
255 255 255 255 255 255 255 255 255 255 255 255 255 255 255 255 255 
255 255 255 255 255 255 255 255 255 255 255 255 255 255 255 255 255 
255 255 255 255 255 255 255 255 255 255 255 255 255 255 255 255 255 
255 255 255 255 255 255 255 255 255 255 255 246 246 246 246 246 237 
237 237 237 237 232 232 226 226 226 226 218 218 218 218 218 218 218 
218 218 218 218 218 218 218 218 218 218 218 218 218 218 218 237 226 
  0   8 189 189 172 172 172 172 172 172 172 172 172 172 172 172 172 
172 172 172 176 176 176 176 172 176 176 176 176 176 176 176 176 176 
176 176 176 176 176 176 176 176 176 176 176 176 172 172 172 172 172 
172 176 176 159 172 189 189 189 189 181 181 181 181 172 172 176 176 
176 176 176 176 176 176 176 176 176 176 176 176 179 172 150 128 138 
138 200 148  82 128  64  71 185 138 123 114 114 128 106 106 106  51 
 71 176 176 176 181 189 181 181 176 176 176 179 179 179 179 179 179 
179 179 176 176 176 176 179 179 179 179 179 176 176 176 176 176 176 
176 176 172 172 172 172 172 172 176 176 176 176 176 176 176 176 176 
176 176 176 176 176 176 176 176 176 176 176 176 176 181 150 210 255 
255 255 255 255 255 255 255 255 255 255 255 255 255 255 255 255 255 
255 255 255 255 255 255 255 255 255 255 255 255 255 255 255 255 255 
255 255 255 255 255 255 255 255 255 255 255 255 255 255 255 255 255 
255 255 255 255 255 255 255 255 255 255 255 255 255 255 255 255 255 
255 255 255 255 255 255 255 255 255 255 255 255 255 255 255 255 255 
255 255 255 255 250 246 246 246 246 242 237 237 237 237 232 232 226 
226 226 226 218 218 218 218 218 218 218 218 218 218 218 218 218 218 
218 218 218 218 218 218 218 218 218 237 226   0   8 189 189 172 172 
172 172 172 172 172 172 172 172 172 172 172 172 172 172 172 172 172 
176 176 176 176 176 176 176 176 176 176 176 176 176 176 176 176 176 
176 176 181 172 172 172 181 181 181 176 181 172 155 207 170 192 150 
155 170 176 176 176 179 192 181 181 176 176 176 176 176 176 176 176 
176 176 176 176 181 172 207 207 138 130 146 138 200  76  20  94  26 
146 224 146 197 188 179 179 153 165 185 138  99 178 178 192 172 150 
181 176 176 176 172 172 181 176 172 181 181 181 181 181 179 179 179 
179 179 179 179 179 176 176 176 176 176 176 176 176 176 176 176 176 
176 176 176 176 176 176 176 176 176 176 176 176 176 176 176 176 176 
176 176 176 176 176 176 176 181 157 210 255 255 255 255 255 255 255 
255 255 255 255 255 255 255 255 255 255 255 255 255 255 255 255 255 
255 255 255 255 255 255 255 255 255 255 255 255 255 255 255 255 255 
255 255 255 255 255 255 255 255 255 255 255 255 255 255 255 255 255 
255 255 255 255 255 255 255 255 255 255 255 255 255 255 255 255 255 
255 255 255 255 255 255 255 255 255 255 255 255 255 255 255 250 250 
250 242 242 237 237 237 237 232 232 232 226 226 226 218 218 218 218 
218 218 218 218 218 218 218 218 218 218 218 218 218 218 218 218 218 
218 218 210 235 226   0   8 189 189 170 172 172 172 172 179 179 172 
172 172 172 172 172 172 172 172 172 172 172 176 176 176 176 176 176 
176 176 176 176 176 176 176 176 176 176 176 176 176 176 207 207 200 
192 181 181 192 192 207 255 175 250 255 130 146 138 150 150 150 150 
138 170 181 176 176 176 176 176 176 176 176 170 170 170 170 170 155 
192 207 130 150 138 130 226 118 106 175 160 235 219 200 219 215 197 
132 128 130 130 153 153 130 232 150 178 226 178 192 207 189 189 189 
189 181 181 181 181 181 181 179 179 179 179 179 179 179 179 179 179 
179 179 179 179 179 179 176 176 176 176 176 176 176 176 176 176 176 
176 176 176 176 176 176 176 176 176 176 176 176 176 176 176 176 176 
176 176 157 210 255 255 255 255 255 255 255 255 255 255 255 255 255 
255 255 255 255 255 255 255 255 255 255 255 255 255 255 255 255 255 
255 255 255 255 255 255 255 255 255 255 255 255 255 255 255 255 255 
255 255 255 255 255 255 255 255 255 255 255 255 255 255 255 255 255 
255 255 255 255 255 255 255 255 255 255 255 255 255 255 255 255 255 
255 255 255 255 255 255 255 255 255 250 250 250 242 242 237 237 237 
237 232 232 226 226 226 226 218 218 218 218 218 218 218 218 218 218 
218 218 218 218 218 218 218 218 218 218 218 218 218 210 235 226   0 
  8 181 189 170 170 179 179 172 179 179 179 179 172 172 172 176 176 
176 176 176 176 176 176 176 176 176 176 176 176 176 176 176 176 176 
176 176 176 176 176 176 176 190 142 117 138 138 120  99 138 138 150 
226  71 138 169 132 138 146 146 160 160 160 160 172 179 181 172 172 
172 176 176 170 170 170 170 179 190 207 178 207 188 185 138 130 120 
175 160 200 210 188 169 160 160 148 153 215 176 210 160 185 176 160 
162 146  99 130 130 120 138 138 155 172 172 190 189 179 181 181 181 
181 179 179 179 179 179 179 179 179 179 179 179 176 176 176 176 176 
181 181 176 176 181 181 181 176 176 176 176 176 176 176 176 179 179 
179 179 179 172 172 179 179 176 176 176 176 176 176 155 210 255 255 
255 255 255 255 255 255 255 255 255 255 255 255 255 255 255 255 255 
255 255 255 255 255 255 255 255 255 255 255 255 255 255 255 255 255 
255 255 255 255 255 255 255 255 255 255 255 255 255 255 255 255 255 
255 255 255 255 255 255 255 255 255 255 255 255 255 255 255 255 255 
255 255 255 255 255 255 255 255 255 255 255 255 255 255 255 255 255 
255 255 255 250 250 250 242 242 237 237 237 237 232 232 226 226 226 
226 218 218 218 218 218 218 218 218 218 218 218 218 218 218 218 218 
218 218 218 218 218 218 218 210 235 218   0   8 189 189 170 170 179 
179 179 179 176 176 176 176 176 176 176 176 176 176 176 181 181 181 
176 176 176 176 176 176 176 176 176 176 176 176 176 176 176 179 176 
176 189 142  99 120 130 138 138  71  99 120  71 114 118  90 106  94 
 94 102 102  94  94 118 178 190 181 176 176 176 176 170 181 218 218 
218 218 218 210 150 150 138 219 169 200 210 200 255 153 102 146 128 
128 128 118 160 250  82  51 165 153 118 176 185 150 224 146 167 210 
150 188 150 150 117 117 117 170 179 179 179 179 179 179 179 179 179 
179 179 179 179 179 179 179 176 176 176 176 181 181 176 176 181 181 
181 176 176 176 176 176 176 176 176 179 179 179 179 179 170 170 179 
179 179 176 176 176 176 179 150 210 255 255 255 255 255 255 255 255 
255 255 255 255 255 255 255 255 255 255 255 255 255 255 255 255 255 
255 255 255 255 255 255 255 255 255 255 255 255 255 255 255 255 255 
255 255 255 255 255 255 255 255 255 255 255 255 255 255 255 255 255 
255 255 255 255 255 255 255 255 255 255 255 255 255 255 255 255 255 
255 255 255 255 255 255 255 255 255 255 255 255 255 255 246 246 246 
246 246 237 237 237 237 232 226 226 226 226 218 218 218 218 207 207 
207 207 207 207 207 207 207 207 207 207 207 207 207 207 207 207 207 
207 207 235 218   0   8 189 189 170 170 176 176 176 176 176 176 176 
176 176 176 176 176 176 176 176 176 176 176 176 176 176 176 176 176 
176 176 176 176 176 176 176 176 172 172 176 176 155 218 155 150 117 
188 172  47 118  55  17 215 160 188 160 193 179 169 169 169 160  82 
138 200 170 170 176 176 172 176 192 138 138 146 138 138  82 232 255 
210 138 138 169 138 237 128 146 146 130 138 146 146 128 160 250  51 
  8 185  31  90 102  31 165  31 114 114  94 167 167 153 204 185 219 
175 175 179 179 179 179 179 179 179 179 179 179 179 179 179 179 179 
179 179 179 179 176 176 176 176 176 176 176 176 176 176 176 176 176 
176 176 176 179 179 179 179 172 172 172 176 176 176 176 176 176 176 
176 150 210 255 255 255 255 255 255 255 255 255 255 255 255 255 255 
255 255 255 255 255 255 255 255 255 255 255 255 255 255 255 255 255 
255 255 255 255 255 255 255 255 255 255 255 255 255 255 255 255 255 
255 255 255 255 255 255 255 255 255 255 255 255 255 255 255 255 255 
255 255 255 255 255 255 255 255 255 255 255 255 255 255 255 255 255 
255 255 255 255 255 255 255 255 246 246 246 246 242 237 237 237 232 
232 226 226 226 226 218 218 218 218 207 207 207 207 207 207 207 207 
207 207 207 207 207 207 207 207 207 207 207 207 207 235 218   0   8 
189 189 170 170 176 176 176 176 176 176 176 176 176 176 176 176 176 
176 176 176 176 176 176 176 176 176 176 176 176 176 176 176 170 176 
176 181 181 176 176 176 155 207 150 150 117 172 162   0 114  41  94 
237 200 118 102 169 185 130 160 169 146 160 185 218 190 190 190 189 
189 192 192 120 120 138 138 138 169  64 146 210 118  99  71 246 200 
  0 102 169 130 146 146 138 118 160 255  31   0 160  60 179 102  20 
153   0 200  60  26 197   0 153  60 123  31 120 188 179 179 179 179 
179 179 179 179 179 179 179 179 179 179 179 179 179 176 176 176 176 
176 176 176 176 176 176 176 176 176 176 176 176 176 176 178 178 179 
179 179 179 181 176 176 176 176 176 176 176 176 150 210 255 255 255 
255 255 255 255 255 255 255 255 255 255 255 255 255 255 255 255 255 
255 255 255 255 255 255 255 255 255 255 255 255 255 255 255 255 255 
255 255 255 255 255 255 255 255 255 255 255 255 255 255 255 255 255 
255 255 255 255 255 255 255 255 255 255 255 255 255 255 255 255 255 
255 255 255 255 255 255 255 255 255 255 255 255 255 255 255 255 255 
255 255 246 246 246 246 237 237 237 237 232 232 226 226 226 218 218 
218 218 218 207 207 207 207 207 207 207 207 207 207 207 207 207 207 
207 207 207 207 207 207 207 235 218   0   8 189 189 170 170 176 176 
176 176 176 176 176 176 176 176 176 176 176 176 176 176 176 176 176 
176 176 176 176 176 176 176 176 176 176 176 176 170 155 170 170 181 
170 218 178 162  99 160 185 185 235 224 235 167 210 160 146 138 130 
153 118 132 118 106 130 117 117 150 150 150 150 178 188 130 130 146 
146 118 188  26  82 224 153 146  31 118 255 169 146 146 146 146 146 
160 146 169 224 114 132 146 102 215  82  31  90  41 255  47  26 179 
 17 246  55 123   8 162 200 178 179 179 179 179 179 179 179 179 179 
179 179 179 179 179 179 179 176 176 176 176 176 176 176 176 176 176 
176 176 176 176 176 176 176 176 178 178 178 178 178 179 176 176 176 
176 176 176 176 176 176 150 210 255 255 255 255 255 255 255 255 255 
255 255 255 255 255 255 255 255 255 255 255 255 255 255 255 255 255 
255 255 255 255 255 255 255 255 255 255 255 255 255 255 255 255 255 
255 255 255 255 255 255 255 255 255 255 255 255 255 255 255 255 255 
255 255 255 255 255 255 255 255 255 255 255 255 255 255 255 255 255 
255 255 255 255 255 255 255 255 255 255 255 255 255 246 246 246 242 
242 237 237 237 232 226 226 226 226 218 218 218 218 207 207 207 207 
207 207 207 207 207 207 207 207 207 207 207 207 207 207 207 207 207 
207 235 218   0   8 189 189 170 170 172 172 172 176 176 176 176 176 
176 176 176 176 176 176 176 176 176 176 176 176 176 176 176 176 176 
176 176 176 176 176 170 178 200 218 218 218 172 162 146 175 138 185 
210 169 114 114 114  94 153 200  71 146 146 123 160 169 160 179 169 
138 172 138 138 150  99 138 200 130 128 146 146 148 123 193 246 179 
185 146 130 120 232 153 153 138 153 153 146 138 138 160 224 176 235 
185 215 179 188 224 176 169 200 118 118 146 102 224  60 106 106 193 
172 179 179 179 179 179 179 179 179 179 179 179 179 179 179 179 179 
179 176 176 176 179 179 179 176 176 176 176 176 176 176 176 176 176 
176 176 170 170 176 176 176 172 172 172 172 172 176 176 176 176 176 
150 210 255 255 255 255 255 255 255 255 255 255 255 255 255 255 255 
255 255 255 255 255 255 255 255 255 255 255 255 255 255 255 255 255 
255 255 255 255 255 255 255 255 255 255 255 255 255 255 255 255 255 
255 255 255 255 255 255 255 255 255 255 255 255 255 255 255 255 255 
255 255 255 255 255 255 255 255 255 255 255 255 255 255 255 255 255 
255 255 255 255 255 255 255 246 246 246 246 237 237 237 237 232 226 
226 226 218 218 218 218 218 207 207 207 207 207 207 207 207 207 207 
207 207 207 207 207 207 207 207 207 207 207 200 226 218   0   8 189 
189 170 170 176 176 176 176 176 176 176 176 176 176 176 176 176 176 
176 176 176 176 176 176 176 176 176 176 176 176 176 176 176 170 179 
188 153 128 128  82 160 250 169 146 130 219 160 114 138 138 146 118 
179 210   0 118  47   0 185   0  94  76  20 130  60 130 106 106 146 
130 200 148 148 160 146 146 128 160 246 185  55 138  99  99 255 235 
165 118 146 128 138 146 128 160 255  37   0 153  76  76 146 102 160 
169 123 193 219 176 224 138 204 179 193 175 175 179 179 179 179 179 
179 179 179 179 179 179 179 179 179 179 179 179 179 176 176 179 179 
172 172 181 181 181 176 176 176 176 176 176 176 176 176 172 172 172 
179 172 178 179 172 172 172 179 179 179 179 150 207 255 255 255 255 
255 255 255 255 255 255 255 255 255 255 255 255 255 255 255 255 255 
255 255 255 255 255 255 255 255 255 255 255 255 255 255 255 255 255 
255 255 255 255 255 255 255 255 255 255 255 255 255 255 255 255 255 
255 255 255 255 255 255 255 255 255 255 255 255 255 255 255 255 255 
255 255 255 255 255 255 255 255 255 255 255 255 255 255 255 255 255 
255 246 246 246 242 237 237 237 232 232 226 226 226 218 218 218 218 
207 207 207 207 207 207 207 207 207 207 207 207 207 207 207 207 207 
207 207 207 207 207 200 235 218   0   8 189 189 170 170 176 176 176 
176 176 176 176 176 176 176 176 176 176 176 176 176 176 176 176 176 
176 176 176 176 176 176 176 176 176 176 190 175 114 114 138 165  31 
179 146 146  82 146 106  94 146 132 146 118 179 193   0 138  82  99 
176   0 130  71  82 138   0 123   0  90  90   0 188 153 118 130 128 
128 128 160 210 210 160 146 175 185 210   0 114 169 138 138 138 138 
128 153 255  60  20 160  26 138  82   0 153   0 160  47   0 179   0 
138 114 153 118 138 188 179 179 179 179 179 179 179 179 179 179 179 
179 179 179 179 179 176 176 176 176 176 176 181 181 172 176 176 176 
176 176 176 176 176 176 181 181 172 172 172 172 170 170 170 176 176 
176 176 172 172 172 150 210 255 255 255 255 255 255 255 255 255 255 
255 255 255 255 255 255 255 255 255 255 255 255 255 255 255 255 255 
255 255 255 255 255 255 255 255 255 255 255 255 255 255 255 255 255 
255 255 255 255 255 255 255 255 255 255 255 255 255 255 255 255 255 
255 255 255 255 255 255 255 255 255 255 255 255 255 255 255 255 255 
255 255 255 255 255 255 255 255 255 255 255 255 246 246 246 242 237 
237 237 232 232 226 226 226 218 218 218 218 207 207 207 207 207 207 
207 207 207 207 207 207 207 207 207 207 207 207 207 207 207 207 200 
226 218   0   8 189 189 170 170 176 176 176 176 176 176 176 176 176 
176 176 176 176 176 176 176 176 176 176 176 176 176 176 176 176 176 
176 176 176 170 190 188 138 138 138 165  55 146 200 138  47 160 250 
185 130 146 146 138 179 179 146 160 138 193 132 118 146 130 169 148 
 76 123  82 197 102  17 200 138 138 146 138 128 197  17  82 219 148 
 71  71 179 235 138 118 138 138 138 138 148 128 165 235  76  47 146 
 76 200 114  37 118  37 246  55  17 188   0 224  41 102   0 130 200 
179 179 179 179 179 179 179 179 179 179 179 179 179 179 179 179 176 
176 176 176 178 178 178 178 178 170 170 178 178 178 178 178 178 178 
178 178 190 190 190 190 190 181 181 181 172 172 172 172 172 179 150 
207 255 255 255 255 255 255 255 255 255 255 255 255 255 255 255 255 
255 255 255 255 255 255 255 255 255 255 255 255 255 255 255 255 255 
255 255 255 255 255 255 255 255 255 255 255 255 255 255 255 255 255 
255 255 255 255 255 255 255 255 255 255 255 255 255 255 255 255 255 
255 255 255 255 255 255 255 255 255 255 255 255 255 255 255 255 255 
255 255 255 255 255 255 246 246 246 242 237 237 237 232 226 226 226 
218 218 218 218 207 207 207 207 200 200 200 200 200 200 200 200 200 
200 200 200 207 207 207 207 207 207 207 200 218 218   0   8 189 189 
170 170 176 176 176 176 176 176 176 176 176 176 176 176 176 176 176 
176 176 176 176 176 176 176 176 176 176 176 176 176 176 170 181 192 
138 128 148 114 193 255 130 130  60 169 219 153 130 146 138 114 169 
197  60 138 138  82 153 153 146 146 128 148 188 148 169 153 138 160 
188 128 128 146 138 138 114 185 232 197 197 130  55 106 255 215 167 
138 160 160 153 160 148 167 224 165 193 160 160 193 138 138 130 120 
232  99  82 153  82 245  64 106  82 193 175 179 179 179 179 179 179 
179 179 179 179 179 179 179 179 179 179 176 176 176 176 178 178 178 
178 178 178 188 175 185 185 185 185 193  99  82 120 130 138 138 150 
155 179 170 170 179 172 172 172 172 179 150 210 255 255 255 255 255 
255 255 255 255 255 255 255 255 255 255 255 255 255 255 255 255 255 
255 255 255 255 255 255 255 255 255 255 255 255 255 255 255 255 255 
255 255 255 255 255 255 255 255 255 255 255 255 255 255 255 255 255 
255 255 255 255 255 255 255 255 255 255 255 255 255 255 255 255 255 
255 255 255 255 255 255 255 255 255 255 255 255 255 255 255 255 255 
246 246 246 242 237 237 237 232 226 226 226 218 218 218 218 207 207 
207 200 200 200 200 200 200 200 200 200 200 200 200 200 200 207 200 
200 200 207 207 200 226 218   0   8 190 190 170 170 170 170 170 170 
176 176 176 178 178 178 178 178 178 178 178 178 178 178 176 176 170 
170 176 176 176 176 176 172 172 172 192 192 138 130 146 130 118 237 
128 128 138 200 130  99 138 138 138 114 169 219   0 106  51   0 185 
  0  99  71  20 123  20 123  71  71 123  76 188 146 138 146 146 169 
118 185 255 169 106 146 106 106 242 200 160 123 146 146 138 138 128 
146 237 114 102 176 160 118 176 179 179 188 153 179 210 167 197 169 
169 160 179 185 172 179 179 179 179 179 179 179 179 179 176 176 176 
176 176 176 176 178 178 178 176 176 176 170 178 165 195 204 185 210 
210 197 188 176 102  94 102  82  76  76  60  60  55  71 178 178 172 
172 172 178 178 155 210 255 255 255 255 255 255 255 255 255 255 255 
255 255 255 255 255 255 255 255 255 255 255 255 255 255 255 255 255 
255 255 255 255 255 255 255 255 255 255 255 255 255 255 255 255 255 
255 255 255 255 255 255 255 255 255 255 255 255 255 255 255 255 255 
255 255 255 255 255 255 255 255 255 255 255 255 255 255 255 255 255 
255 255 255 255 255 255 255 255 255 255 255 246 246 246 237 237 237 
232 232 226 226 226 218 218 218 218 207 207 207 200 200 200 200 200 
200 200 200 200 200 200 200 200 200 200 200 200 200 200 200 200 226 
207   0   8 190 190 170 170 170 172 172 172 172 176 176 176 178 178 
178 178 178 178 178 178 178 178 176 176 176 170 176 176 176 176 176 
176 176 172 181 188 130 130 130 185  20 130 200 146  99 169 160 120 
138 138 138 128 176 200  17 138  82 106 175   0 114  71 102 132   0 
118   8 127  90   0 188 160 118 138 138 146 114 169 237 200 118 160 
146 146 237 114 146 138 128 138 138 138 114 153 250  41   0 160  26 
 82 102  17 153  17 128  94  71 169  82 128 153 169 146 138 185 179 
179 179 178 179 179 179 179 179 179 179 179 178 178 178 178 178 178 
178 178 176 176 155 190 200 160 138 193  94 130 106 153 215 179  71 
 99  37 138 232 185 179 132 146 192 178 176 176 176 176 176 155 210 
255 255 255 255 255 255 255 255 255 255 255 255 255 255 255 255 255 
255 255 255 255 255 255 255 255 255 255 255 255 255 255 255 255 255 
255 255 255 255 255 255 255 255 255 255 255 255 255 255 255 255 255 
255 255 255 255 255 255 255 255 255 255 255 255 255 255 255 255 255 
255 255 255 255 255 255 255 255 255 255 255 255 255 255 255 255 255 
255 255 255 255 255 246 246 246 242 237 237 232 232 226 226 218 218 
218 218 207 207 207 200 200 200 200 200 200 200 200 200 200 200 200 
200 200 200 200 200 200 200 200 200 200 218 207   0   8 190 190 170 
170 170 170 176 170 170 179 170 170 178 178 178 178 178 178 178 178 
178 176 176 176 176 170 176 179 179 179 179 179 179 170 179 178 138 
128 146 130 118 210 193 146  47 146 237 169 128 138 138 128 169 179 
153 169 160 185 146 160 160 146 179 153 138 138 118 195 127  60 188 
138 132 146 138 123 188  31  82 210 148 118  99 200 219  20 102 169 
128 138 138 138 118 153 250  60  17 153  51 169 106   0 128   0 219 
 37   0 193   0 197  51 114   0 130 188 178 176 176 176 176 176 176 
176 176 179 179 179 179 179 179 179 178 178 178 176 176 179 155 200 
218 150 120 188  71 120 118 160 246 175  55  71  71 210 255 179 204 
235 204 176 176 176 176 176 176 176 155 210 255 255 255 255 255 255 
255 255 255 255 255 255 255 255 255 255 255 255 255 255 255 255 255 
255 255 255 255 255 255 255 255 255 255 255 255 255 255 255 255 255 
255 255 255 255 255 255 255 255 255 255 255 255 255 255 255 255 255 
255 255 255 255 255 255 255 255 255 255 255 255 255 255 255 255 255 
255 255 255 255 255 255 255 255 255 255 255 255 255 255 255 255 246 
246 246 237 237 237 232 226 226 226 218 218 218 218 207 207 207 200 
200 200 200 200 200 200 200 200 200 200 200 200 200 200 200 200 200 
200 200 200 200 218 207   0   8 189 189 170 170 170 172 172 172 172 
172 170 170 170 170 170 170 170 170 170 176 176 179 179 176 176 170 
170 179 179 179 179 179 179 170 179 188 138 128 146  94 185 255 106 
138  76 169 237 146 120 130 130 114 167 200  20 118 118  47 146 106 
118 138  94 123 123 114 114  94  94 128 200 118 118 128 128 128  94 
132 215 224 179 120  37 118 255 185 146 128 146 146 146 146 138 160 
224 114 114 148 102 210 118  60 106  71 242  76  31 160  37 255  51 
102  60 185 185 170 176 176 178 178 178 178 178 178 178 178 178 176 
176 176 176 176 176 176 176 176 176 155 200 207 150 150 185  99 138 
120 146 226 146  20  51 153 237 153 114 179 176 165 150 150 150 170 
170 170 176 155 210 255 255 255 255 255 255 255 255 255 255 255 255 
255 255 255 255 255 255 255 255 255 255 255 255 255 255 255 255 255 
255 255 255 255 255 255 255 255 255 255 255 255 255 255 255 255 255 
255 255 255 255 255 255 255 255 255 255 255 255 255 255 255 255 255 
255 255 255 255 255 255 255 255 255 255 255 255 255 255 255 255 255 
255 255 255 255 255 255 255 255 255 255 246 246 246 242 237 237 232 
226 226 226 218 218 218 207 207 207 207 200 200 200 200 200 200 200 
200 200 200 200 200 200 200 200 200 200 200 200 200 200 190 218 207 
  0   8 181 190 170 179 176 172 172 172 172 172 176 170 170 170 170 
170 170 170 170 170 179 176 176 176 176 176 176 176 176 176 176 176 
176 170 179 188 138 128 130 160  60 179 146 128 146 210  82  71 153 
130 138 114 169 210   0 114  60   0 193   0  94  51  17 123   8 114 
 51  82 153  76 167 146 130 138 138 146  90 224 210 118 146 130  99 
 94 210 185 160 128 146 146 146 146 128 153 224 179 215 176 200 167 
176 215 167 193 179 160 185 160 160 197 138 146 146 185 162 176 176 
176 178 178 178 178 178 178 178 178 170 170 170 170 155 155 155 155 
155 150 162 150 178 210 185 150 188  99 130 118 162 237 175 130 165 
235 235 193 215 215 215 210 185 210 210 210 193 150 150 117 188 255 
255 255 255 255 255 255 255 255 255 255 255 255 255 255 255 255 255 
255 255 255 255 255 255 255 255 255 255 255 255 255 255 255 255 255 
255 255 255 255 255 255 255 255 255 255 255 255 255 255 255 255 255 
255 255 255 255 255 255 255 255 255 255 255 255 255 255 255 255 255 
255 255 255 255 255 255 255 255 255 255 255 255 255 255 255 255 255 
255 255 255 255 246 246 246 237 237 237 232 226 226 226 218 218 218 
207 207 207 207 200 200 200 200 200 200 200 200 200 200 200 200 200 
200 200 200 200 200 200 200 200 200 218 207   0   8 181 190 170 170 
170 172 172 172 172 172 176 170 170 170 170 170 170 170 170 170 170 
170 170 176 176 176 176 170 170 170 170 179 179 170 178 188 138 128 
138 160  60 167 193 153  82 146 219 138 128 138 138 128 169 200  20 
128  94 123 169   8 128  71 102 255 255 255 255 255 255 255 197 210 
224 235 224 255 255 255 138  99 118 120 138 106  94 219 169 118 138 
138 138 138 114 146 242  60   0 165  76  76 123  90 153 106 128 146 
138 179 160 138 188 188 188 146 175 179 179 179 178 178 178 178 170 
170 178 178 179 200 210 210 207 207 218 226 226 237 237 219 219 210 
235 185 130 130 138 138 185 226 193 235 245 245 224 242 242 224 224 
224 224 224 179 188 210 167 179 138 210 255 255 255 255 255 255 255 
255 255 255 255 255 255 255 255 255 255 255 255 255 255 255 255 255 
255 255 255 255 255 255 255 255 255 255 255 255 255 255 255 255 255 
255 255 255 255 255 255 255 255 255 255 255 255 255 255 255 255 255 
255 255 255 255 255 255 255 255 255 255 255 255 255 255 255 255 255 
255 255 255 255 255 255 255 255 255 255 255 255 255 255 255 246 246 
246 237 237 237 232 226 226 218 218 218 218 207 207 207 200 200 200 
200 200 200 190 190 190 190 190 190 200 200 200 200 200 200 200 200 
200 200 190 218 207   0   8 181 181 170 170 170 172 172 172 172 172 
176 170 170 170 170 170 170 170 170 170 170 170 170 176 176 176 179 
170 170 170 170 178 178 170 179 188 138 128 146 106 210 250 167 138 
 37 153 232 160 128 146 146 128 167 185 160 169 169 169 146 169 146 
138 197 255 224 132 138 148 118 102 114 123 123 123 123 123 153 193 
160 138 138 138 138 160 130  37  94 160 128 128 128 138 118 146 255 
 55   0 165  41 138  90   0 160   0 179  37   0 179   0 153  51 106 
  8 118 200 178 176 176 178 178 178 178 178 178 178 179 218 197 197 
197 197 197 193 193 193 193 179 185 175 169 179 179 200 130 175 146 
179 179 179 200 118  94 128 114 114 114 114 102 102  82  82 200 224 
169 185 160 219 255 255 255 255 255 255 255 255 255 255 255 255 255 
255 255 255 255 255 255 255 255 255 255 255 255 255 255 255 255 255 
255 255 255 255 255 255 255 255 255 255 255 255 255 255 255 255 255 
255 255 255 255 255 255 255 255 255 255 255 255 255 255 255 255 255 
255 255 255 255 255 255 255 255 255 255 255 255 255 255 255 255 255 
255 255 255 255 255 255 255 255 255 246 246 242 237 237 237 232 226 
226 218 218 218 210 207 207 207 200 200 190 190 190 190 190 190 190 
190 190 190 190 190 190 190 190 190 190 190 190 190 190 218 207   0 
  8 179 181 170 170 176 176 176 176 176 176 176 176 170 170 170 170 
170 170 170 176 176 176 176 170 170 170 170 170 176 176 176 176 176 
170 192 193 138 128 138 128 138 242  99 146 114 169 210 138 130 138 
138 114 165 210   8 106 106  17 160  76 102  82 123 255 242 128 128 
132  64  17  20  37  31  20  20   0   0   0  37  47  82  55  37  99 
185  99  99 146 128 138 138 138 128 146 242  76  26 138  82 210 102 
 20 114  41 255  60   8 179  31 255  41 106  47 175 188 170 176 176 
178 178 178 178 176 176 176 176 218 118  60  94  94  82  82 102 102 
 82 128 255 255 219 146 130 185 120 160 130 210 255 242 255 167 128 
146 146 153 153 153 153 160 146 130 210 242  60  90  76 148 255 255 
255 255 255 255 255 255 255 255 255 255 255 255 255 255 255 255 255 
255 255 255 255 255 255 255 255 255 255 255 255 255 255 255 255 255 
255 255 255 255 255 255 255 255 255 255 255 255 255 255 255 255 255 
255 255 255 255 255 255 255 255 255 255 255 255 255 255 255 255 255 
255 255 255 255 255 255 255 255 255 255 255 255 255 255 255 255 255 
255 255 255 246 246 246 237 237 237 232 226 226 218 218 218 207 207 
207 200 200 200 190 190 190 190 190 190 190 190 190 190 190 190 190 
190 190 190 190 190 190 190 190 218 207   0   8 179 179 172 170 170 
170 172 172 172 172 176 176 170 170 170 170 170 170 170 176 176 192 
207 192 192 192 200 181 170 176 176 176 176 170 192 210 138 118 128 
165  47 175 175 120 138 185  99  71 146 130 128 114 160 215   0  94 
 47   0 179   0  71 114   0  41  51 106  71  90  71   8  47  60 123 
153 138 146 146 130 130  60 106  71  71  82 219 235 160 123 146 146 
146 146 138 153 219 146 175 169 146 179 160 148 132 138 204 123 123 
153 128 224  90 130 146 193 172 178 176 178 178 176 178 178 176 176 
176 176 226 160 118 138 138 138 138 138 160 167 167 106 160 224 185 
167 146 219 237  94 169 255  82  31 160 176 153 153 153 153 153 146 
146 138 118 210 246  41  82  51 114 255 255 255 255 255 255 255 255 
255 255 255 255 255 255 255 255 255 255 255 255 255 255 255 255 255 
255 255 255 255 255 255 255 255 255 255 255 255 255 255 255 255 255 
255 255 255 255 255 255 255 255 255 255 255 255 255 255 255 255 255 
255 255 255 255 255 255 255 255 255 255 255 255 255 255 255 255 255 
255 255 255 255 255 255 255 255 255 255 255 255 255 255 246 246 246 
237 237 232 226 226 226 218 218 207 207 207 207 200 200 200 190 190 
190 190 190 190 190 190 190 190 190 190 190 190 190 190 190 190 190 
190 190 218 200   0   8 179 179 170 170 170 170 170 170 170 170 170 
170 170 170 178 178 178 178 170 179 170 155 155 155 155 155 155 170 
178 170 170 170 170 170 188 188 130 120 120 118  99 188 179 114  31 
114 235 146 102 118 128 114 148 179  41 123 106 132 176  41 123 197 
106  41  76  82  71 118  99  55  82  82 160 204 179 185 185 210 162 
 71  99  94  94  99 193 204 138 114 138 128 128 138 123 146 224 138 
146 169 160 132 176 179 179 179 138 179 197 169 169 132 197 185 179 
153 175 178 178 178 178 178 170 172 172 178 172 188 210 138 106 123 
123 123 123 123 128 146 176  94 138 242 224 169 224 106  82   8 132 
255 118  31 138 167 138 138 138 138 138 138 138 132 114 210 242  82 
 82 102 179 255 255 255 255 255 255 255 255 255 255 255 255 255 255 
255 255 255 255 255 255 255 255 255 255 255 255 255 255 255 255 255 
255 255 255 255 255 255 255 255 255 255 255 255 255 255 255 255 255 
255 255 255 255 255 255 255 255 255 255 255 255 255 255 255 255 255 
255 255 255 255 255 255 255 255 255 255 255 255 255 255 255 255 255 
255 255 255 255 255 255 255 255 246 246 237 237 237 232 226 226 226 
218 218 207 207 207 200 200 200 200 190 190 190 190 190 190 190 190 
190 190 190 190 190 190 190 190 190 190 190 190 190 218 200   0   8 
179 179 170 170 170 170 170 170 170 170 170 170 170 170 170 178 172 
162 150 172 172  37   0  37  20  20  20 130 200 162 172 172 172 172 
172 169 146 146 160 128 193 224 188 167 138 176 215 197 188 200 210 
215 215 219 242 237 250 250 235 255 255 255 255 255 255 219 237 250 
130 106 138  99  99 160 160 153 146 175 130  99  99  99  82 106 169 
 94 118 128 118 128 128 128 118 146 255  41   0 146  31  94  94   0 
148   0 153  76   8 185  26 138  90 138  51 106 193 178 178 178 178 
178 178 178 188 150 120 162 175 132 132 132 132 128 128 114 114 128 
138 176 167 188 188 148 148 179 219 219 242 250 179 169 169 153 165 
165 165 165 165 165 169 148 138 210 224  90 102 146 215 255 255 255 
255 255 255 255 255 255 255 255 255 255 255 255 255 255 255 255 255 
255 255 255 255 255 255 255 255 255 255 255 255 255 255 255 255 255 
255 255 255 255 255 255 255 255 255 255 255 255 255 255 255 255 255 
255 255 255 255 255 255 255 255 255 255 255 255 255 255 255 255 255 
255 255 255 255 255 255 255 255 255 255 255 255 255 255 255 255 255 
255 255 246 246 246 237 237 232 226 226 226 218 218 218 207 207 200 
200 200 190 190 190 190 190 190 190 190 190 190 190 190 190 190 190 
190 190 190 190 190 190 190 218 200   0   8 190 192 170 178 178 178 
178 178 178 178 178 178 178 155 150 138 162 193 193 193 215 165 153 
176 176 179 185 219 242 242 232 232 232 237 237 237 255 255 255 255 
255 224 250 255 255 255 224 255 255 255 255 255 255 255 246 255 255 
242 242 242 224 215 215 210 210 210 210 246 130  99 138 118 118 185 
185 179 160 200 138 118 118  99  82 118 169  60  71 146 120 128 128 
138 118 146 255  51   0 146  47 179 102   0 123   0 242  31   0 176 
  0 235  17  90   8 146 210 172 178 172 172 172 172 172 192 150  82 
138 193 153 197 188 188 176 188 188 176 148 132 123  90  51  76 138 
114 130 130 153 153 153 153 160 185 193 193 185 185 185 185 179 185 
188 167 210 210 179 188 169 235 255 255 255 255 255 255 255 255 255 
255 255 255 255 255 255 255 255 255 255 255 255 255 255 255 255 255 
255 255 255 255 255 255 255 255 255 255 255 255 255 255 255 255 255 
255 255 255 255 255 255 255 255 255 255 255 255 255 255 255 255 255 
255 255 255 255 255 255 255 255 255 255 255 255 255 255 255 255 255 
255 255 255 255 255 255 255 255 255 255 255 255 255 246 246 246 237 
237 232 232 226 218 218 218 207 207 207 207 200 200 190 190 190 190 
190 190 190 190 190 190 190 190 190 190 190 190 190 190 190 190 190 
190 218 200   0  17 200 207 190 179 179 179 179 179 179 179 179 178 
155 192 235 162 185 250 250 250 250 255 255 255 255 250 250 242 224 
197 197 215 204 188 167 193 193 179 153 153 179 176 169 118 118 146 
146 138  94  94 132  94  94 102  51 102  82  82  82  37  37  51  41 
  8  94 179 138 162  99  82  99  94  99 128 128 106 128 118  94  99 
 99  99  82  94 169 210 138 106 130 128 128 138 118 153 224 114 118 
160 128 210 138 102 128 114 242 102  94 165 106 255  82 123 138 197 
169 172 188 172 150 150 150 150 162 150  99 162 210 176 235 204 188 
242 255 255 204 176 165 153 176 197 197 153 153 118 106 106 114 128 
114 138 146 146 160 153 153 153 153 146 153 153 132 200 224 127 138 
106 179 255 255 255 255 255 255 255 255 255 255 255 255 255 255 255 
255 255 255 255 255 255 255 255 255 255 255 255 255 255 255 255 255 
255 255 255 255 255 255 255 255 255 255 255 255 255 255 255 255 255 
255 255 255 255 255 255 255 255 255 255 255 255 255 255 255 255 255 
255 255 255 255 255 255 255 255 255 255 255 255 255 255 255 255 255 
255 255 255 255 255 255 255 246 246 246 237 237 232 226 226 218 218 
218 218 207 200 200 200 190 190 190 190 190 190 190 190 190 190 190 
190 190 190 190 190 190 190 190 190 190 190 190 218 190   0   8 170 
170 155 155 155 150 150 150 150 170 181 192 162 207 210 160 130  64 
 82 120 120  76  55  82  76  47  37  60  60  41  41  51  41  37  31 
 37  31  17  37  17  17  37   0  47  20   0  20   0  47  47   0  41 
  0  41  64   0   0   0  31 114 114 114 114 114 138 118  82  82  71 
 82  60  71  47  31  37  20  55  31  55  47  47  82  71  82 185 200 
167 114 130 130 130 138 118 148 215 176 210 175 185 146 169 200 167 
179 153 176 160 138 114 138 128 132 132 138  99 162 130 242 219 219 
219 232 193  71 120 255 232 232 235 224 224 255 153 128 235 235 224 
232 246 255 255  82 146 255 255 250 255 210  82 200 179 132 153 169 
160 146 169 185  94  31  60 179 224   0  60  26 102 255 255 255 255 
255 255 255 255 255 255 255 255 255 255 255 255 255 255 255 255 255 
255 255 255 255 255 255 255 255 255 255 255 255 255 255 255 255 255 
255 255 255 255 255 255 255 255 255 255 255 255 255 255 255 255 255 
255 255 255 255 255 255 255 255 255 255 255 255 255 255 255 255 255 
255 255 255 255 255 255 255 255 255 255 255 255 255 255 255 255 255 
255 246 246 237 237 232 226 226 226 218 218 207 207 207 207 200 200 
190 190 190 190 190 190 181 181 181 181 181 181 181 181 190 190 190 
190 190 190 190 190 179 218 190   0   0 117 117 117 117 117 117 117 
117 117 117 117 150 172 150  99  82 114  94  60   0   0  47  94   0 
  0  60 106   0   0 102  90   0   0  71 146  17   0   0 138 153   8 
  8   0 179 138  17  26   0 185 210   0 146 146  71 235  17  31  31 
 76 255 255 235 235 255 215 153 138  94  99  99  82  99  76  31  47 
 55  55 118  99  37  47  71  55  94 200 106 106 118 118 118 128 128 
114 138 245  94  20 146  94 118 128  60 160  60 148 102  90 169 138 
123 160 153 138 169 118 185 185 242 242 255 235 235 250 120 175 255 
215 219 232 224 224 250 146 128 246 250 219 246 237 200 255 146 138 
232 250 232 219 235 185 219 210 224 224 200 210 224 215 200 179 160 
160 179 235 188 188 128 176 255 255 255 255 255 255 255 255 255 255 
255 255 255 255 255 255 255 255 255 255 255 255 255 255 255 255 255 
255 255 255 255 255 255 255 255 255 255 255 255 255 255 255 255 255 
255 255 255 255 255 255 255 255 255 255 255 255 255 255 255 255 255 
255 255 255 255 255 255 255 255 255 255 255 255 255 255 255 255 255 
255 255 255 255 255 255 255 255 255 255 255 255 246 246 237 237 232 
226 226 226 218 218 207 207 207 207 200 190 190 190 181 181 181 181 
181 181 181 181 181 181 181 181 181 181 181 181 181 181 181 181 181 
218 190   0   0 117 117 117 117 117 117 117 117 117 117 117  82 117 
 99 162  82 169 255 197  41  64 169 242  82  71 185 232  94 106 219 
219  82 118 175 250 165 114 123 224 255 165 153 118 250 232 179 160 
146 235 246 146 210 255 153 255 169 179 197 188 242 242 235 224 255 
210 146 146 130 118  99  99  99  82  60  71  71  71  99 106 114  82 
114  82 118 175  60  82 160 138 138 146 160 138 179 255  76   0 188 
 60 179 132  17 160   8 235  51 138 255 255 210 255 235 224 255 224 
224 255 193 219 242 204 200 255 237 219 242 210 200 250 219 193 232 
255 215 232 242 185 215 242 193 210 255 232 193 246 235 169 224 255 
219 204 255 250 204 219 255 224 204 255 255 242 210 235 255 255 185 
215 255 255 255 255 255 255 255 255 255 255 255 255 255 255 255 255 
255 255 255 255 255 255 255 255 255 255 255 255 255 255 255 255 255 
255 255 255 255 255 255 255 255 255 255 255 255 255 255 255 255 255 
255 255 255 255 255 255 255 255 255 255 255 255 255 255 255 255 255 
255 255 255 255 255 255 255 255 255 255 255 255 255 255 255 255 255 
255 255 255 255 255 255 242 242 242 237 232 226 226 226 218 218 218 
207 200 200 200 190 190 190 181 181 181 181 181 181 181 181 181 181 
181 181 181 181 181 181 181 181 181 181 181 207 190   0   0 150 150 
117 117 117 117 117  99  99  99  99  99 120 120 232 138 232 255 255 
255 255 255 255 255 242 219 210 219 219 219 219 219 224 219 204 224 
235 235 200 210 215 224 235 197 215 193 232 219 193 193 210 219 169 
235 148 224 204 215 215 179 167 179 179 160 188 200 193 219 130  99 
130 118 106 106 118 118 118 118  76  82 128 128  94 118 138 118 128 
128 128 128 128 128 128 128 165 114  94 165 106  82  76  60  82  51 
106   8 242 153  41 255  82 169 210   0 224 179   0 250 146   0 215 
200   0 185 200   0 179 210   0 130 250  17  76 255  64  17 250 114 
 20 224 132   0 210 235   0  64 255  90   0 160 255   0   0 250 185 
  0  90 255  94   0 138 255  51   0 193 160 160 255 255 255 255 255 
255 255 255 255 255 255 255 255 255 255 255 255 255 255 255 255 255 
255 255 255 255 255 255 255 255 255 255 255 255 255 255 255 255 255 
255 255 255 255 255 255 255 255 255 255 255 255 255 255 255 255 255 
255 255 255 255 255 255 255 255 255 255 255 255 255 255 255 255 255 
255 255 255 255 255 255 255 255 255 255 255 255 255 255 255 255 255 
246 246 237 237 237 226 226 226 218 218 207 207 207 200 200 190 190 
190 181 181 181 181 181 181 181 181 181 181 181 181 181 181 181 181 
181 181 181 181 176 207 190   8   0 120  99  99  99  99  99 117 117 
138 150 170 178 172 172 172 146 146 106 106 118 106  82  60  60 114 
160 160 106 153 138 128 160 146 160 114 114 146 146 106 118 153  82 
200  76 165  71 179 123 123 138  94 193  55 224  31 160 160 106 153 
118 118 118 148  94 179 237 250 255 138  99 146 130 130 130 146 146 
120 169 210  51   8  94  94  82  82  82  82  76  64  64  64  64  60 
 51  41  82  82  90  90   0  20  60  20  55  51   0 255  82  64 255 
 60 197 153  51 237 132  17 255 123  51 250 167  31 224 167  17 215 
197  31 179 224  71 148 250  51  94 250 123 102 235 128  64 232 193 
 26 148 250 114  76 200 255  64  94 255 169  26 169 235 132  60 185 
237  94  64 219 169 188 255 255 255 255 255 255 255 255 255 255 255 
255 255 255 255 255 255 255 255 255 255 255 255 255 255 255 255 255 
255 255 255 255 255 255 255 255 255 255 255 255 255 255 255 255 255 
255 255 255 255 255 255 255 255 255 255 255 255 255 255 255 255 255 
255 255 255 255 255 255 255 255 255 255 255 255 255 255 255 255 255 
255 255 255 255 255 255 255 255 255 255 255 246 246 237 237 232 232 
226 218 218 218 207 207 207 200 200 190 190 190 181 181 181 181 176 
176 176 176 176 176 181 181 181 181 181 181 181 181 181 181 176 207 
190   0   0 117 117 117 150 172 172 172 172 150 138 117 117  99  99 
 55  71  71  55  71  71  76  82  82 114 102 138 179  82 138 146 138 
138 128 160 146 114 148 123 123 146 160  71 160  94 204  51 193 106 
146 179  71 200  64 219 106 138 146 118 153 176 167 167 179 148 200 
114  99 130  82  71  71  71  71  71  71  71  20 106 242 210  94   0 
 64  76  64  64  76  76  76  64  51  41  51  31   8  64  90  90  90 
 20  31  55   0  90  99   0 224 132 153 246  71 188 176  76 219 188 
102 250 146  82 255 169  71 237 185 146 224 179 118 235 210 106 176 
235 165 153 219 146 138 235 160 138 219 210 176 153 242 138 153 235 
215 138 167 224 193 160 176 235 153 146 210 219 153 160 232 169 200 
255 255 255 255 255 255 255 255 255 255 255 255 255 255 255 255 255 
255 255 255 255 255 255 255 255 255 255 255 255 255 255 255 255 255 
255 255 255 255 255 255 255 255 255 255 255 255 255 255 255 255 255 
255 255 255 255 255 255 255 255 255 255 255 255 255 255 255 255 255 
255 255 255 255 255 255 255 255 255 255 255 255 255 255 255 255 255 
255 255 255 255 255 246 246 237 237 232 226 226 218 218 218 207 207 
200 200 190 190 190 190 181 176 176 176 176 176 176 176 176 176 176 
176 176 176 176 176 176 176 176 176 176 189 189   0   8 178 178 150 
138 130 120  99  82  82  71  71  71  82  82  99  99  99  99 118 118 
118 130 118 128  60 102 169  41 102 132 123 102 102 138 148  82 114 
 94 106 165  90  64 160  82 219   0 169  82 138 197  31 200  37 215 
106 114 102 118 118 197 153 167 179 146 200 138  76  55  71  82  55 
 71  55  20  37  55   8 106 215 200 224 160   0  60  41  31  51  51 
 51  41 123 138 114 148 235  82   0 153  90  60  90  47   0 123  99 
  8 232 160 102 250  37 193 179  20 224 197  60 250 160   0 250 188 
  0 193 224 102 197 179  17 179 242   0  76 255 167 114 242  94  20 
235 138   0 193 224 132  64 255  76   0 210 255   0  20 250 210  94 
 90 255  76   0 219 242  51   0 200 185 193 255 255 255 255 255 255 
255 255 255 255 255 255 255 255 255 255 255 255 255 255 255 255 255 
255 255 255 255 255 255 255 255 255 255 255 255 255 255 255 255 255 
255 255 255 255 255 255 255 255 255 255 255 255 255 255 255 255 255 
255 255 255 255 255 255 255 255 255 255 255 255 255 255 255 255 255 
255 255 255 255 255 255 255 255 255 255 255 255 255 255 255 255 246 
246 237 237 232 232 226 218 218 218 207 207 200 200 190 190 190 190 
176 176 176 176 176 176 176 176 176 176 176 176 176 176 176 176 176 
176 176 176 176 189 190   0   0 150 138 120 120 106 106 138 138 160 
146 130 130 138 130 138 130 130 120 130 130 130 120 120  71 102 204 
204 123 165 188 165 148 153 176 165 132 146 138 138 188 106 138 235 
102 200  60 169 114 148 188  76 193  71 200  94 138 114 114 123 169 
153 148 176 138 188 175 138  94  99  99  94  82  82  47  47  55  37 
123 204 176 176 224 118 102  20  47  47  41  47  20 160 188 138 197 
255  82   0 193 123  37  82  94  82 146  94  20 224 128  82 242  37 
219 128  17 235 167  82 255 138   0 245 179   0 200 224  90 235 169 
  0 153 255  31  90 235 148 160 250  82   8 250 118   0 200 224 138 
102 255  76   0 235 255   0  20 242 215 118 123 255  76  20 255 232 
 60   0 204 185 193 255 255 255 255 255 255 255 255 255 255 255 255 
255 255 255 255 255 255 255 255 255 255 255 255 255 255 255 255 255 
255 255 255 255 255 255 255 255 255 255 255 255 255 255 255 255 255 
255 255 255 255 255 255 255 255 255 255 255 255 255 255 255 255 255 
255 255 255 255 255 255 255 255 255 255 255 255 255 255 255 255 255 
255 255 255 255 255 255 255 255 255 255 246 246 237 237 232 226 226 
218 218 218 207 207 200 200 190 190 190 181 176 176 176 176 176 176 
176 176 176 176 176 176 176 176 176 176 176 176 176 176 176 189 189 
  0   0 123 123 123 132 132 146 146 132 138 138 127 123 128 118 130 
118 130  99  99  99  99 120 120  82 146 242 224 224 224 224 224 235 
235 235 224 224 235 235 235 224 242 242 224 235 235 250 235 235 235 
224 250 224 250 235 235 242 242 245 235 242 242 235 235 255 210 146 
160 130 106  99  99  82  82  76  64  71  31 118 215 179 200 132 138 
232   0  41  41  41  71  47 130 153 132 167 255 102  51 232 146  60 
162  82  55 162  82  37 224 179 169 215 128 200 176 128 210 176 146 
215 160 132 215 179  76 197 188 123 215 167  51 188 215  71 118 224 
153 153 235 102  51 235 128   0 200 200 123 102 255  64   0 219 245 
  0  37 242 200  94 123 250  51  20 250 219  41   0 193 175 188 255 
255 255 255 255 255 255 255 255 255 255 255 255 255 255 255 255 255 
255 255 255 255 255 255 255 255 255 255 255 255 255 255 255 255 255 
255 255 255 255 255 255 255 255 255 255 255 255 255 255 255 255 255 
255 255 255 255 255 255 255 255 255 255 255 255 255 255 255 255 255 
255 255 255 255 255 255 255 255 255 255 255 255 255 255 255 255 255 
255 255 255 255 246 242 237 237 232 226 218 218 218 207 207 207 200 
200 190 190 190 181 176 176 176 176 176 176 176 176 176 176 176 176 
176 176 176 176 176 176 176 176 176 189 190   0   0 123 123 114 114 
114 114 123 123 114 123 114 114 118 118 118 118 118  82 120 120 120 
130 130 106  55 118 160  64 114 114  94 138 114 138 114  94 123 123 
 90 114 132  82 153  94 148  60 167 128 128 128 106 193  60 235  47 
165 146 148 148 148 128 148 148 138 188 210 200 226 120  82 120 118 
120 118 118 130  94 123 204 197 197 130 197 219   0  37 114  82  82 
 82  20   8  26   8   0   0   8 138 138  71  60   0  76 165  47   0 
219 242 224 224 250 215 242 255 197 224 255 188 242 255 204 215 255 
224 224 255 215 215 255 235 188 255 255 188 242 255 188 242 255 200 
235 255 215 193 255 235 185 242 255 210 197 235 242 200 188 224 204 
188 215 219 200 200 215 215 219 160 197 255 255 255 255 255 255 255 
255 255 255 255 255 255 255 255 255 255 255 255 255 255 255 255 255 
255 255 255 255 255 255 255 255 255 255 255 255 255 255 255 255 255 
255 255 255 255 255 255 255 255 255 255 255 255 255 255 255 255 255 
255 255 255 255 255 255 255 255 255 255 255 255 255 255 255 255 255 
255 255 255 255 255 255 255 255 255 255 255 255 255 255 255 246 246 
237 237 232 226 218 218 218 218 207 200 200 190 190 190 190 176 172 
172 172 172 172 172 172 172 172 172 172 172 176 176 176 176 176 176 
176 176 176 189 189   0   0 132 132 123 118 118 118 118 118 118 118 
118 118 118 118 118 128  94  94 118 118 118 130  99  94  94 146 179 
 90 138 153 132 146 123 153 146 114 138 138 114 153 132  82 167  94 
188  51 179 114 138 167  64 210  51 224  55 160 146 114 153 138 128 
128 148  82 188 210 218 250 138  99 130 130 130 120 120 146  76 123 
215 179 204 130 210 210   8  26  41  51  90  82  17  20   8   8  20 
  0   0 114 106  41  94 102 176 210 130 114 250  82  47 210  47 169 
200  26 255 188  41 255 169  60 255 215  41 188 176  51 188 204  76 
167 224 106 138 224 138 138 210 169 153 200 179 169 200 200 185 210 
200 200 210 200 210 224 224 200 210 242 224 197 242 255 210 210 255 
255 232 153 204 255 255 255 255 255 255 255 255 255 255 255 255 255 
255 255 255 255 255 255 255 255 255 255 255 255 255 255 255 255 255 
255 255 255 255 255 255 255 255 255 255 255 255 255 255 255 255 255 
255 255 255 255 255 255 255 255 255 255 255 255 255 255 255 255 255 
255 255 255 255 255 255 255 255 255 255 255 255 255 255 255 255 255 
255 255 255 255 255 255 255 255 255 246 242 237 237 226 226 218 218 
218 210 207 200 200 190 190 190 181 181 172 172 172 172 172 172 172 
172 172 172 172 172 172 172 172 172 172 172 172 172 172 189 181   0 
  0 138 138 130 138 146 132 132 138 146 138 138 130 130 130 138 114 
106 146 114 130 120 118 128  99  94 138 169  76 132 138 123 132  94 
148 160  94 106 102 102 165  94  82 132 102 224  17 179 114 146 210 
 17 215   8 224 102 128  82 132 128 197 153 167 188  82 188  99  71 
 94  71  71  47  47  31   8   8  20   0  76 235 188 215 146 102 215 
  0   0   0   0  64  55   0   0   0   0  20 188 255 224 255 235 153 
132 132 106 132  94 118 224 210 193 200 179 146 138 153 148 114 176 
114  90 114  82  51 197 138   0 148 148   0 114 215   0  26 250   0 
  0 250  60   0 242  82   0 215 224   0  76 255  51   0 200 255   0 
  0 255 146   0  94 255  51   0 153 255   8   0 219 138 153 255 255 
255 255 255 255 255 255 255 255 255 255 255 255 255 255 255 255 255 
255 255 255 255 255 255 255 255 255 255 255 255 255 255 255 255 255 
255 255 255 255 255 255 255 255 255 255 255 255 255 255 255 255 255 
255 255 255 255 255 255 255 255 255 255 255 255 255 255 255 255 255 
255 255 255 255 255 255 255 255 255 255 255 255 255 255 255 255 255 
255 255 255 246 242 237 237 232 226 218 218 207 207 207 200 200 190 
190 190 181 176 172 172 172 172 172 172 172 172 172 172 172 172 172 
172 172 172 172 172 172 172 172 189 176   8   0 120 118 118 138 132 
118 123 123 123 123 123 123 118 118 118  82 118 120  47  71  55  55 
160  82 114 197 193 138 160 169 153 153 128 167 146 138 188 179 165 
210 165 165 146 106 193  55 169 138 160 193  94 210  82 219 138 138 
123 153 138 224 188 200 215 138 224 200 132  71  71  94  71  76  82 
 82  94  94  94 132 197 179 197 165 179 242  90 123 160 153 165 179 
169 169 204 215 188 245 255 255 255 245  37   0   8   0   8   0 123 
255 255 255 255 128   0  26   0   0   0  76   0   8  17   0  90 200 
255 245 250 242 235 255 255 242 242 255 224 235 255 215 197 255 204 
169 242 242 153 179 242 146  94 176 169  37 130 242 160  76 169 242 
114  60 193 235  90  76 219 160 188 255 255 255 255 255 255 255 255 
255 255 255 255 255 255 255 255 255 255 255 255 255 255 255 255 255 
255 255 255 255 255 255 255 255 255 255 255 255 255 255 255 255 255 
255 255 255 255 255 255 255 255 255 255 255 255 255 255 255 255 255 
255 255 255 255 255 255 255 255 255 255 255 255 255 255 255 255 255 
255 255 255 255 255 255 255 255 255 255 255 255 255 255 246 246 237 
232 232 226 226 218 207 207 207 200 200 190 190 190 176 176 172 172 
172 172 172 172 172 172 172 172 172 172 172 172 172 172 172 172 172 
172 172 189 176   0   0 118 146  71   8   8  55  26   0  17  31  31 
 31  47   0  31  55 138 130  20  20  26  90 153  60 132 255 235 250 
250 242 242 219 210 197 210 169 169 188 176 160 160 138 165 160 160 
169 160 179 219 204 224 204 215 193 210 193 193 169 165 176 169 169 
160 167 153 153 138 123 123 114 114 114 118 132 146 153 165 118 102 
114 102 114 179 148 165 188 188 188 165 179 204 204 204 204 176 132 
138 123 123 153 118 102 114 132 138 176 215 224 197 215 235 138  82 
106 118 118 138 160 179 179 200 200 179 179 255 255 242 242 242 224 
200 224 197 160 179 179 138 153 138  94  94 118  64  64  90  41   0 
 37  55  20 118 106 146 210 193 169 169 235 128 128 210 210 138 148 
210 167 204 255 255 255 255 255 255 255 255 255 255 255 255 255 255 
255 255 255 255 255 255 255 255 255 255 255 255 255 255 255 255 255 
255 255 255 255 255 255 255 255 255 255 255 255 255 255 255 255 255 
255 255 255 255 255 255 255 255 255 255 255 255 255 255 255 255 255 
255 255 255 255 255 255 255 255 255 255 255 255 255 255 255 255 255 
255 255 255 255 255 255 255 255 242 242 237 237 226 226 218 218 207 
207 207 200 200 190 190 181 181 176 172 172 172 172 172 172 172 172 
172 172 172 172 172 172 172 172 172 172 172 172 172 189 176   0   0 
120 162  71   0   0  76  41   8  31  37  20  20  51  26  20  82 118 
 99  47  55  47 106 153  90 127 188 165 153 153 146 169 255 255 255 
255 237  51   0  31  20  51   0 179 255 224 224 255 179  64 102  90 
 90  82  82  64  64  64  76 138  26  31  31  37  37  17   0  60 245 
242 176 176 176 176 165 153 132 138 138 138 138 118 123  90  90 138 
153 153 132 132 114 132 123 123 123 123 123 138 165 176 188 204 210 
210 210 176 153 138 118 102 106 153 188 210 224 242 255 215 146 146 
146 132 132 102  82  51  26  26   8   8   8   0   0   0   0   0   0 
  0   0   0   0   8   8   8   8  20  37  47  55  71  82 160 169 130 
210 179 118 153 215 165 165 169 210 128 114 210 160 197 255 255 255 
255 255 255 255 255 255 255 255 255 255 255 255 255 255 255 255 255 
255 255 255 255 255 255 255 255 255 255 255 255 255 255 255 255 255 
255 255 255 255 255 255 255 255 255 255 255 255 255 255 255 255 255 
255 255 255 255 255 255 255 255 255 255 255 255 255 255 255 255 255 
255 255 255 255 255 255 255 255 255 255 255 255 255 255 255 255 255 
255 255 242 242 237 232 226 226 218 218 218 207 200 200 200 190 190 
190 176 176 172 172 172 172 172 172 172 172 172 172 172 172 172 172 
172 172 172 172 172 172 172 189 176   0   0 138 138 120 130 146 138 
138 132 123 138 146 160 160 179 185 169 153 153 146 255 235 118 106 
123 123 106 102 102 106 138 102 153 215 197 224 235 118  47  64  82 
102   0 215 255 255 255 255 255  60   8  26  37  37  47  26  51  51 
 76 146  31  41  60  60  64  82  60  82 138 235 255 255 255 255 255 
255 255 255 255 255 255 255 255 255 255 255 255 255 255 245 227 215 
197 185 185 210 193 169 160 146 132 123 106 102  64  26  76 138 138 
132 176  82   0   0   0   0  51  31   0   0   0   0   0   0   0   0 
  8  20  31  37  37  55  60  60  71  76 102 106 114 128 138 146 146 
169 169 210 175 175 210 210 185 130 146 160 200 179 138 176 210 204 
250 167 200 188 176 215 160 197 255 255 255 255 255 255 255 255 255 
255 255 255 255 255 255 255 255 255 255 255 255 255 255 255 255 255 
255 255 255 255 255 255 255 255 255 255 255 255 255 255 255 255 255 
255 255 255 255 255 255 255 255 255 255 255 255 255 255 255 255 255 
255 255 255 255 255 255 255 255 255 255 255 255 255 255 255 255 255 
255 255 255 255 255 255 255 255 255 255 255 255 255 242 242 237 232 
226 226 218 218 207 207 200 200 190 190 190 190 176 176 165 165 165 
165 165 165 165 165 165 165 165 165 165 165 165 172 172 172 172 172 
165 189 176   0   0 153 153 176 188 185 185 185 179 179 179 193 193 
204 210 210 219 242 242 255 255 255 237 250 255 255 255 255 255 255 
255 235 138 128 128 128  55  47  82  76  60  47 128 102 102 102 102 
132 138 102  90 106 102 102 114 118 127 127 123 123 146 146 153 169 
185 193 210 179 128 219 255 246 235 224 215 195 188 160 153 153 128 
123 114 102  94  94  94  82  82  64  76  64  64  64  55  47  47  47 
 41  41  31  37   0   0 160 165 138 148 165 148 165 153  94  82  82 
 90  76   0  76  90  82 102 102 118 123 146 146 146 146 160 169 160 
179 193 193 210 167 153 193 204 169 138 146 165 146  90 106 138  60 
 60  37 118 153 146 197 179 114 148 215 114 146 197 197  51  31 200 
160 188 255 255 255 255 255 255 255 255 255 255 255 255 255 255 255 
255 255 255 255 255 255 255 255 255 255 255 255 255 255 255 255 255 
255 255 255 255 255 255 255 255 255 255 255 255 255 255 255 255 255 
255 255 255 255 255 255 255 255 255 255 255 255 255 255 255 255 255 
255 255 255 255 255 255 255 255 255 255 255 255 255 255 255 255 255 
255 255 255 255 255 255 255 242 242 237 232 226 226 218 218 207 207 
200 200 200 190 190 176 176 176 165 165 165 165 165 165 165 165 165 
165 165 165 165 165 165 172 165 165 165 165 165 189 176  20   0   0 
  0   0   0   0  20  37  60  76  76  90 106 118 114 132 132 146 132 
132 102 138 165 153 148 165 176 197 197 224 224 245 255 255 255 255 
255 235 255 255 255 255 255 255 235 235 235 245 165 179 204 188 197 
215 215 204 176 176 160 169 169 160 146 146 138 128 118 118 114  55 
 37  51  37  37  41  41  41  41  31  20  31  37  20  31  20  20  17 
 17  17  17  17   8  20   8   8   8   8  20  26  31  41  41  51  51 
123 138 153 148 138 153 128 160 255 255 235 242 153 215 188 148 185 
169 179 185 167 132 169 185 175 160 138 138 132 114 106  60  94 128 
 60  31   0 146  82   8  26   0 169 114   0  51  26 153 210 179 179 
179 188 188 188 197 179 188 197 204 204 204 138 197 255 255 255 255 
255 255 255 255 255 255 255 255 255 255 255 255 255 255 255 255 255 
255 255 255 255 255 255 255 255 255 255 255 255 255 255 255 255 255 
255 255 255 255 255 255 255 255 255 255 255 255 255 255 255 255 255 
255 255 255 255 255 255 255 255 255 255 255 255 255 255 255 255 255 
255 255 255 255 255 255 255 255 255 255 255 255 255 255 255 255 255 
255 242 242 237 232 232 218 218 218 207 207 200 200 190 190 190 181 
172 172 165 165 165 165 165 165 165 165 165 165 165 165 165 165 165 
165 165 165 165 165 165 189 176   0   8 160 179 114  82  90  60  31 
 17   8   8   0   0   0   0   0   0   8   8  20  51  51  51  64  76 
 90  90  90  90 102 102 102 102 118 114 114 138 165 138 153 165 188 
148 148 165 146 132 114 127 118 106  94  94  82  76  76  76  64  60 
 60  51  41  51  51  37  37  37  37  37  51  41  37  37  37  31  31 
 20  31  20  20  31  26  26  31  47  47  60  60  60  76  82  94 106 
118 123 132 148 160 146 146 160 160 160 169 128 146 146 138 146 146 
169 102  90 176 176 215  82 197 153 118 114 118  90  55  64 160  55 
 17  37   0  60 169  20   0  20   0 138 138   0  17  17 210  82  17 
 51   0 204 102   0  60  51 146 185 179 179 179 188 188 193 193 193 
193 185 185 197 204 153 204 255 255 255 255 255 255 255 255 255 255 
255 255 255 255 255 255 255 255 255 255 255 255 255 255 255 255 255 
255 255 255 255 255 255 255 255 255 255 255 255 255 255 255 255 255 
255 255 255 255 255 255 255 255 255 255 255 255 255 255 255 255 255 
255 255 255 255 255 255 255 255 255 255 255 255 255 255 255 255 255 
255 255 255 255 255 255 255 255 255 255 255 255 242 242 237 232 226 
226 218 218 207 207 200 200 190 190 181 176 176 172 165 165 165 165 
165 165 165 165 165 165 165 165 165 165 165 165 165 165 165 165 165 
182 176   0  41 255 250 242 255 242 242 242 242 237 224 200 193 169 
153 132 106  90  47  37  20   8   0   0   0   0   0   0   8  17  26 
 26  31  47  60  60  60  60  76  94  82 118  90   0   8   8   8  17 
 31  41  31  41  41  31  41  31  31  31  31  31  20  20  20   8  17 
 17  20  20  20  31  41  41  41  60  76  82  82  94 106 123 123 123 
138 146 153 153 160 179 169 165 165 176 169 169 169 160 138 153 169 
179 169 160 176 146 123 138 146 138 138 138 176 123   0   0 114 250 
 94 128 176  82   0   8   8   0  90 204   8  20  55   8 153 204   0 
  8  47  20 179 138  20  31  31 197  82  20  41  76 224  76   0  82 
153 179 160 179 179 188 188 188 179 179 179 179 179 179 179 197 148 
197 255 255 255 255 255 255 255 255 255 255 255 255 255 255 255 255 
255 255 255 255 255 255 255 255 255 255 255 255 255 255 255 255 255 
255 255 255 255 255 255 255 255 255 255 255 255 255 255 255 255 255 
255 255 255 255 255 255 255 255 255 255 255 255 255 255 255 255 255 
255 255 255 255 255 255 255 255 255 255 255 255 255 255 255 255 255 
255 255 255 255 255 255 242 242 235 232 226 226 218 207 207 207 200 
200 190 190 190 176 176 172 165 165 165 165 165 165 165 165 165 165 
165 165 165 165 165 165 165 165 165 165 165 182 172   0   0 193 193 
197 224 224 224 224 197 197 224 235 235 237 242 250 242 255 255 255 
250 250 237 219 210 193 167 138 118  94  82  60  76  55  17  31  17 
 17  17  17  17  17  41  60  41  51  51  41  26  37  31  31  31  31 
 31  41  60  51  60  64  82  90 102 114 123 132 138 146 153 160 167 
167 167 167 167 167 167 167 153 153 160 153 153 160 153 160 146 114 
132 153 153 146 132 132 114  90 138 114  76  60  47  47   0  26 160 
 64 114 165 132 148 176 102 118 215 188 224  82 167 176 102   0  37 
 55  47 160 197  26  20  55  31 132 179  26  17  51  76 185 128   8 
 31 138 235  71   0  82 138 185  90  60 148 148 146 185 235 215 215 
224 235 235 235 224 224 224 224 224 235 176 204 255 255 255 255 255 
255 255 255 255 255 255 255 255 255 255 255 255 255 255 255 255 255 
255 255 255 255 255 255 255 255 255 255 255 255 255 255 255 255 255 
255 255 255 255 255 255 255 255 255 255 255 255 255 255 255 255 255 
255 255 255 255 255 255 255 255 255 255 255 255 255 255 255 255 255 
255 255 255 255 255 255 255 255 255 255 255 255 255 255 255 255 255 
242 237 237 232 226 226 218 207 207 207 200 190 190 190 181 176 176 
165 165 165 165 165 165 165 165 165 165 165 165 165 165 165 165 165 
165 165 165 165 165 182 165  20   0  55 219  31   0  31  51  71 197 
179 132 167 179 210 193 185 169 210 210 210 219 210 210 210 224 242 
255 255 255 250 250 250 242 242 215 210 197 179 160 146 128 118 148 
 55  76  76  94  94 106 114 114 132 132 146 153 153 167 167 169 169 
169 160 160 160 160 153 153 146 132 138 146 146 146 146 146 146 132 
123 132 123 132 128 118 106  82  60  60 160 118  26  26  20  20  20 
  0  51 188  64   0   0  31  47   0 106 204  64  51 153 153 148 160 
102 102 235 179 204  82 165 176 102   0  47  47  55 169 169  17   8 
 55  82 193 153   8   8  76 138 200 106  26  90 153 160 102 138 193 
132 185 102 250 210 179 179   0   0   0   0  17  41  41  64  76 102 
102 102 123 138  76 176 255 255 255 255 255 255 255 255 255 255 255 
255 255 255 255 255 255 255 255 255 255 255 255 255 255 255 255 255 
255 255 255 255 255 255 255 255 255 255 255 255 255 255 255 255 255 
255 255 255 255 255 255 255 255 255 255 255 255 255 255 255 255 255 
255 255 255 255 255 255 255 255 255 255 255 255 255 255 255 255 255 
255 255 255 255 255 255 255 255 255 255 255 242 237 237 232 226 226 
218 218 207 200 200 200 190 190 176 176 176 165 165 165 165 165 165 
165 165 165 165 165 165 165 165 165 165 165 165 165 165 165 165 182 
165  17   0  64 250  82   0   0   0   0 197 160   0   0   0   0   0 
224 169  31  76 102 148 148 160 197 179 179 204 204 210 219 210 185 
210 232 242 242 242 255 255 250 255 167 224 160 235 138 160 169 153 
160 169 160 160 160 153 153 132 123 138 132 146 146 146 138 138 138 
106 106 138 118  94  94  76  76  60  60   0  60 169 102   0   0   8 
  0  17   0  60 219 102   0   0   0  31  47  31 138 188  76  20  20 
 31  76  17 102 179 102  20  90 160 138 165 102  94 188 167 215  82 
165 176 102   0  20  90 106 204 146  37  47 106 106 193 132  76 148 
179 146 160 118 188 224 197 148 128 235 235 179 185 106 146 123 123 
148  60   0  51  82  17   0   0   0   0   0   0   0   0   0   0 176 
255 255 255 255 255 255 255 255 255 255 255 255 255 255 255 255 255 
255 255 255 255 255 255 255 255 255 255 255 255 255 255 255 255 255 
255 255 255 255 255 255 255 255 255 255 255 255 255 255 255 255 255 
255 255 255 255 255 255 255 255 255 255 255 255 255 255 255 255 255 
255 255 255 255 255 255 255 255 255 255 255 255 255 255 255 255 255 
255 255 255 255 255 242 242 235 235 226 218 218 207 207 200 200 190 
190 190 176 176 176 165 157 157 157 157 157 157 157 157 157 157 157 
157 165 165 165 165 165 165 165 165 157 182 165  17   0  60 219  94 
 82 118  47   0 204 204  26  71  60   0   0 232 179   0   0   0   0 
  0  17 255 118   0  31  60  76  76 138 219 160 146 165 176 188 188 
210 188 235 128  31 153 197  90 128 132 132 128 128 128 118 118 114 
102 106 148 106  51  71  60  60  41  37   0   0 106 179  76   0   0 
  0   0  17  17   0 114 185 106   0  20  20  20  76  37 118 193 106 
 31   8  26  41  51  31 132 176  76  20  20  31  51  51 138 176  82 
 60  41 138 160 160 102  94 200 176 215  82 165 165 102  51 123 160 
118 169 138  90 193 210 160 179 118 148 235 215 179 160 123 146 176 
123 153 102  60  47   0  82 102   0   0   0 148  60   0 160 255 127 
 26  82  76  76  90  90  90  51 128 204 227 255 255 255 255 255 255 
255 255 255 255 255 255 255 255 255 255 255 255 255 255 255 255 255 
255 255 255 255 255 255 255 255 255 255 255 255 255 255 255 255 255 
255 255 255 255 255 255 255 255 255 255 255 255 255 255 255 255 255 
255 255 255 255 255 255 255 255 255 255 255 255 255 255 255 255 255 
255 255 255 255 255 255 255 255 255 255 255 255 255 255 255 255 242 
237 237 232 226 218 218 207 207 200 200 190 190 181 176 176 172 165 
157 157 157 157 157 157 157 157 157 157 157 157 157 157 157 165 165 
165 165 165 157 182 165   0   0 106 146 102  76  94  37   0 165 162 
 20  99 118   8   0 237 185  76 114  60  37   8  37 255 160   0   0 
  8   0   0  37 255  94   0   0   0  17  41  17  94 250 153  31 132 
197 114 138  60  60  60  51  51  31  31  20   0 138 153  60   0   8 
  8   8   8  41   8  37 165 165  82   0   8  20   8  37  47   8 138 
169 114  17  37  20  20  71  20 106 193 106  20   8  20  37  47  76 
176 148  82  20  17  37  51 106 188 179  71  71  55  60 160 160  90 
114 235 176 200  82 176 165  90 179 250 210 193 193 138 132 210 193 
169 153 138 102 102  94  60 102 114  17   0   0 138  60   0  20   0 
 82  51  60  51  82 188  37   0  60 204 123   0  26  37  41  41  41 
 51  17 114 176 204 255 255 255 255 255 255 255 255 255 255 255 255 
255 255 255 255 255 255 255 255 255 255 255 255 255 255 255 255 255 
255 255 255 255 255 255 255 255 255 255 255 255 255 255 255 255 255 
255 255 255 255 255 255 255 255 255 255 255 255 255 255 255 255 255 
255 255 255 255 255 255 255 255 255 255 255 255 255 255 255 255 255 
255 255 255 255 255 255 255 255 255 255 242 237 237 226 226 218 218 
207 207 200 200 190 190 181 176 176 165 165 157 157 157 157 157 157 
157 157 157 157 157 157 157 157 157 157 157 157 157 157 157 182 165 
  0  51 255 204 219 204 204 219 188 165 165 160 160 169 123  51 193 
169  71 128  82  41  17  51 242 160  60 130  82 102 255 179 219 138 
 31 118 106  60  51   0  41 250 146  55 138 197 114 138   0   0   0 
  8   0   8  26  47   0 200 123 102   0  37  26  26  26  76  41  51 
160 160  82   8  17  20   8  41  41  26 146 165 114  20  37  37  20 
 76  76 185 165 102  26  17  26  76  60 114 188 148  82  41  82 118 
123 102 148 176  82  55  82  31  76 188  94 128 215 188 176 128 200 
148 102 138 153 114 106 123 123  60  41  31   0  60 148  20   0   0 
  0 127 132  41   8  31 197  94  37  76  76  90  37  55  47 130 179 
 26  41   8 132 153   8  31  31  31  37  55  55   0  71 153 204 255 
255 255 255 255 255 255 255 255 255 255 255 255 255 255 255 255 255 
255 255 255 255 255 255 255 255 255 255 255 255 255 255 255 255 255 
255 255 255 255 255 255 255 255 255 255 255 255 255 255 255 255 255 
255 255 255 255 255 255 255 255 255 255 255 255 255 255 255 255 255 
255 255 255 255 255 255 255 255 255 255 255 255 255 255 255 255 255 
255 255 255 255 242 237 237 226 226 218 218 207 207 200 190 190 190 
181 176 176 176 165 157 157 157 157 157 157 157 157 157 157 157 157 
157 157 157 157 157 157 157 157 157 182 165   0  41 255 255 255 255 
255 255 255 224 210 235 197 167 185 179 106  94  94 162 185   8   0 
 41 242 160  41 118  82  64 255 215 204 118  94 255 255 245 245 235 
188 235 146  55 138 197 102 146  17  37  26  26   8  31  31  60   0 
185 128  94   0  41  31  26  26  64  31  60 160 160  82  20  26  17 
  8  41  26  90 179 153 106  37  31  31  47  90 106 179 148 102  41 
 76 118 146 114 114 148 148  76 106 197 197 197 160 179 165  82  47 
 82 118  82 179 114   0   0 160 250  76  37 146  94   0  17   8   0 
 60  90   0  31  20   0 132 138   0  76  60  41 188 127  26   0  71 
215  60   0  82  90  64  37  20  99 185 148  26  82  17  51 179 153 
160 165 153 176 148 148  94 146 176 204 255 255 255 255 255 255 255 
255 255 255 255 255 255 255 255 255 255 255 255 255 255 255 255 255 
255 255 255 255 255 255 255 255 255 255 255 255 255 255 255 255 255 
255 255 255 255 255 255 255 255 255 255 255 255 255 255 255 255 255 
255 255 255 255 255 255 255 255 255 255 255 255 255 255 255 255 255 
255 255 255 255 255 255 255 255 255 255 255 255 255 255 255 242 237 
237 226 226 218 218 207 207 200 190 190 190 176 176 176 165 165 157 
157 157 157 157 157 157 157 157 157 157 157 157 157 157 157 157 157 
157 157 157 182 165   0   8 153 138 114 114 102  90 102 102  94  94 
 94  94 106 118 128 118 153 106 210  37   0  31 224 179  37  99  94 
 94 204 188 210 128  60 204 215 197 204 224 200 242 146  47 138 200 
102 146  17  26  20  20  20  31  37  47  17 188 118  94   0  37  31 
  8  31  71  47 138 179 146  90  26  26  26  41  64  55 106 169 153 
114  41  90  99 153 123 114 138 160  94  60 179 210 193 185 188 176 
138  94 146 210 185 179 179 160 160  76  71  55 160 179 167  94  20 
 90  64 242  31   0 197  82   8  60  51  41 102  51  26  82  51  41 
146  71  17  41  31  90 188 102   0   0  82 224  31   0  90  41  90 
 41  60 128 160 127  17  76  51 148 255 255 215 227 176 176  82 102 
167 255 188 204 255 255 255 255 255 255 255 255 255 255 255 255 255 
255 255 255 255 255 255 255 255 255 255 255 255 255 255 255 255 255 
255 255 255 255 255 255 255 255 255 255 255 255 255 255 255 255 255 
255 255 255 255 255 255 255 255 255 255 255 255 255 255 255 255 255 
255 255 255 255 255 255 255 255 255 255 255 255 255 255 255 255 255 
255 255 255 255 255 255 255 255 255 242 237 237 226 218 218 218 207 
207 200 190 190 190 176 176 172 165 165 157 157 157 157 157 157 157 
157 157 157 157 157 157 157 157 157 157 157 157 157 157 182 165   8 
  0  94  94  90  90 102 102 102 114 114 123 123 132 132 128 146 138 
193  31  99 160  82  94 200 169  60 118 118 138 224 197 197 128  71 
204 204 188 188 188 176 235 153  47 132 204 102 146   8  20  20  20 
  0  37  47  31  94 193 114  94   0  26  17  31  60  82  76 146 165 
138 102  41  82 106 138 138 128  94 160 146 114  41 153 185 204 193 
179 197 160  90 114 204 204 185 185 169 132 132 106  82  82  60  60 
 17  51 138  51  51  47 106 169 148  94 138 255  37  51 123 138 176 
 90  31  47  47  60  60  37  37  26  41 106 123  20  41  31  71 138 
197  82   0  26  37 153  60  37 138  41  41  17 160 138 128 132  60 
 60  82 188 138 102  41  51  41  41  51 118 188 215 160 215 255 255 
255 255 255 255 255 255 255 255 255 255 255 255 255 255 255 255 255 
255 255 255 255 255 255 255 255 255 255 255 255 255 255 255 255 255 
255 255 255 255 255 255 255 255 255 255 255 255 255 255 255 255 255 
255 255 255 255 255 255 255 255 255 255 255 255 255 255 255 255 255 
255 255 255 255 255 255 255 255 255 255 255 255 255 255 255 255 255 
255 255 255 242 237 237 226 226 218 218 207 207 200 190 190 176 176 
176 172 165 165 157 150 150 150 150 150 150 150 150 150 150 150 150 
150 150 150 150 150 150 157 157 165 165   0   0 153 165 153 153 153 
153 146 146 146 146 138 138 138 138 138 128 179  60  76 246 255 219 
188 146  41  71  94 138 188 179 204 128  76 204 204 188 197 197 179 
235 160  55 123 204 102 146  17  26   8  20   8  60  60  47 114 169 
128  94  20  76 106 130 146 130 106 128 153 138 106  47 138 193 193 
175 193 153 200 146  99  90 197 197 193 185 185 146 132 114  90  90 
 64  51  41   8  37 153  90   0  17  20  41   0 106 114  31  37  37 
 47  26 128 106 138 204  51   8  82 224 148  76   0  31  64  94  37 
 31  47  20  76 123  90  41  20   8  55 146 188 102  64  51  37  82 
102 132 160  82  26  64 153  90  64  51  60  60  60  51  60  76 123 
153 204 165 160 237 185 165 148 215 255 255 255 255 255 255 255 255 
255 255 255 255 255 255 255 255 255 255 255 255 255 255 255 255 255 
255 255 255 255 255 255 255 255 255 255 255 255 255 255 255 255 255 
255 255 255 255 255 255 255 255 255 255 255 255 255 255 255 255 255 
255 255 255 255 255 255 255 255 255 255 255 255 255 255 255 255 255 
255 255 255 255 255 255 255 255 255 255 255 255 255 255 242 237 235 
226 226 218 210 207 207 200 190 190 181 176 176 165 165 157 150 150 
150 150 150 150 150 150 150 150 150 150 150 150 150 150 150 150 150 
150 150 165 165   0   0 146 146 132 132 138 138 138 138 138 138 138 
138 138 138 138 128 179  82  71 250 255 255 188 128  51  94  55  82 
165 165 200 138  76 204 215 197 197 197 179 224 160  51 123 210 102 
146  37  55  76  90 123 130 106 138 114 153 114 106  37 106 185 169 
160 175 162 179 188 138  94  82 185 219 200 169 185 179 160 146 114 
 90 106  82  60  41   8   8 165 118   0   0  20  26  37  26  47 146 
106  41  64  64  82   0 118 118  37  37  20   8   8 138  60  82 114 
 51  82  17 176 165  82   0  47  90 118 102   8  26   0  76 114  64 
 64  17  64 146 146 127  82 118  60  47  94  94  94  71  71  90  64 
 41  41  64  64  90 146 153 179 219 224 237 204 224 160 118 185 160 
165 146 204 255 255 255 255 255 255 255 255 255 255 255 255 255 255 
255 255 255 255 255 255 255 255 255 255 255 255 255 255 255 255 255 
255 255 255 255 255 255 255 255 255 255 255 255 255 255 255 255 255 
255 255 255 255 255 255 255 255 255 255 255 255 255 255 255 255 255 
255 255 255 255 255 255 255 255 255 255 255 255 255 255 255 255 255 
255 255 255 255 255 255 255 255 237 237 237 226 226 218 218 207 200 
200 190 190 181 176 176 165 165 157 150 150 150 150 150 150 150 150 
150 150 150 150 150 150 150 150 150 150 150 150 150 165 165   0   0 
146 146 128 128 128 138 138 138 138 138 138 138 138 138 138 128 176 
 76  94 148 106 176 197 148 148 235 210 167 255 224 188 138  51 188 
215 179 188 197 179 224 167  55 123 204 102 146  60  60 146 165 160 
146 153 179 106 176 102 114  60 146 219 210 193 193 210 210 167 128 
102 102 128  99  71  64  64   8  31 153 114   8   8   8   0  31   8 
 76 200  94  51  60  71  71  71  47  31 102 123  26  51  60  47   8 
148 123  26  41  26  26  60  82  20  31  51  60  94   0 114 176  64 
  0   0  64 138 188  20  20 106 167 148 102   8  26 118 128  82  90 
102 102 102  76  71  41  55  55  60  94 102 138 160 210 242 242 255 
219 160 185 169 169 160 185 160 130 193 160 179 127 193 255 255 255 
255 255 255 255 255 255 255 255 255 255 255 255 255 255 255 255 255 
255 255 255 255 255 255 255 255 255 255 255 255 255 255 255 255 255 
255 255 255 255 255 255 255 255 255 255 255 255 255 255 255 255 255 
255 255 255 255 255 255 255 255 255 255 255 255 255 255 255 255 255 
255 255 255 255 255 255 255 255 255 255 255 255 255 255 255 255 255 
255 255 237 237 232 226 218 218 218 207 200 200 190 190 176 176 172 
172 165 157 150 150 150 150 150 150 150 150 150 150 150 150 150 150 
150 150 150 150 150 150 150 165 157   0   0 146 146 138 138 128 128 
128 128 128 128 128 128 128 128 128 128 176  82 114  64   0   0 215 
176  31  76 123 165 197 210 197 146 160 255 255 235 235 235 200 215 
176  31 102 210 102 138  47  47 138 193 193 185 200 219 210 176  94 
128  94 160 128 102  90  71  71  20  47 153 102  20   8   8   8  26 
 41   0  90 165 106  31  76  64  41  71  31  82 188  94  41  41  47 
 47  47  37  31  82 118   0  20  37  47  82 193 106  20  41  37  20 
 51  60  17  41  51  64  90  17  90 176  76  76 138 169 138 148  20 
  8 123  71  31  60  76 132 118  64  64  51  60  51  51  82 102 114 
146 169 210 210 224 246 219 219 193 179 160 185 138 169 185 185 179 
193 153 118 175 138 176 176 219 255 255 255 255 255 255 255 255 255 
255 255 255 255 255 255 255 255 255 255 255 255 255 255 255 255 255 
255 255 255 255 255 255 255 255 255 255 255 255 255 255 255 255 255 
255 255 255 255 255 255 255 255 255 255 255 255 255 255 255 255 255 
255 255 255 255 255 255 255 255 255 255 255 255 255 255 255 255 255 
255 255 255 255 255 255 255 255 255 255 255 255 255 237 237 232 226 
226 218 210 207 200 200 190 190 176 176 176 165 165 157 150 150 150 
150 150 150 150 150 150 150 150 150 150 150 150 150 150 150 150 150 
150 165 157   0   0 138 146 132 138 138 138 138 146 146 160 160 167 
167 167 167 146 193 102  76 224 188 138 197 165   0   0   0   0   0 
 31 235 128  64 118 153 188 210 235 224 215 176  76 197 242  94 132 
 94 138 185 169 160 132 118  90  82  82 160  99   8  31   0   0  17 
 17  17   0  41 169 106  31  47  76  82  76  94   8 123 160 114  51 
 51  37  37  37  20 106 176 102  17   8   8  47  55  47  47  76 106 
 17  31  51  76  94 179  94  26  26  20  37  31  60  37  51  64  41 
 82   0 138 138  51 118 102  64   8  26  64  90  90  94 102 106 106 
 76  26  26  60  76 118 153 165 224 224 237 237 210 210 193 185 175 
175 175 169 175 179 179 167 160 167 160 175 193 146 132 235 188 179 
165 224 255 255 255 255 255 255 255 255 255 255 255 255 255 255 255 
255 255 255 255 255 255 255 255 255 255 255 255 255 255 255 255 255 
255 255 255 255 255 255 255 255 255 255 255 255 255 255 255 255 255 
255 255 255 255 255 255 255 255 255 255 255 255 255 255 255 255 255 
255 255 255 255 255 255 255 255 255 255 255 255 255 255 255 255 255 
255 255 255 255 255 255 255 237 237 237 226 218 218 207 207 200 190 
190 190 181 176 172 165 157 157 150 150 150 150 150 150 150 150 150 
150 150 150 150 150 150 150 150 150 150 150 150 165 150   0  17 165 
176 160 167 167 160 160 146 138 138 128 102  94  82  76  60  47  31 
102 185 153 204 204 148  41 215 242 160  51  51 224 146   0   0   0 
  0   0   0  64 215 169 138 128  94 128 138  64  71  47  20  17   8 
  0   0   0 114 165  82   0  47  55  60  60  76  76  31  51 153 106 
 47  60  60  41  37  47   0 123 160 106  26  26  31  47  37  76 176 
153  90  17  17  26  71  60  47  47  60 102   0   0  20  64  82 188 
102  26  31  37  37  51  64  31  76 127  26   0  41 138  41  20  76 
 76  60 118 146 118  90  64  64  60  64 102 118 138 188 219 219 246 
235 204 204 175 175 169 160 169 162 179 179 185 185 185 160 160 169 
146 160 197 197 197 210 153 132 215 160 148 118 197 255 255 255 255 
255 255 255 255 255 255 255 255 255 255 255 255 255 255 255 255 255 
255 255 255 255 255 255 255 255 255 255 255 255 255 255 255 255 255 
255 255 255 255 255 255 255 255 255 255 255 255 255 255 255 255 255 
255 255 255 255 255 255 255 255 255 255 255 255 255 255 255 255 255 
255 255 255 255 255 255 255 255 255 255 255 255 255 255 255 255 255 
255 237 237 232 226 226 218 207 207 200 200 190 190 176 176 172 165 
157 157 142 142 142 142 150 150 142 150 150 150 150 150 150 150 150 
150 150 150 150 150 150 165 150   0   0 123 114  94  76  60  47  47 
 31   8   8  17   0   0   0  17  26  20   8 165  76   0   0 188 188 
 51 148 106 197 245 197 188 146  71 138 132  76  64   0   0 210 210 
 31   0  82 160 138  17   0  20  20  37  51  51  76  20 176 118 102 
 31  76  71  60  60  60  51  26  51 146 102  20  20   8   8  31  20 
 64 165 153 102  17  41  47  47  47 102 165 153  90  31   8   8  37 
  8  51  51  51  90  17  51 102 132 132 215 128  20  20  47  31  31 
 51  26  51  64  64  64 148 160 106  82 106  82  41  51 123 118  64 
123 153 179 193 235 235 235 235 219 193 176 153 153 165 169 169 179 
179 185 185 175 175 162 160 160 162 185 210 179 179 204 179 175 175 
123 114 179 138 153 153 210 255 255 255 255 255 255 255 255 255 255 
255 255 255 255 255 255 255 255 255 255 255 255 255 255 255 255 255 
255 255 255 255 255 255 255 255 255 255 255 255 255 255 255 255 255 
255 255 255 255 255 255 255 255 255 255 255 255 255 255 255 255 255 
255 255 255 255 255 255 255 255 255 255 255 255 255 255 255 255 255 
255 255 255 255 255 255 255 255 255 255 255 255 237 237 232 226 218 
218 207 207 200 200 190 181 181 172 172 165 157 157 142 142 142 142 
150 150 142 150 150 150 142 142 142 150 150 150 150 142 142 142 142 
165 150   8   0  37  37  31  31  26  17  41   8   0  20  31  20  17 
 20  51  64  76  17 224  82   0   0 197 197  41 118   0   0 215 215 
188 128  76 224 255 224 235 204 176 215 200  37   0 197 128 138  37 
 51  71  37  71  76  76  76   0 160 128  94   8  47  37  37  37  55 
 47  47  41 123 106  17  17   8  20  55  51  94 169 148 106  17  41 
 41  41  41 102 148 153  90   8   8  41 102  82  26  51 102 123 106 
204 165 132  94  51  31  51  20  55  90  82 102 127 127 127 114 102 
 51  26  26  41  82 106 146 160 204 235 219 224 237 237 219 193 165 
185 169 169 169 169 169 176 185 169 169 169 160 160 169 185 175 185 
185 210 246 219 185 160 138 169 153 153 179 138 123 219 185 185 185 
224 255 255 255 255 255 255 255 255 255 255 255 255 255 255 255 255 
255 255 255 255 255 255 255 255 255 255 255 255 255 255 255 255 255 
255 255 255 255 255 255 255 255 255 255 255 255 255 255 255 255 255 
255 255 255 255 255 255 255 255 255 255 255 255 255 255 255 255 255 
255 255 255 255 255 255 255 255 255 255 255 255 255 255 255 255 255 
255 255 255 255 255 255 237 237 232 226 218 218 207 207 200 190 190 
181 181 172 165 165 157 150 142 142 142 142 142 142 142 142 142 142 
142 142 142 142 142 142 142 142 142 142 142 165 150   8   0  71  82 
 82  60  47  47  60  31  26  37  37  26  26  26  60  60  64   8 255 
 71   0  17 204 188  31 160 148  26 188 188 188 138  64 165 204 188 
188 204 204 215 188  51 102 210 114 128  51  47  55  26  31  31  41 
 31  17 176 123  94   0  41  26  26  47  60  37  60  20  82 123  20 
 20  26  17  47  47  82 160 148 102  17   0  26  37  37 132 179 160 
 82  51 165 197 197 176  41  31  76  51   8  20  17   0  17  31  90 
123  90 127 106 127 102  76  51  41  26  64 106 127 193 204 235 242 
255 204 193 188 188 169 160 160 160 160 160 179 179 185 179 169 169 
153 160 160 160 160 179 193 193 200 193 200 200 162 138 160 172 153 
153 193 169 185 219 153 160 255 188 123  64 188 255 255 255 255 255 
255 255 255 255 255 255 255 255 255 255 255 255 255 255 255 255 255 
255 255 255 255 255 255 255 255 255 255 255 255 255 255 255 255 255 
255 255 255 255 255 255 255 255 255 255 255 255 255 255 255 255 255 
255 255 255 255 255 255 255 255 255 255 255 255 255 255 255 255 255 
255 255 255 255 255 255 255 255 255 255 255 255 255 255 255 255 255 
237 237 226 226 226 218 207 207 200 190 190 176 176 172 165 157 157 
150 142 142 142 142 142 142 142 142 142 142 142 142 142 142 142 142 
142 142 142 142 142 165 150   8   0  99  99  82  60  60  71  71  26 
 20  37  31  20  20  37  60  82  76  60 255  31   0   0 176 204  31 
138 146  64 188 188 188 148  71 176 204 176 176 176 176 210 197  26 
114 200 102 138  41  17  37  37  17  31  51  26  82 179 102 102   0 
 37  37  31  47  71  37  55  37  60 102  31   8   0   0  31  31  94 
176 138 102   8 102  41  26 123 224 138 148  64  60 106  76  31  17 
 51  31   8  51  76  82 114 132 138 138 102  64  41  37  37  51  64 
 90 153 197 237 224 224 242 242 197 197 179 179 169 179 179 132 146 
185 179 185 185 169 169 160 153 153 146 146 160 185 219 193 176 210 
200 200 162 175 160 193 146   0  60 215 197 153 219 197 197 224 132 
 90 127 102  82   0 118 255 255 255 255 255 255 255 255 255 255 255 
255 255 255 255 255 255 255 255 255 255 255 255 255 255 255 255 255 
255 255 255 255 255 255 255 255 255 255 255 255 255 255 255 255 255 
255 255 255 255 255 255 255 255 255 255 255 255 255 255 255 255 255 
255 255 255 255 255 255 255 255 255 255 255 255 255 255 255 255 255 
255 255 255 255 255 255 255 255 255 255 255 237 237 232 226 218 218 
207 207 200 190 190 181 176 172 165 157 157 150 142 142 142 142 142 
142 142 142 142 142 142 142 142 142 142 142 142 142 142 142 142 165 
150   8   0  82  82  71  82  82  82  82  55  47  55  47   8  47  55 
 47 118 106  90 242  99  94  64 176 204  31 138 138  51 176 197 179 
146  76 176 204 176 188 188 176 204 204  31 102 197 114 138  31  17 
 37  47  20  31  55  51 106 165 106 106   0  41  26   0  20  71  31 
 55  47   8  76  31  20  71  99 128 146 114 200 138 114  31 176 106 
 37  71  64   0   0   0   0   0  31  60 114 148 148 127 138 106  76 
 51  31  17  17  90  41  82 179 185 200 235 235 200 200 185 185 153 
153 162 153 153 146 146 169 179 179 146 160 185 185 175 162 153 153 
165 179 193 185 160 179 179 160 146 160 160 160 160 175 193 185 224 
185   0  82 255 255 102 165 179 102  76  82  51  26  26  17   0  90 
255 255 255 255 255 255 255 255 255 255 255 255 255 255 255 255 255 
255 255 255 255 255 255 255 255 255 255 255 255 255 255 255 255 255 
255 255 255 255 255 255 255 255 255 255 255 255 255 255 255 255 255 
255 255 255 255 255 255 255 255 255 255 255 255 255 255 255 255 255 
255 255 255 255 255 255 255 255 255 255 255 255 255 255 255 255 255 
255 255 255 255 255 237 237 232 226 218 218 207 207 200 190 190 176 
176 172 165 157 157 150 142 142 142 142 142 142 142 142 142 142 142 
142 142 142 142 142 142 142 142 142 142 165 150   0   0  99  99  82 
 71  55  55  55  82  71  55  71  71 118 130  94 153 160 128 242 114 
245 215 188 148  55 146 160  76 176 197 176 148  76 165 204 167 188 
188 188 204 204  31 102 188 118 138  20  20  47  47  17  41  76  51 
 90 169 114 106   0   8   0   0  51 114  37  37  26  64 132  51 118 
193 185 148 148  82  82 114  82  26   0   0   8   0   0  76 132 153 
153 160 153  90  64   8   0   0   0   8  51 123 148 176 188 235 138 
123 255 193 193 185 169 169 146 146 160 169 160 185 185 185 193 153 
160 160 160 138 132 114 118 146 160 175 204 204 193 169 197 235 224 
204 215 204 169 185 185 185 160 185 175 175 148  20 102 197  64  76 
 76 114  51   0   0   0   0   0  64 138 215 255 255 255 255 255 255 
255 255 255 255 255 255 255 255 255 255 255 255 255 255 255 255 255 
255 255 255 255 255 255 255 255 255 255 255 255 255 255 255 255 255 
255 255 255 255 255 255 255 255 255 255 255 255 255 255 255 255 255 
255 255 255 255 255 255 255 255 255 255 255 255 255 255 255 255 255 
255 255 255 255 255 255 255 255 255 255 255 255 255 255 255 255 237 
237 232 226 218 218 207 200 200 190 190 181 172 172 165 157 157 150 
142 142 142 142 142 142 142 142 142 142 142 142 142 142 142 142 142 
142 142 142 142 165 150   8   0  82  99 120  94  82 106 106 130 120 
120 138 146 146 146 146 138 146 118  94 148 188 204 148 123  51 114 
132  76 197 188 188 160  76 165 210 176 188 188 188 204 204  31 102 
188 114 130  37  31  47  47  17  17  17  17  82 153  94 106   8  76 
176 176 165 188 138  17  76 138  82  60 138  99  55  26   0   0   0 
  0   0  51  41 160 209 176 118 118  82  41   0   0   0   0  20  60 
127 179 185 224 232 219 235 235 193 232 132  94 179 146 138 123 160 
169 185 179 185 160 153 153 185 160 160 160 132 132 146 160 160 204 
219 210 185 185 185 185 162 160  82  41  51  82 148 188 197 224 232 
237 237 226 232 250 176  41  51  51  31  82   0   0   0  82  82  51 
148 188 215 215 235 255 255 255 255 255 255 255 255 255 255 255 255 
255 255 255 255 255 255 255 255 255 255 255 255 255 255 255 255 255 
255 255 255 255 255 255 255 255 255 255 255 255 255 255 255 255 255 
255 255 255 255 255 255 255 255 255 255 255 255 255 255 255 255 255 
255 255 255 255 255 255 255 255 255 255 255 255 255 255 255 255 255 
255 255 255 255 255 255 255 255 255 255 237 237 232 226 218 218 207 
200 200 190 190 176 172 172 165 157 150 142 142 142 142 142 142 142 
142 142 142 142 142 142 142 142 142 142 142 142 142 142 142 165 142 
  0   0 146 146 146 130 138 138 138 138 138 138 138 146 132 132 138 
123 153 123   8 204 188 215 176 148  41  90 148  60 176 188 176 148 
 76 165 215 176 188 188 176 197 210  31 102 188 114 128  20   8  26 
 60   8  17 118 148 167 197 102 132  37  90 138 114  90  82 102  41 
  8  26   0   0   0   0   0   0  31  90 148 204 224 224 148 102  17 
  0   0   0   0  41  90 153 204 224 204 255 193 179 219 200 219 193 
179 179 160 219  94 118 185 204 204 193 169 153 160 179 185 165 160 
138 123 123 118 138 160 193 210 193 153 160 160 160 193 185 160 160 
160 185 160  60   8   0   0   0   0   0   0   0  31   0  31 114  82 
 64  64   0   0   0 102  51  82 235 235 188 215 204 176 165 235 255 
255 255 255 255 255 255 255 255 255 255 255 255 255 255 255 255 255 
255 255 255 255 255 255 255 255 255 255 255 255 255 255 255 255 255 
255 255 255 255 255 255 255 255 255 255 255 255 255 255 255 255 255 
255 255 255 255 255 255 255 255 255 255 255 255 255 255 255 255 255 
255 255 255 255 255 255 255 255 255 255 255 255 255 255 255 255 255 
255 255 255 255 237 237 232 226 218 218 207 200 200 190 181 176 172 
165 165 157 150 142 142 142 142 142 142 142 142 142 142 142 142 142 
142 142 142 142 142 142 142 142 142 165 142   0   0 138 138 123 132 
132 132 132 132 132 132 132 132 132 132 132 132 138 123  31 176  90 
197 188 224 215 188 227 255 255 235 215 176  41 128 197 165 188 176 
176 197 215  31 102 179 114 128  47  47  76  76   0 176 235 204 132 
138  82  90  26  41  26  31  31   0   0  41  76   0   0  51 132 204 
188 188 215 132 106  64   0   0   0   0   8 102 176 224 255 224 255 
204 160 215 200 210 185 179 160 153 132 146 153 160 160 235 106 118 
193 123 132 185 132 160 169 138 118 146 132 169 185 219 219 219 219 
235 204 146 165 197 153 153 132 132 132 165 165 146 204 204 242 255 
215 197 148 153 114 118  51  26   0   0   0   8   0   0  17 138 224 
235 215 160 176 195 204 235 255 224 235 255 255 255 255 255 255 255 
255 255 255 255 255 255 255 255 255 255 255 255 255 255 255 255 255 
255 255 255 255 255 255 255 255 255 255 255 255 255 255 255 255 255 
255 255 255 255 255 255 255 255 255 255 255 255 255 255 255 255 255 
255 255 255 255 255 255 255 255 255 255 255 255 255 255 255 255 255 
255 255 255 255 255 255 255 255 255 255 255 255 255 255 255 237 237 
226 226 218 207 207 200 200 190 181 181 172 165 165 157 150 142 142 
142 142 142 142 142 142 142 142 131 142 142 142 142 142 142 142 142 
142 142 142 165 142   0   0 138 148 132 138 132 132 132 132 132 132 
132 132 132 132 138 138 138 138  37 185   0  37  31  64 114 132 102 
 64  41  90 148 160 148 255 255 235 188 165 165 176 200  31 114 224 
148 148  60  60  60   0  20  76  17   0   0  26  51  17   8  17  17 
  0   0  17 118 138 179 204 204 235 165  82  17   0   0   0   0  17 
 76 132 235 255 255 255 210 146 200 179 188 200 185 169 160 160 160 
160 169 204 210 185 185 185 153 197 106  94 179 160 146 138 123 123 
123 146 160 200 224 215 193 179 179 169 132 176 197 160 195 224 242 
255 255 255 255 255 242 255 165  64 179 210 193 242 255 219 235 160 
179 237 255 255 255 255 255 255 255 255 235 255 255 235 255 255 245 
188 153  51 148 255 255 255 255 255 255 255 255 255 255 255 255 255 
255 255 255 255 255 255 255 255 255 255 255 255 255 255 255 255 255 
255 255 255 255 255 255 255 255 255 255 255 255 255 255 255 255 255 
255 255 255 255 255 255 255 255 255 255 255 255 255 255 255 255 255 
255 255 255 255 255 255 255 255 255 255 255 255 255 255 255 255 255 
255 255 255 255 255 255 255 255 255 237 237 232 226 218 218 207 200 
200 190 181 176 172 165 157 157 150 142 131 131 131 131 131 131 131 
131 131 131 131 131 131 131 131 131 131 131 131 131 131 165 142   0 
  0 138 138 132 132 132 132 132 132 132 132 132 130 130 130 138 128 
128 148  17 200   8  47  47  31  17  31  31  41 148 227 127  26  64 
 17  51 176 255 255 255 245 245  31  82  82  82  41  17  31  31  82 
  8   0  17  17   0   0   0  26  64  90 118 148 235 255 204 197  26 
  0   0   0   0   0  41 102 188 255 255 232 255 146 123  82 224 165 
197 197 179 169 169 193 169 169 193 200 226 200 188 169 160 160 169 
193 179 235 106 118 169 169 153 179 185 210 232 232 219 193 138 153 
179 160 160 169 179   0   0   0   0   0   0   0  41  51  64 102  90 
 90  51 114 195 219 242 200 148 148 148 219 255 242 232 185  99  26 
 41  41  60  64 102 114 114 114  82  76  82 102 118  51 165 255 255 
255 255 255 255 255 255 255 255 255 255 255 255 255 255 255 255 255 
255 255 255 255 255 255 255 255 255 255 255 255 255 255 255 255 255 
255 255 255 255 255 255 255 255 255 255 255 255 255 255 255 255 255 
255 255 255 255 255 255 255 255 255 255 255 255 255 255 255 255 255 
255 255 255 255 255 255 255 255 255 255 255 255 255 255 255 255 255 
255 255 255 237 237 226 226 218 207 207 200 190 190 181 172 172 165 
157 150 150 142 131 131 131 131 131 131 131 131 131 131 131 131 131 
131 131 131 131 131 131 131 131 165 142   0   0 132 148 132 132 132 
132 132 132 132 132 132 128 128 128 138 138 138 153  20 185   8  55 
 47  47  60  60  60  76  41  17  51 114 148 127  26   0   0   0  41 
 90 153 153 123  26   0   0  41  31  26 102  17   0   0   0  17 179 
224 188 160 138  31  17   0   0   0   0  60 148 114 188 255 255 255 
255 210 153 193 193 200 193 219 138 153 153 153 160 176 197  76  55 
210 193 169 153 153 160 169 169 160 175 160 160 138 188  82 106 193 
193 219 237 185 169 153 146 153 185 179 179 160 160 193 185 235 245 
245 224 215 224 195 153  51  17  17  17  17  17  64  26   0   0   0 
123 123 146 118 106  90  60  20  31  71  99 106  94  76  82  90  64 
 90 114 123 114 114  90  90  17 153 255 255 255 255 255 255 255 255 
255 255 255 255 255 255 255 255 255 255 255 255 255 255 255 255 255 
255 255 255 255 255 255 255 255 255 255 255 255 255 255 255 255 255 
255 255 255 255 255 255 255 255 255 255 255 255 255 255 255 255 255 
255 255 255 255 255 255 255 255 255 255 255 255 255 255 255 255 255 
255 255 255 255 255 255 255 255 255 255 255 255 255 255 237 237 226 
226 218 218 207 200 190 190 181 172 172 165 157 150 150 142 131 131 
131 131 131 131 131 131 131 131 131 131 131 131 131 131 131 131 131 
131 131 150 142   8   0  90 148 128 128 130 130 130 130 130 130 130 
148 153 165 153 153 153 148  31 200   8  47  47  37  47  55  55  55 
 71  76  76  26 148 255 255 255 224 153  90  26   0  17  51  82 114 
132  17  17 118 148 188 188 179 215 255 102  94   0   0   0   0  82 
148 215 255 255 255 255 255 169 179 210 169 169 179 185 138 146 146 
160 232 167 215 215 197 188 165 153 188 188 165 179 179 153 153 160 
153 153 160 160 160 169 160 255 132 146 237 185 169 128 123 146 153 
179 146 169 179 204 193 185 204 193 153 197  90  82 224 176 148 118 
 90  82  82  17 102 118  17  17   0   0   0 165 204 255 188  64   8 
  0  82 114  99  99  99  90 123 160 146 165 153 123 102 102  82  82 
 90  31 160 255 255 255 255 255 255 255 255 255 255 255 255 255 255 
255 255 255 255 255 255 255 255 255 255 255 255 255 255 255 255 255 
255 255 255 255 255 255 255 255 255 255 255 255 255 255 255 255 255 
255 255 255 255 255 255 255 255 255 255 255 255 255 255 255 255 255 
255 255 255 255 255 255 255 255 255 255 255 255 255 255 255 255 255 
255 255 255 255 255 255 255 255 237 237 226 226 218 207 207 200 190 
190 176 176 165 165 157 150 142 142 131 131 131 131 131 131 131 131 
131 131 131 131 131 131 131 131 131 131 131 131 131 150 142   8   0 
118 153 138 138 138 148 148 148 148 148 148 138 106  76  76  60  20 
  0  64 204   8  37  47  47  37  47  47  47  64  64  76  47 123 219 
188 197 235 255 255 255 255 197 188 167 128  82  64 132 176 204 224 
224 224 188 255   0   0   0   0   0  17  64 114 114 148 215 197 204 
215 197 148 153 153 106 132 160 169 160 185 138 210 127 169 146 169 
160 204 179 153 179 179 169 146 169 185 169 179 169 185 210 232 232 
193 237  90 132 197 160 193 193 179 169 179 193 185 162 160 162 162 
165 188 165 176 160  82  82  82  51   0   8  17  17  17  17   0  41 
102 102 215 255 255 215 176 165 204 255 255 224 148 114 114 102 106 
146 179 153  90  76  76  76  64 102 102  90  90  31 160 255 255 255 
255 255 255 255 255 255 255 255 255 255 255 255 255 255 255 255 255 
255 255 255 255 255 255 255 255 255 255 255 255 255 255 255 255 255 
255 255 255 255 255 255 255 255 255 255 255 255 255 255 255 255 255 
255 255 255 255 255 255 255 255 255 255 255 255 255 255 255 255 255 
255 255 255 255 255 255 255 255 255 255 255 255 255 255 255 255 255 
255 255 237 237 226 226 218 207 207 200 190 190 176 172 172 157 157 
150 142 142 131 131 131 131 131 131 131 131 131 131 131 131 131 131 
131 131 131 131 131 131 131 150 142   0   0 138 153 138 128 102  82 
 76  51  26   8   0   0   0   0  20  41  60  26 106 210   0  37  47 
 47  47  41  41  51  51  64  64  47 127 242 235 227 215 235 224 204 
224 255 255 255 255 210 242 255 215 188 165 165 165 148 255 255 255 
219 169 118  71  17   0   0   0   0   0   0   0 127 148 132 214 245 
227 204 197 188 193 146 219 153 169 160 169 160 160 185 185 169 193 
193 179 179 200 200 204 204 204 138  82 123 146 193  90 146 204 179 
193 193 200 200 165 160 185 193 210 179 185 188 102  41  51  41  64 
 64   0  41  26  17   0   0  20  51 102 179 255 255 235 179 148 188 
176 197 197 197 179 245 106 118 153 138 127  82  47  60  82  82  90 
 90  60  47  47  82 120  71 169 255 255 255 255 255 255 255 255 255 
255 255 255 255 255 255 255 255 255 255 255 255 255 255 255 255 255 
255 255 255 255 255 255 255 255 255 255 255 255 255 255 255 255 255 
255 255 255 255 255 255 255 255 255 255 255 255 255 255 255 255 255 
255 255 255 255 255 255 255 255 255 255 255 255 255 255 255 255 255 
255 255 255 255 255 255 255 255 255 255 255 255 255 237 237 226 226 
218 207 200 200 190 190 176 172 172 165 157 150 142 142 131 131 131 
131 131 131 131 131 131 131 131 131 131 131 131 131 131 131 131 131 
131 142 142   8   0  64  31   0   8   8   0  17  17  17  26  37  37 
 37  47  60  82  82  41 153 215   0  47  47  47  47  51  51  51  51 
 64  82  64 132 255 255 176 176 224 255 255 255 245 245 224 255 200 
146 165 165 176 215 188  76  76 255 200 255 255 255 255 255 255 255 
215 138 118  64   8   0   0   0   0   0  41  90 153 148 153 204 165 
255 169 210 200 179 179 169 169 169 165 146 179 219 204 193 185 153 
127 132 132 132 160 160 237 118 130 204 193 162 185 185 114 204 245 
176 176 215 165  41  90  17  17  82  82  41  82  51  17  41  64 148 
224 255 255 255 255 235 215 215 215 245 255 245 215 215 138 102  82 
132 153 106  99  82  82 106 118 102 106 130  90  99 138 153 153 138 
 82 224 255 255 255 255 255 255 255 255 255 255 255 255 255 255 255 
255 255 255 255 255 255 255 255 255 255 255 255 255 255 255 255 255 
255 255 255 255 255 255 255 255 255 255 255 255 255 255 255 255 255 
255 255 255 255 255 255 255 255 255 255 255 255 255 255 255 255 255 
255 255 255 255 255 255 255 255 255 255 255 255 255 255 255 255 255 
255 255 255 255 255 255 255 237 237 226 226 218 207 207 200 190 190 
176 176 165 165 157 150 142 142 131 131 131 131 131 131 131 131 131 
131 131 131 131 131 131 131 131 131 131 131 131 142 142   8   0  17 
  0  17  37  47  47  64  76  51  51  51  37  31  26  51  90  64  41 
188 200  17  71  71  71  76  76  94  64  51  41  31   8  26  51   8 
  0   0  17  82 118 188 227 245 255 255 237 185 185 185 176 167 102 
 31  76 255 210 215 204 204 204 224 242 255 255 255 255 255 255 242 
193 138 102  47   0   0   0   0   0   0  17 160  64 160 165 204 214 
195 188 204 193 102  90 160 153 148 148 146 160 175 200 210 185 160 
232  99 130 219 204 185 215 204  82  82  51   8   0  31  51   0  26 
 17  17  17  17  17  60  76  41  41  90 132 138 114  82  60  60  64 
 64  82  94 106 106  82  26   0   0  51  51  41  20  20  20  37  41 
 41  31  20  31  37  47  90 106  82  37  20  60 102 106 106 106 106 
106 106 106 106 106 114 123 123 132 148 153 165 179 188 204 215 235 
250 255 255 255 255 255 255 255 255 255 255 255 255 255 255 255 255 
255 255 255 255 255 255 255 255 255 255 255 255 255 255 255 255 255 
255 255 255 255 255 255 255 255 255 255 255 255 255 255 255 255 255 
255 255 255 255 255 255 255 255 255 255 255 255 255 255 255 255 255 
255 237 237 226 226 218 207 200 200 190 190 176 172 165 165 150 150 
142 131 131 131 131 131 131 131 131 131 131 131 131 131 131 131 131 
131 131 131 131 131 131 142 142   8   0  31  31  31  47  47  37  60 
 55   8  31  47  26  31  20  51  90  51 132 224 193  55  37  55  47 
 20   8  37   0   0  17  51  76 102  64   8   0   0   0   0   0   0 
  0   0  41 102 153 167 204 245 235 123  82  51 148 255 195 235 224 
224 224 215 204 204 204 176 200 232 255 255 255 255 255 255 255 237 
179 128  76  26   0   0   0   0   0  51  64  64 118 153 160 188 179 
197 188 197 165 146 146 146 146 146 169 160 250  76 132 204 138 127 
 51  64 102   0   0   0   0   0   0   0   0   0   0   0   0   0   0 
  0   0   0   0   0   0   0   0   0   0   0   0   0   0   0   0   0 
  0   0   0   0   0   0   0   0   0   0   0   0   0   0   0   0   0 
  0   0   0   0   0   0   0   0   0   0   0   0   0   0   0   0   0 
  0   0   0   0   0   0   0   0   0   0   8  17  26  41  76 102 132 
165 197 224 255 255 255 255 255 255 255 255 255 255 255 255 255 255 
255 255 255 255 255 255 255 255 255 255 255 255 255 255 255 255 255 
255 255 255 255 255 255 255 255 255 255 255 255 255 255 255 255 255 
255 255 255 255 255 255 255 255 255 255 255 255 237 235 226 218 218 
207 207 200 190 190 176 172 165 157 157 150 142 131 131 123 123 123 
123 123 123 123 123 123 123 123 131 131 131 131 123 131 131 131 131 
142 131   8   0   8   0   0   8   8   8  26  26   0   8  26  26  37 
 47  20  47   8  76  41  37  17   0   0   8  20  41  76 118 165 179 
193 188 215 255 242 185 146 123  60  17   0   0   0   0   0   0   0 
  0  64 102  41  64 160 195 245 204 227 204 204 204 215 204 204 197 
176 204 219 197 197 210 210 224 235 250 255 255 255 255 255 250 185 
165 106  31   0   0   0   0   0   0  51  60  51 102 138 138 179 165 
153 153 153 153 127 148  60  41  17  17  41   0   0   0   0   0   0 
  0   0   0   0   0   0   0   0   0   0   0   0   0   0   0   0   0 
  0   0   0   0   0   0   0   0   0   0   0   0   0   0   0   0   0 
  0   0   0   0   0   0   0   0   0   0   0   0   0   0   0   0   0 
  0   0   0   0   0   0   0   0   0   0   0   0   0   0   0   0   0 
  0   0   0   0   0   0   0   0   0   0   0   0   0   0   0  26  82 
123 165 204 255 255 255 255 255 255 255 255 255 255 255 255 255 255 
255 255 255 255 255 255 255 255 255 255 255 255 255 255 255 255 255 
255 255 255 255 255 255 255 255 255 255 255 255 255 255 255 255 255 
255 255 255 255 255 255 237 235 226 218 218 207 200 200 190 190 176 
172 165 157 150 142 142 131 131 123 123 123 123 123 123 123 123 123 
123 123 123 123 123 123 123 123 123 123 123 142 131   0  41 255 255 
255 255 255 255 255 255 255 255 255 255 255 255 255 255 255 255 242 
242 255 255 255 255 255 255 255 255 255 255 255 255 255 255 255 255 
255 255 255 255 255 255 255 255 255 255 255 242 242 242 255 255 255 
255 255 255 255 255 255 255 255 255 255 255 255 255 255 255 255 255 
255 255 255 245 245 255 255 255 255 255 255 255 255 255 255 255 255 
255 255 255 242 242 242 255 255 255 255 255 255 255 255 255 255 245 
255 255 255 255 255 255 255 255 255 255 255 255 255 255 255 255 255 
255 255 255 255 255 255 255 255 255 255 255 255 255 255 255 255 255 
255 255 255 255 255 255 255 255 255 255 255 255 255 255 255 255 255 
255 255 255 255 255 255 255 255 255 255 255 255 255 255 255 255 255 
255 255 255 255 255 242 235 224 215 197 179 160 138 118 102  64  51 
 17   0   0   0   0   0   0   0   0   0   0   0   0   0   0   8  76 
123 176 235 255 255 255 255 255 255 255 255 255 255 255 255 255 255 
255 255 255 255 255 255 255 255 255 255 255 255 255 255 255 255 255 
255 255 255 255 255 255 255 255 255 255 255 255 255 255 255 255 255 
237 235 226 218 218 207 200 200 190 181 172 172 165 157 150 150 142 
131 123 123 123 123 123 123 123 123 123 123 123 123 123 123 123 123 
123 123 123 123 123 142 131   0  41 255 255 255 255 255 255 255 255 
255 255 255 255 255 255 255 255 255 255 255 255 255 255 255 255 255 
255 255 255 255 255 255 255 255 255 255 255 255 255 255 255 255 255 
255 255 255 255 255 255 255 255 255 255 255 255 255 255 255 255 255 
255 255 255 255 255 255 255 255 255 255 255 255 255 255 255 255 255 
255 255 255 255 255 255 255 255 255 255 255 255 255 255 255 255 255 
255 255 255 255 255 255 255 255 255 255 255 255 255 255 255 255 255 
255 255 255 255 255 255 255 255 255 255 255 255 255 255 255 255 255 
255 255 255 255 255 255 255 255 255 255 255 255 255 255 255 255 255 
255 255 255 255 255 255 255 255 255 255 255 255 255 255 255 255 255 
255 255 255 255 255 255 255 255 255 255 255 255 255 255 255 255 255 
255 255 255 255 255 255 255 255 255 255 255 255 255 255 224 188 153 
114  76  26   0   0   0   0   0   0   0   0   0   0   0  17  82 138 
204 255 255 255 255 255 255 255 255 255 255 255 255 255 255 255 255 
255 255 255 255 255 255 255 255 255 255 255 255 255 255 255 255 255 
255 255 255 255 255 255 255 255 255 255 255 237 235 226 218 218 207 
200 200 190 190 172 172 165 157 150 142 142 131 123 123 123 123 123 
123 123 123 123 123 123 123 123 123 123 123 123 123 123 123 123 142 
131   0  31 255 255 255 255 255 255 255 255 255 255 255 255 255 255 
255 255 255 255 255 255 255 255 255 255 255 255 255 255 255 255 255 
255 255 255 255 255 255 255 255 255 255 255 255 255 255 255 255 255 
255 255 255 255 255 255 255 255 255 255 255 255 255 255 255 255 255 
255 255 255 255 255 255 255 255 255 255 255 255 255 255 255 255 255 
255 255 255 255 255 255 255 255 255 255 255 255 255 255 255 255 255 
255 255 255 255 255 255 255 255 255 255 255 255 255 255 255 255 255 
255 255 255 255 255 255 255 255 255 255 255 255 255 255 255 255 255 
255 255 255 255 255 255 255 255 255 255 255 255 255 255 255 255 255 
255 255 255 255 255 255 255 255 255 255 255 255 255 255 255 255 255 
255 255 255 255 255 255 255 255 255 255 255 255 255 255 255 255 255 
255 255 255 255 255 255 255 255 255 255 255 255 255 255 255 235 197 
148 102  41   8   0   0   0   0   0   0   0   0   0  51 114 188 255 
255 255 255 255 255 255 255 255 255 255 255 255 255 255 255 255 255 
255 255 255 255 255 255 255 255 255 255 255 255 255 255 255 255 255 
255 255 255 255 255 237 237 226 218 207 207 200 200 190 181 172 172 
165 157 150 142 142 131 123 123 123 123 123 123 123 123 123 123 123 
123 123 123 123 123 123 123 123 123 123 131 131   0  31 255 255 255 
255 255 255 255 255 255 255 255 255 255 255 255 255 255 255 255 255 
255 255 255 255 255 255 255 255 255 255 255 255 255 255 255 255 255 
255 255 255 255 255 255 255 255 255 255 255 255 255 255 255 255 255 
255 255 255 255 255 255 255 255 255 255 255 255 255 255 255 255 255 
255 255 255 255 255 255 255 255 255 255 255 255 255 255 255 255 255 
255 255 255 255 255 255 255 255 255 255 255 255 255 255 255 255 255 
255 255 255 255 255 255 255 255 255 255 255 255 255 255 255 255 255 
255 255 255 255 255 255 255 255 255 255 255 255 255 255 255 255 255 
255 255 255 255 255 255 255 255 255 255 255 255 255 255 255 255 255 
255 255 255 255 255 255 255 255 255 255 255 255 255 255 255 255 255 
255 255 255 255 255 255 255 255 255 255 255 255 255 255 255 255 255 
255 255 255 255 255 255 255 255 255 255 255 255 255 255 255 224 179 
123  41  17   0   0   0   0   0   0   0   0  51 123 204 255 255 255 
255 255 255 255 255 255 255 255 255 255 255 255 255 255 255 255 255 
255 255 255 255 255 255 255 255 255 255 255 255 255 255 255 255 237 
232 226 218 218 207 200 190 190 181 172 172 165 150 142 142 142 131 
123 123 123 123 123 123 123 123 123 123 123 123 123 123 123 123 123 
123 123 123 123 131 131   0  31 255 255 255 255 255 255 255 255 255 
255 255 255 255 255 255 255 255 255 255 255 255 255 255 255 255 255 
255 255 255 255 255 255 255 255 255 255 255 255 255 255 255 255 255 
255 255 255 255 255 255 255 255 255 255 255 255 255 255 255 255 255 
255 255 255 255 255 255 255 255 255 255 255 255 255 255 255 255 255 
255 255 255 255 255 255 255 255 255 255 255 255 255 255 255 255 255 
255 255 255 255 255 255 255 255 255 255 255 255 255 255 255 255 255 
255 255 255 255 255 255 255 255 255 255 255 255 255 255 255 255 255 
255 255 255 255 255 255 255 255 255 255 255 255 255 255 255 255 255 
255 255 255 255 255 255 255 255 255 255 255 255 255 255 255 255 255 
255 255 255 255 255 255 255 255 255 255 255 255 255 255 255 255 255 
255 255 255 255 255 255 255 255 255 255 255 255 255 255 255 255 255 
255 255 255 255 255 255 255 255 255 255 255 255 255 255 204 153  82 
 26   8   0   0   0   0   0   0   8  82 165 242 255 255 255 255 255 
255 255 255 255 255 255 255 255 255 255 255 255 255 255 255 255 255 
255 255 255 255 255 255 255 255 255 255 237 232 226 218 218 207 200 
190 190 176 176 165 165 150 150 142 131 131 123 123 123 123 123 123 
123 123 123 123 123 123 123 123 123 123 123 123 123 123 123 131 131 
  0  41 255 255 255 255 255 255 255 255 255 255 255 255 255 255 255 
255 255 255 255 255 255 255 255 255 255 255 255 255 255 255 255 255 
255 255 255 255 255 255 255 255 255 255 255 255 255 255 255 255 255 
255 255 255 255 255 255 255 255 255 255 255 255 255 255 255 255 255 
255 255 255 255 255 255 255 255 255 255 255 255 255 255 255 255 255 
255 255 255 255 255 255 255 255 255 255 255 255 255 255 255 255 255 
255 255 255 255 255 255 255 255 255 255 255 255 255 255 255 255 255 
255 255 255 255 255 255 255 255 255 255 255 255 255 255 255 255 255 
255 255 255 255 255 255 255 255 255 255 255 255 255 255 255 255 255 
255 255 255 255 255 255 255 255 255 255 255 255 255 255 255 255 255 
255 255 255 255 255 255 255 255 255 255 255 255 255 255 255 255 255 
255 255 255 255 255 255 255 255 255 255 255 255 255 255 255 255 255 
255 255 255 255 255 255 255 255 255 255 255 255 224 165  90  41  17 
  0   0   0   0   0   0  60 132 204 245 255 255 255 255 255 255 255 
255 255 255 255 255 255 255 255 255 255 255 255 255 255 255 255 255 
255 255 255 255 237 237 226 218 218 207 200 190 190 176 176 165 165 
150 150 142 142 131 123 117 117 117 117 117 117 117 117 117 123 123 
123 123 123 123 123 123 123 123 123 131 131   0  41 255 255 255 255 
255 255 255 255 255 255 255 255 255 255 255 255 255 255 255 255 255 
255 255 255 255 255 255 255 255 255 255 255 255 255 255 255 255 255 
255 255 255 255 255 255 255 255 255 255 255 255 255 255 255 255 255 
255 255 255 255 255 255 255 255 255 255 255 255 255 255 255 255 255 
255 255 255 255 255 255 255 255 255 255 255 255 255 255 255 255 255 
255 255 255 255 255 255 255 255 255 255 255 255 255 255 255 255 255 
255 255 255 255 255 255 255 255 255 255 255 255 255 255 255 255 255 
255 255 255 255 255 255 255 255 255 255 255 255 255 255 255 255 255 
255 255 255 255 255 255 255 255 255 255 255 255 255 255 255 255 255 
255 255 255 255 255 255 255 255 255 255 255 255 255 255 255 255 255 
255 255 255 255 255 255 255 255 255 255 255 255 255 255 255 255 255 
255 255 255 255 255 255 255 255 255 255 255 255 255 255 255 255 255 
255 255 255 255 255 255 255 255 255 255 215 148  76  31   0   0   0 
  0   0   0  41 123 188 242 255 255 255 255 255 255 255 255 255 255 
255 255 255 255 255 255 255 255 255 255 255 255 255 255 255 237 232 
226 218 207 207 200 190 190 176 176 165 157 150 150 142 131 131 117 
117 117 117 117 117 117 117 117 117 117 117 117 117 123 123 123 123 
123 123 123 123 131   0  41 255 255 255 255 255 255 255 255 255 255 
255 255 255 255 255 255 255 255 255 255 255 255 255 255 255 255 255 
255 255 255 255 255 255 255 255 255 255 255 255 255 255 255 255 255 
255 255 255 255 255 255 255 255 255 255 255 255 255 255 255 255 255 
255 255 255 255 255 255 255 255 255 255 255 255 255 255 255 255 255 
255 255 255 255 255 255 255 255 255 255 255 255 255 255 255 255 255 
255 255 255 255 255 255 255 255 255 255 255 255 255 255 255 255 255 
255 255 255 255 255 255 255 255 255 255 255 255 255 255 255 255 255 
255 255 255 255 255 255 255 255 255 255 255 255 255 255 255 255 255 
255 255 255 255 255 255 255 255 255 255 255 255 255 255 255 255 255 
255 255 255 255 255 255 255 255 255 255 255 255 255 255 255 255 255 
255 255 255 255 255 255 255 255 255 255 255 255 255 255 255 255 255 
255 255 255 255 255 255 255 255 255 255 255 255 255 255 255 255 255 
255 255 255 255 255 255 255 235 179 102  51   0   0   0   0   0   0 
 41 123 188 255 255 255 255 255 255 255 255 255 255 255 255 255 255 
255 255 255 255 255 255 255 255 255 237 237 226 218 218 207 200 190 
181 176 176 165 157 157 150 142 131 131 117 117 117 117 117 117 117 
117 117 117 117 117 117 117 117 123 123 123 123 123 117 131 123   0 
 41 255 255 255 255 255 255 255 255 255 255 255 255 255 255 255 255 
255 255 255 255 255 255 255 255 255 255 255 255 255 255 255 255 255 
255 255 255 255 255 255 255 255 255 255 255 255 255 255 255 255 255 
255 255 255 255 255 255 255 255 255 255 255 255 255 255 255 255 255 
255 255 255 255 255 255 255 255 255 255 255 255 255 255 255 255 255 
255 255 255 255 255 255 255 255 255 255 255 255 255 255 255 255 255 
255 255 255 255 255 255 255 255 255 255 255 255 255 255 255 255 255 
255 255 255 255 255 255 255 255 255 255 255 255 255 255 255 255 255 
255 255 255 255 255 255 255 255 255 255 255 255 255 255 255 255 255 
255 255 255 255 255 255 255 255 255 255 255 255 255 255 255 255 255 
255 255 255 255 255 255 255 255 255 255 255 255 255 255 255 255 255 
255 255 255 255 255 255 255 255 255 255 255 255 255 255 255 255 255 
255 255 255 255 255 255 255 255 255 255 255 255 255 255 255 255 255 
255 255 255 255 245 197 123  60   0   0   0   0   0   0  64 138 215 
255 255 255 255 255 255 255 255 255 255 255 255 255 255 255 255 255 
255 255 255 237 232 226 218 218 207 200 190 190 176 172 165 157 150 
142 142 131 123 117 117 117 117 117 117 117 117 117 117 117 117 117 
117 117 117 117 117 117 117 117 131 123   0  41 255 255 255 255 255 
255 255 255 255 255 255 255 255 255 255 255 255 255 255 255 255 255 
255 255 255 255 255 255 255 255 255 255 255 255 255 255 255 255 255 
255 255 255 255 255 255 255 255 255 255 255 255 255 255 255 255 255 
255 255 255 255 255 255 255 255 255 255 255 255 255 255 255 255 255 
255 255 255 255 255 255 255 255 255 255 255 255 255 255 255 255 255 
255 255 255 255 255 255 255 255 255 255 255 255 255 255 255 255 255 
255 255 255 255 255 255 255 255 255 255 255 255 255 255 255 255 255 
255 255 255 255 255 255 255 255 255 255 255 255 255 255 255 255 255 
255 255 255 255 255 255 255 255 255 255 255 255 255 255 255 255 255 
255 255 255 255 255 255 255 255 255 255 255 255 255 255 255 255 255 
255 255 255 255 255 255 255 255 255 255 255 255 255 255 255 255 255 
255 255 255 255 255 255 255 255 255 255 255 255 255 255 255 255 255 
255 255 255 255 255 255 255 255 255 255 255 255 255 255 255 255 255 
255 255 204 138  51   0   0   0   0   0   0  90 169 245 255 255 255 
255 255 255 255 255 255 255 255 255 255 255 255 255 255 235 235 226 
218 218 200 200 190 181 176 172 165 157 150 142 142 131 123 117 113 
113 113 117 117 117 117 117 117 117 117 117 117 117 117 117 117 117 
117 117 131 123   0  41 255 255 255 255 255 255 255 255 255 255 255 
255 255 255 255 255 255 255 255 255 255 255 255 255 255 255 255 255 
255 255 255 255 255 255 255 255 255 255 255 255 255 255 255 255 255 
255 255 255 255 255 255 255 255 255 255 255 255 255 255 255 255 255 
255 255 255 255 255 255 255 255 255 255 255 255 255 255 255 255 255 
255 255 255 255 255 255 255 255 255 255 255 255 255 255 255 255 255 
255 255 255 255 255 255 255 255 255 255 255 255 255 255 255 255 255 
255 255 255 255 255 255 255 255 255 255 255 255 255 255 255 255 255 
255 255 255 255 255 255 255 255 255 255 255 255 255 255 255 255 255 
255 255 255 255 255 255 255 255 255 255 255 255 255 255 255 255 255 
255 255 255 255 255 255 255 255 255 255 255 255 255 255 255 255 255 
255 255 255 255 255 255 255 255 255 255 255 255 255 255 255 255 255 
255 255 255 255 255 255 255 255 255 255 255 255 255 255 255 255 255 
255 255 255 255 255 255 255 255 255 255 255 255 255 255 255 255 197 
123  31   0   0   0   0   0  41 118 224 255 255 255 255 255 255 255 
255 255 255 255 255 255 255 255 237 237 226 218 207 207 200 190 181 
176 172 165 157 150 142 142 131 123 117 113 113 113 113 113 113 117 
117 117 117 117 117 117 117 117 117 117 117 117 117 131 123   0  41 
255 255 255 255 255 255 255 255 255 255 255 255 255 255 255 255 255 
255 255 255 255 255 255 255 255 255 255 255 255 255 255 255 255 255 
255 255 255 255 255 255 255 255 255 255 255 255 255 255 255 255 255 
255 255 255 255 255 255 255 255 255 255 255 255 255 255 255 255 255 
255 255 255 255 255 255 255 255 255 255 255 255 255 255 255 255 255 
255 255 255 255 255 255 255 255 255 255 255 255 255 255 255 255 255 
255 255 255 255 255 255 255 255 255 255 255 255 255 255 255 255 255 
255 255 255 255 255 255 255 255 255 255 255 255 255 255 255 255 255 
255 255 255 255 255 255 255 255 255 255 255 255 255 255 255 255 255 
255 255 255 255 255 255 255 255 255 255 255 255 255 255 255 255 255 
255 255 255 255 255 255 255 255 255 255 255 255 255 255 255 255 255 
255 255 255 255 255 255 255 255 255 255 255 255 255 255 255 255 255 
255 255 255 255 255 255 255 255 255 255 255 255 255 255 255 255 255 
255 255 255 255 255 255 255 255 255 255 255 255 235 169  90   8   0 
  0   0   0   8  82 188 255 255 255 255 255 255 255 255 255 255 255 
255 255 237 232 226 218 207 207 200 190 181 176 172 165 150 150 142 
142 131 123 113 113 113 113 113 113 113 113 113 113 113 113 117 117 
117 117 117 117 117 117 117 123 123   0  41 255 255 255 255 255 255 
255 255 255 255 255 255 255 255 255 255 255 255 255 255 255 255 255 
255 255 255 255 255 255 255 255 255 255 255 255 255 255 255 255 255 
255 255 255 255 255 255 255 255 255 255 255 255 255 255 255 255 255 
255 255 255 255 255 255 255 255 255 255 255 255 255 255 255 255 255 
255 255 255 255 255 255 255 255 255 255 255 255 255 255 255 255 255 
255 255 255 255 255 255 255 255 255 255 255 255 255 255 255 255 255 
255 255 255 255 255 255 255 255 255 255 255 255 255 255 255 255 255 
255 255 255 255 255 255 255 255 255 255 255 255 255 255 255 255 255 
255 255 255 255 255 255 255 255 255 255 255 255 255 255 255 255 255 
255 255 255 255 255 255 255 255 255 255 255 255 255 255 255 255 255 
255 255 255 255 255 255 255 255 255 255 255 255 255 255 255 255 255 
255 255 255 255 255 255 255 255 255 255 255 255 255 255 255 255 255 
255 255 255 255 255 255 255 255 255 255 255 255 255 255 255 255 255 
255 255 255 255 255 255 255 255 255 215 138  41   0   0   0   0   0 
 60 148 255 255 255 255 255 255 255 255 255 255 255 237 237 226 218 
207 207 190 190 181 176 176 165 157 150 142 131 131 123 113 113 113 
113 113 113 113 113 113 113 113 113 113 113 113 113 113 113 113 113 
113 131 123   0  41 255 255 255 255 255 255 255 255 255 255 255 255 
255 255 255 255 255 255 255 255 255 255 255 255 255 255 255 255 255 
255 255 255 255 255 255 255 255 255 255 255 255 255 255 255 255 255 
255 255 255 255 255 255 255 255 255 255 255 255 255 255 255 255 255 
255 255 255 255 255 255 255 255 255 255 255 255 255 255 255 255 255 
255 255 255 255 255 255 255 255 255 255 255 255 255 255 255 255 255 
255 255 255 255 255 255 255 255 255 255 255 255 255 255 255 255 255 
255 255 255 255 255 255 255 255 255 255 255 255 255 255 255 255 255 
255 255 255 255 255 255 255 255 255 255 255 255 255 255 255 255 255 
255 255 255 255 255 255 255 255 255 255 255 255 255 255 255 255 255 
255 255 255 255 255 255 255 255 255 255 255 255 255 255 255 255 255 
255 255 255 255 255 255 255 255 255 255 255 255 255 255 255 255 255 
255 255 255 255 255 255 255 255 255 255 255 255 255 255 255 255 255 
255 255 255 255 255 255 255 255 255 255 255 255 255 255 255 255 255 
255 255 255 255 255 235 179  82   0   0   0   0   0  41 114 245 255 
255 255 255 255 255 255 255 237 237 226 218 207 207 200 190 181 176 
176 165 157 150 142 142 131 123 117 117 117 117 113 113 113 113 117 
117 117 117 117 117 113 113 117 117 117 117 117 123 123   0  41 255 
255 255 255 255 255 255 255 255 255 255 255 255 255 255 255 255 255 
255 255 255 255 255 255 255 255 255 255 255 255 255 255 255 255 255 
255 255 255 255 255 255 255 255 255 255 255 255 255 255 255 255 255 
255 255 255 255 255 255 255 255 255 255 255 255 255 255 255 255 255 
255 255 255 255 255 255 255 255 255 255 255 255 255 255 255 255 255 
255 255 255 255 255 255 255 255 255 255 255 255 255 255 255 255 255 
255 255 255 255 255 255 255 255 255 255 255 255 255 255 255 255 255 
255 255 255 255 255 255 255 255 255 255 255 255 255 255 255 255 255 
255 255 255 255 255 255 255 255 255 255 255 255 255 255 255 255 255 
255 255 255 255 255 255 255 255 255 255 255 255 255 255 255 255 255 
255 255 255 255 255 255 255 255 255 255 255 255 255 255 255 255 255 
255 255 255 255 255 255 255 255 255 255 255 255 255 255 255 255 255 
255 255 255 255 255 255 255 255 255 255 255 255 255 255 255 255 255 
255 255 255 255 255 255 255 255 255 255 255 255 255 255 255 255 255 
255 255 224 106   8   0   0   0   0  31 102 250 255 255 255 255 255 
255 237 232 226 218 207 207 200 190 181 176 172 165 157 150 150 131 
131 123 117 113 113 113 113 113 113 113 117 117 117 117 117 117 117 
117 117 117 117 117 117 131 123   0  41 255 255 255 255 255 255 255 
255 255 255 255 255 255 255 255 255 255 255 255 255 255 255 255 255 
255 255 255 255 255 255 255 255 255 255 255 255 255 255 255 255 255 
255 255 255 255 255 255 255 255 255 255 255 255 255 255 255 255 255 
255 255 255 255 255 255 255 255 255 255 255 255 255 255 255 255 255 
255 255 255 255 255 255 255 255 255 255 255 255 255 255 255 255 255 
255 255 255 255 255 255 255 255 255 255 255 255 255 255 255 255 255 
255 255 255 255 255 255 255 255 255 255 255 255 255 255 255 255 255 
255 255 255 255 255 255 255 255 255 255 255 255 255 255 255 255 255 
255 255 255 255 255 255 255 255 255 255 255 255 255 255 255 255 255 
255 255 255 255 255 255 255 255 255 255 255 255 255 255 255 255 255 
255 255 255 255 255 255 255 255 255 255 255 255 255 255 255 255 255 
255 255 255 255 255 255 255 255 255 255 255 255 255 255 255 255 255 
255 255 255 255 255 255 255 255 255 255 255 255 255 255 255 255 255 
255 255 255 255 255 255 255 255 255 255 255 255 255 255 255 245 138 
 20   0   0   0   0  17  90 242 255 255 255 255 237 237 226 218 207 
207 200 190 190 176 172 165 157 150 142 131 131 131 113 113 113 113 
117 117 117 117 117 117 117 117 117 117 117 117 117 117 117 117 117 
131 123   0  41 255 255 255 255 255 255 255 255 255 255 255 255 255 
255 255 255 255 255 255 255 255 255 255 255 255 255 255 255 255 255 
255 255 255 255 255 255 255 255 255 255 255 255 255 255 255 255 255 
255 255 255 255 255 255 255 255 255 255 255 255 255 255 255 255 255 
255 255 255 255 255 255 255 255 255 255 255 255 255 255 255 255 255 
255 255 255 255 255 255 255 255 255 255 255 255 255 255 255 255 255 
255 255 255 255 255 255 255 255 255 255 255 255 255 255 255 255 255 
255 255 255 255 255 255 255 255 255 255 255 255 255 255 255 255 255 
255 255 255 255 255 255 255 255 255 255 255 255 255 255 255 255 255 
255 255 255 255 255 255 255 255 255 255 255 255 255 255 255 255 255 
255 255 255 255 255 255 255 255 255 255 255 255 255 255 255 255 255 
255 255 255 255 255 255 255 255 255 255 255 255 255 255 255 255 255 
255 255 255 255 255 255 255 255 255 255 255 255 255 255 255 255 255 
255 255 255 255 255 255 255 255 255 255 255 255 255 255 255 255 255 
255 255 255 255 255 255 255 255 255 255 255 255 153  26   0   0   0 
  0   0 255 255 255 255 237 232 226 218 207 207 200 190 190 176 172 
165 157 150 142 142 131 123 117 117 117 117 117 117 117 117 117 117 
117 117 117 117 117 117 117 117 117 117 117 131 123   0  41 255 255 
255 255 255 255 255 255 255 255 255 255 255 255 255 255 255 255 255 
255 255 255 255 255 255 255 255 255 255 255 255 255 255 255 255 255 
255 255 255 255 255 255 255 255 255 255 255 255 255 255 255 255 255 
255 255 255 255 255 255 255 255 255 255 255 255 255 255 255 255 255 
255 255 255 255 255 255 255 255 255 255 255 255 255 255 255 255 255 
255 255 255 255 255 255 255 255 255 255 255 255 255 255 255 255 255 
255 255 255 255 255 255 255 255 255 255 255 255 255 255 255 255 255 
255 255 255 255 255 255 255 255 255 255 255 255 255 255 255 255 255 
255 255 255 255 255 255 255 255 255 255 255 255 255 255 255 255 255 
255 255 255 255 255 255 255 255 255 255 255 255 255 255 255 255 255 
255 255 255 255 255 255 255 255 255 255 255 255 255 255 255 255 255 
255 255 255 255 255 255 255 255 255 255 255 255 255 255 255 255 255 
255 255 255 255 255 255 255 255 255 255 255 255 255 255 255 255 255 
255 255 255 255 255 255 255 255 255 255 255 255 255 255 255 255 255 
255 255 255 255 255 255 255 255 165  17   0   0   0 255 255 255 255 
237 232 226 218 207 207 200 190 190 176 172 165 165 150 142 142 131 
123 117 113 113 113 113 117 117 117 117 117 117 117 117 117 117 117 
117 117 117 117 117 131 123   0  41 255 255 255 255 255 255 255 255 
255 255 255 255 255 255 255 255 255 255 255 255 255 255 255 255 255 
255 255 255 255 255 255 255 255 255 255 255 255 255 255 255 255 255 
255 255 255 255 255 255 255 255 255 255 255 255 255 255 255 255 255 
255 255 255 255 255 255 255 255 255 255 255 255 255 255 255 255 255 
255 255 255 255 255 255 255 255 255 255 255 255 255 255 255 255 255 
255 255 255 255 255 255 255 255 255 255 255 255 255 255 255 255 255 
255 255 255 255 255 255 255 255 255 255 255 255 255 255 255 255 255 
255 255 255 255 255 255 255 255 255 255 255 255 255 255 255 255 255 
255 255 255 255 255 255 255 255 255 255 255 255 255 255 255 255 255 
255 255 255 255 255 255 255 255 255 255 255 255 255 255 255 255 255 
255 255 255 255 255 255 255 255 255 255 255 255 255 255 255 255 255 
255 255 255 255 255 255 255 255 255 255 255 255 255 255 255 255 255 
255 255 255 255 255 255 255 255 255 255 255 255 255 255 255 255 255 
255 255 255 255 255 255 255 255 255 255 255 255 255 255 255 255 255 
255 255 255 255 169  20   0 