P2
# CREATOR: XV Version 3.00  Rev: 3/30/93
320 240
255
 86 116 114 118 118 120 118 119 119 120 118 118 120 118 120 120 119 
119 120 121 119 120 122 122 120 121 121 122 121 122 121 120 121 121 
121 120 119 121 121 120 122 124 124 123 123 123 124 126 124 124 124 
126 125 122 124 125 124 124 123 123 123 125 123 122 124 121 123 124 
124 123 123 124 125 124 125 125 125 127 126 125 124 125 124 125 125 
124 124 122 124 125 127 126 126 126 127 127 125 126 125 127 125 126 
125 127 126 126 128 125 125 126 123 126 126 127 126 128 127 128 127 
128 129 130 128 128 125 127 127 127 126 128 127 129 127 128 125 126 
127 127 128 128 126 126 127 128 128 129 123 125 127 127 126 127 128 
127 129 127 128 127 126 128 127 126 127 127 127 125 127 128 128 129 
128 129 129 128 130 128 127 128 129 127 125 125 127 128 128 127 128 
128 127 128 128 127 126 127 128 129 126 127 127 125 125 127 128 128 
130 128 127 128 128 129 126 128 129 128 127 127 126 127 128 128 127 
128 127 128 126 127 127 128 127 127 124 125 127 126 125 126 127 124 
124 125 127 125 126 125 126 127 129 125 125 124 127 126 126 127 125 
127 126 124 126 124 127 127 127 125 125 125 124 125 124 123 126 124 
125 125 125 125 124 123 126 124 122 125 125 124 123 125 122 125 124 
125 125 125 124 124 122 124 122 123 123 123 122 123 123 126 124 125 
123 123 122 124 123 122 121 123 121 121 122 121 121 120  88 119 116 
119 118 119 120 119 119 120 120 120 123 121 122 121 119 122 122 124 
124 121 124 121 122 123 122 123 121 123 122 123 122 124 121 122 121 
122 121 124 119 121 121 122 125 125 124 124 125 125 123 124 123 122 
123 125 124 125 123 125 126 125 125 126 124 127 126 126 125 125 123 
124 124 124 125 126 125 126 126 126 124 126 126 126 126 126 126 123 
124 124 125 126 126 125 126 127 126 127 125 126 125 128 127 126 126 
126 125 125 126 128 124 126 126 127 126 127 127 128 127 128 126 127 
127 130 127 128 127 128 126 130 128 128 127 127 127 129 128 129 128 
128 128 129 127 126 127 128 128 126 127 129 127 128 127 128 128 127 
127 127 128 129 127 127 128 130 129 129 129 128 128 129 128 127 127 
126 127 127 127 128 128 128 127 125 126 126 128 128 128 128 128 129 
128 126 126 128 127 130 129 129 130 126 125 126 128 129 128 128 128 
129 127 131 129 129 127 128 128 128 125 128 128 127 128 127 127 130 
128 129 128 128 128 127 126 127 127 128 127 127 126 126 126 125 126 
127 127 127 126 126 127 128 127 127 126 126 126 128 124 126 128 127 
127 127 127 128 125 125 126 127 124 123 125 125 126 128 125 128 126 
126 127 126 125 125 125 126 125 125 126 127 124 125 123 126 126 125 
124 124 121 122 121 121 122 122 122 125 124 123 122 124 124 126 125 
123 122 122 122 123 122 123 124 123 124 124  85 118 116 117 117 118 
120 119 119 121 120 121 122 121 121 119 120 122 122 121 121 119 122 
121 122 123 122 123 121 123 120 120 120 123 121 119 121 123 122 123 
124 124 124 124 124 124 121 122 122 123 124 124 125 122 123 123 125 
125 123 124 125 126 127 127 126 126 126 125 124 125 122 127 127 125 
124 126 124 125 124 123 126 128 127 126 126 128 128 126 125 126 125 
127 125 126 126 128 125 128 127 127 125 127 127 126 127 127 126 126 
129 129 126 128 126 127 126 127 127 129 128 128 127 129 128 129 128 
128 127 128 128 129 131 129 125 126 129 127 126 127 127 127 128 128 
127 127 127 128 128 129 129 125 128 129 128 128 128 128 128 129 130 
129 129 129 128 129 127 129 130 129 127 129 129 129 129 129 129 129 
130 131 130 130 128 126 129 129 128 129 128 128 126 127 128 128 127 
128 128 128 127 128 127 128 127 127 129 131 128 129 130 129 130 132 
131 132 129 129 129 128 129 129 130 129 127 127 130 128 128 130 131 
130 129 127 127 127 127 128 127 127 126 127 127 127 127 127 126 126 
127 129 127 128 126 126 127 126 125 127 125 127 126 127 128 128 125 
126 125 126 127 127 126 126 125 126 127 126 125 126 126 127 127 125 
127 126 125 126 126 128 127 128 126 126 123 125 125 124 123 124 123 
124 125 123 123 126 125 126 125 126 121 124 123 125 123 123 123 122 
120 122 121 122 121 123 124 123  84 120 118 119 120 120 120 118 118 
119 120 122 122 121 121 119 121 123 122 122 123 122 122 122 121 122 
122 124 121 123 121 122 121 120 122 121 122 121 122 123 124 125 124 
125 124 124 124 125 122 124 125 126 123 123 123 123 125 127 124 126 
126 125 127 125 124 125 124 125 125 123 125 124 126 126 126 127 124 
124 125 126 126 127 126 126 125 125 126 125 125 126 124 126 126 128 
128 128 126 128 126 127 127 127 126 126 126 127 127 127 129 128 126 
126 128 128 127 128 126 127 127 127 125 127 128 126 128 126 126 126 
127 128 128 126 127 127 128 127 127 128 127 127 128 126 127 130 129 
128 129 128 128 128 128 128 128 128 127 129 128 128 129 128 128 128 
128 128 126 126 129 128 125 128 128 128 130 129 127 127 128 129 127 
128 128 127 128 128 126 128 127 126 126 127 126 127 126 129 127 128 
129 127 128 128 127 126 128 129 127 127 129 128 129 129 127 130 129 
130 129 128 126 126 128 127 129 128 127 126 127 128 128 128 128 128 
128 128 127 128 127 128 128 127 127 128 126 126 126 126 126 127 126 
128 127 126 128 127 125 125 127 126 128 129 127 126 125 126 125 127 
126 128 127 125 127 127 126 127 125 124 125 126 126 122 126 126 125 
125 125 127 126 125 126 125 125 125 123 123 122 123 123 125 122 123 
122 124 121 123 122 122 124 126 123 124 123 123 123 121 121 122 121 
125 123 123 122 122  85 121 118 120 121 120 121 121 121 121 121 122 
121 120 122 122 121 125 120 123 124 122 123 121 122 124 124 124 121 
121 121 122 123 122 123 120 122 123 124 122 122 124 124 124 124 124 
123 124 125 126 126 123 125 123 124 123 125 125 125 126 125 126 125 
127 124 124 127 125 126 126 124 124 125 125 125 127 126 126 126 126 
125 126 127 128 127 127 127 126 125 126 126 126 126 127 126 125 126 
127 128 128 128 127 127 127 124 128 128 129 128 126 126 128 127 127 
127 127 126 127 127 128 128 128 128 127 129 126 127 129 128 127 128 
127 127 127 129 129 128 128 127 126 128 126 129 131 130 128 128 128 
128 130 128 127 128 129 128 130 129 128 130 129 129 129 130 130 129 
127 129 128 128 130 129 129 130 129 130 130 129 129 129 130 130 128 
128 126 128 129 129 128 130 130 129 127 128 130 129 129 131 129 129 
128 129 128 129 129 129 128 128 129 130 129 130 130 130 129 130 129 
129 129 130 129 128 127 128 129 128 128 129 130 131 132 130 129 128 
129 129 130 129 129 128 128 128 127 126 127 129 129 128 125 129 129 
129 127 130 129 128 127 129 128 127 127 127 127 125 126 127 129 128 
128 127 128 127 126 127 128 127 126 126 124 125 126 129 128 127 128 
126 127 128 127 125 125 125 125 125 125 124 125 124 125 125 126 124 
126 126 125 124 125 123 127 126 124 124 124 124 124 122 122 123 124 
125 120  84 122 118 119 120 118 119 120 119 120 119 120 119 119 120 
122 121 123 120 122 121 121 121 122 122 123 123 124 123 123 122 122 
122 122 122 122 121 120 120 124 122 122 124 124 124 124 124 124 124 
125 125 125 124 124 124 124 122 124 122 124 124 124 124 124 124 128 
125 126 126 126 124 125 124 126 127 127 124 124 124 125 126 128 127 
127 127 127 127 127 127 126 126 126 126 125 126 126 124 127 127 127 
128 128 129 128 126 128 127 129 127 127 126 126 127 127 127 128 128 
128 127 128 127 128 127 127 127 127 127 129 127 126 127 128 126 125 
127 127 125 127 128 126 128 126 129 129 128 126 124 125 123 124 126 
128 127 129 128 128 128 129 130 128 130 130 127 128 128 127 128 127 
126 128 127 128 129 128 129 129 129 130 131 130 130 128 129 129 127 
128 128 127 129 129 129 127 128 128 129 126 129 128 127 128 129 130 
127 129 128 129 126 127 127 128 130 128 128 128 129 129 128 127 128 
129 126 126 128 129 127 128 129 130 129 129 127 127 128 130 128 129 
126 128 126 126 125 128 128 127 128 127 128 129 126 127 127 127 128 
128 128 128 126 127 126 127 126 127 126 127 125 126 127 128 125 127 
129 126 126 128 127 127 126 127 127 127 127 127 126 126 125 125 126 
125 124 126 128 127 125 126 125 125 124 124 123 125 124 124 124 125 
122 124 124 127 124 122 123 123 124 122 121 123 124 123 124 122  81 
120 117 119 121 121 121 123 120 122 119 121 123 124 120 120 121 121 
123 122 123 124 121 124 122 122 122 123 125 125 123 122 122 122 123 
123 123 123 121 122 124 124 124 125 124 125 124 123 123 124 125 124 
125 123 124 124 125 126 125 126 126 126 123 121 124 128 127 124 125 
128 125 126 125 127 125 125 124 124 126 127 126 127 127 127 127 127 
128 130 128 127 126 126 126 126 127 127 125 127 125 127 128 130 130 
128 127 128 128 129 128 128 126 127 127 128 128 128 129 128 126 126 
126 128 129 129 130 130 129 128 126 128 130 129 128 126 126 128 127 
128 131 129 128 127 129 128 127 127 129 127 127 130 126 126 127 129 
128 129 129 131 130 128 129 131 127 127 127 126 128 128 128 129 129 
130 131 129 130 130 128 128 129 128 128 127 127 129 128 128 128 128 
127 128 129 129 126 129 128 129 130 128 129 129 128 129 126 128 128 
130 127 128 127 128 128 128 128 130 129 130 125 128 128 129 130 129 
127 129 127 127 127 128 128 128 129 130 128 130 127 130 128 130 127 
127 125 125 126 126 127 127 127 128 126 126 127 128 127 126 128 127 
127 127 127 127 125 126 126 127 126 130 126 127 127 127 126 126 126 
127 126 127 124 125 126 124 126 126 127 126 126 127 125 125 126 127 
128 127 124 125 125 125 121 123 124 123 125 124 124 123 124 125 125 
126 123 124 124 123 122 125 124 125 124 125 124 121  83 120 116 116 
119 119 118 120 119 122 120 119 119 120 119 121 120 119 121 121 123 
122 122 121 121 122 123 124 123 123 123 124 125 121 122 122 121 121 
124 123 123 123 123 124 123 123 123 123 125 125 124 124 124 124 125 
126 123 124 120 123 124 122 125 125 124 125 126 126 125 124 125 124 
123 126 125 126 125 125 124 126 125 125 126 129 128 125 125 127 126 
126 125 125 124 125 122 121 124 128 125 127 125 127 127 127 126 126 
127 125 127 125 126 128 128 128 128 127 128 128 128 129 128 128 129 
129 128 128 127 126 125 127 128 128 128 127 127 128 126 127 129 129 
127 126 129 129 127 127 129 127 126 127 127 128 127 129 129 131 129 
130 127 127 125 130 129 128 129 128 128 127 127 127 128 129 129 128 
129 129 131 129 129 128 130 130 127 129 128 128 127 128 128 129 129 
128 128 128 127 128 128 129 127 127 128 130 129 129 127 129 127 126 
128 129 127 128 128 129 127 129 127 128 128 128 127 127 126 127 125 
125 126 128 129 129 127 126 127 126 127 130 128 128 126 127 126 126 
128 129 127 127 126 127 127 127 126 126 129 127 128 127 127 125 126 
127 128 127 126 123 124 128 124 128 128 127 126 124 125 125 125 125 
127 125 125 126 125 125 125 124 125 128 126 127 125 125 125 126 126 
125 125 124 123 123 124 123 126 124 125 126 124 123 124 125 123 124 
125 124 124 125 123 123 124 122 122 121  83 119 114 119 119 119 118 
120 122 119 121 121 122 119 120 121 120 119 119 121 121 119 120 121 
122 124 122 124 121 123 122 121 123 122 121 121 119 120 122 122 122 
123 122 122 124 125 126 125 124 124 123 123 123 122 122 123 124 124 
125 125 123 126 123 125 125 124 126 125 125 125 124 127 124 125 124 
125 125 125 125 126 127 127 125 125 127 125 125 126 126 127 127 124 
126 127 124 123 128 126 126 126 126 126 128 126 128 128 128 126 126 
126 127 127 127 127 126 128 127 128 126 128 128 128 129 128 128 129 
128 128 125 125 127 127 126 128 129 126 129 132 129 127 126 129 127 
128 126 128 128 129 127 126 129 129 126 128 129 126 130 127 126 127 
128 128 126 129 129 127 127 128 127 129 129 128 129 129 129 128 127 
126 127 128 129 128 128 129 127 127 126 128 127 126 129 128 128 128 
126 128 128 129 128 128 129 127 128 127 127 126 128 129 126 127 126 
126 128 130 129 129 129 129 128 127 128 128 127 126 127 126 128 128 
130 128 127 127 127 126 127 128 128 127 128 128 127 127 125 125 126 
125 127 127 128 127 130 129 129 127 127 128 126 126 127 127 126 128 
127 125 125 125 126 128 127 128 126 127 126 124 126 125 123 123 123 
125 125 124 124 126 125 125 127 125 124 125 125 125 125 126 124 125 
124 120 125 123 124 121 122 122 123 123 123 122 123 124 123 124 123 
122 123 122 122 122 123 122  84 118 115 118 120 118 119 119 119 123 
123 123 117 123 121 120 121 121 118 123 123 120 121 120 120 122 121 
122 121 122 123 121 121 123 121 122 122 122 125 124 122 124 122 122 
122 122 123 124 126 126 125 124 124 125 125 125 123 124 124 125 123 
124 123 124 126 126 126 124 124 126 124 125 125 125 124 125 126 125 
126 125 125 126 124 126 126 127 126 128 127 128 127 125 126 125 125 
125 124 125 126 127 127 126 126 128 126 128 129 129 129 129 128 127 
126 128 126 127 126 128 127 128 127 128 130 129 127 127 127 127 126 
128 128 127 125 127 128 128 127 130 130 129 129 130 128 127 129 131 
129 129 128 128 129 128 129 128 129 130 131 130 129 131 129 129 128 
129 130 129 125 128 127 128 129 128 128 128 129 131 128 131 130 128 
128 126 127 129 128 128 127 128 127 127 127 126 127 128 128 130 130 
131 129 127 128 128 129 128 127 130 128 127 129 130 128 130 131 131 
130 129 128 129 127 127 129 128 128 127 127 127 129 128 128 128 128 
127 131 130 128 128 127 129 128 126 127 128 129 128 128 127 129 128 
129 129 129 130 130 131 128 129 130 128 128 127 126 126 126 127 126 
126 126 128 126 127 126 125 125 125 125 125 124 125 124 123 125 127 
127 127 124 124 125 127 125 125 126 126 126 126 124 124 124 124 124 
123 124 124 124 125 124 126 123 123 124 125 122 124 122 122 123 123 
122 123 123 123  84 119 117 119 119 120 120 119 118 121 121 121 119 
122 122 121 120 120 119 122 121 122 121 122 123 123 121 121 122 123 
125 123 122 124 121 122 122 122 124 122 124 125 123 124 123 122 123 
124 124 125 125 125 125 125 126 123 124 126 126 127 126 126 125 126 
125 126 127 126 126 128 127 126 125 126 125 126 126 127 127 126 126 
128 126 127 127 129 127 128 128 128 127 126 127 126 126 127 127 127 
126 127 126 127 127 127 128 128 128 128 127 127 126 125 124 128 127 
128 127 129 128 129 128 129 128 129 129 129 130 129 126 127 129 129 
125 127 128 128 127 126 127 128 130 129 128 129 127 130 129 128 127 
128 128 127 128 127 129 129 128 129 129 129 128 130 129 132 132 129 
127 126 128 127 129 129 129 129 130 131 129 129 128 129 128 128 130 
129 127 127 126 128 126 128 128 127 129 130 128 128 128 130 131 130 
130 130 131 131 129 130 129 130 130 131 130 131 130 130 130 130 129 
131 129 129 129 129 130 129 127 128 130 129 127 128 129 130 126 127 
128 128 128 130 130 129 127 127 129 129 128 126 128 127 128 129 128 
130 128 129 126 127 130 129 129 128 127 125 126 130 128 127 126 128 
128 127 126 125 126 127 126 127 126 125 125 123 124 125 125 125 125 
126 124 126 125 126 126 127 125 126 125 125 125 125 125 126 124 126 
126 124 124 125 125 126 124 126 124 124 125 124 123 123 122 124 123 
121  85 119 118 119 120 119 120 119 118 120 123 119 120 119 121 120 
122 122 120 122 121 120 122 122 122 122 121 122 121 122 122 121 119 
122 123 121 121 122 123 126 122 122 121 122 123 123 124 124 124 125 
124 124 122 123 124 123 123 123 124 123 123 124 123 125 125 126 127 
127 125 125 125 124 125 125 126 125 126 127 127 126 124 126 125 125 
125 125 125 127 125 126 127 127 127 126 125 125 125 128 126 126 125 
128 126 128 128 128 127 128 128 128 128 129 125 128 126 127 127 128 
128 128 127 128 128 129 130 128 128 126 127 130 128 127 128 130 126 
128 129 130 129 128 129 129 128 127 127 129 130 129 129 128 130 128 
127 127 129 130 127 130 127 126 127 127 128 129 127 128 128 129 127 
126 128 128 128 128 127 127 128 128 127 128 130 129 129 129 128 128 
128 129 128 130 128 128 125 128 129 130 129 129 129 129 129 128 128 
129 128 126 126 128 130 130 130 130 128 128 129 129 128 131 129 130 
130 129 131 130 127 127 127 128 126 127 128 129 128 128 129 129 130 
128 128 128 130 128 126 127 127 125 127 126 127 128 129 129 128 127 
127 128 125 125 126 125 127 127 126 126 127 127 127 128 125 124 125 
126 125 126 125 127 125 123 124 124 124 126 126 126 126 128 125 126 
125 126 126 126 125 125 125 125 124 125 124 124 126 124 124 125 125 
125 125 125 121 121 122 122 124 124 124 123 122 123 123 121  86 119 
116 121 119 121 119 120 119 121 120 121 120 119 120 124 123 123 120 
124 124 122 122 123 121 123 123 125 123 123 122 123 124 125 123 121 
123 124 122 122 122 124 123 123 123 124 125 125 125 124 124 126 123 
125 127 127 126 125 126 124 126 126 125 126 126 127 128 128 125 125 
126 125 125 126 125 125 125 126 125 126 126 127 127 126 127 126 126 
128 126 127 128 127 125 125 128 128 126 128 126 127 127 129 127 128 
129 129 128 128 127 128 128 128 125 127 126 128 128 127 128 129 128 
130 129 130 129 127 129 129 127 127 130 129 128 129 129 129 130 130 
130 132 130 129 128 128 128 128 129 130 129 128 130 128 127 128 131 
129 129 129 129 129 129 131 131 130 130 130 128 130 128 128 130 129 
129 129 129 128 130 130 128 129 130 129 128 128 128 130 129 130 128 
129 129 131 128 129 130 131 130 130 129 129 131 131 130 129 129 129 
130 130 130 130 131 131 130 131 130 129 130 131 128 130 132 131 132 
129 129 128 128 128 128 129 128 128 129 129 129 128 129 128 128 129 
131 129 126 128 128 126 127 127 126 127 130 130 129 128 128 128 126 
128 129 127 128 128 127 128 127 128 126 126 126 127 128 126 129 129 
127 128 128 127 125 125 126 127 127 126 126 129 126 126 128 128 128 
128 128 128 127 126 126 125 125 126 125 124 126 127 127 128 127 127 
126 125 125 124 123 124 123 123 124 123 124 121  88 120 118 119 119 
120 119 118 120 122 122 121 119 120 120 120 119 121 121 122 122 123 
119 121 121 122 120 123 122 123 123 125 120 123 123 123 123 124 124 
123 122 124 124 124 123 123 124 124 126 126 124 126 124 124 123 123 
122 123 123 123 124 123 123 124 124 126 125 125 125 125 127 125 126 
126 125 123 126 125 125 126 125 126 126 126 126 126 127 127 127 128 
128 128 125 126 128 127 127 125 125 127 126 128 127 127 125 127 127 
127 127 130 128 126 128 128 126 127 127 127 127 127 128 129 128 128 
129 128 128 129 127 129 130 127 128 127 126 128 126 129 128 128 127 
128 129 128 128 127 128 131 129 129 129 128 128 128 129 128 128 128 
127 129 130 133 129 128 129 129 129 128 128 129 129 128 127 128 130 
128 128 128 129 129 128 129 129 127 127 128 127 129 128 130 128 130 
131 129 128 128 128 130 130 131 129 131 129 129 129 131 130 130 127 
129 130 130 128 129 129 128 128 129 126 129 130 130 131 129 127 128 
127 127 128 129 129 128 128 129 129 129 128 129 128 130 126 128 125 
127 126 126 128 127 127 128 128 129 127 128 127 127 127 128 129 128 
128 127 127 128 126 128 127 127 127 127 128 126 126 128 127 126 127 
128 125 126 124 126 124 124 123 125 125 124 125 126 126 127 128 127 
129 127 127 129 126 125 125 125 124 125 126 125 123 124 125 126 126 
125 122 125 124 124 121 119 122 123  86 120 118 119 118 121 120 121 
121 121 121 120 121 120 119 119 120 124 123 123 122 122 121 121 123 
123 122 124 123 124 123 123 124 125 123 124 124 126 123 119 119 120 
122 123 124 124 124 124 125 127 124 125 126 127 126 126 121 124 125 
125 124 123 124 125 124 125 125 126 126 125 127 126 127 126 125 124 
125 126 124 125 125 125 127 126 127 128 128 128 128 128 126 127 126 
128 128 126 127 128 127 127 127 127 127 129 129 129 127 127 127 130 
128 127 128 128 127 126 127 127 126 127 128 128 127 127 128 128 128 
128 131 130 128 128 126 127 128 129 129 128 129 129 129 128 130 130 
128 129 129 131 129 129 128 130 131 129 129 128 131 129 128 129 128 
129 130 130 130 132 129 128 129 130 127 127 128 128 129 128 128 131 
130 130 130 128 129 131 128 128 127 129 129 130 127 128 130 129 129 
130 130 131 129 129 128 130 129 131 130 129 129 129 129 131 131 131 
130 130 130 131 127 130 127 128 130 130 129 131 127 127 127 126 127 
128 128 128 127 130 130 129 128 128 128 129 128 130 127 127 126 127 
129 129 128 130 129 129 128 129 129 130 127 127 129 129 127 126 126 
128 127 127 126 128 128 127 128 126 127 128 128 127 128 129 127 129 
126 130 128 127 124 124 124 126 125 127 128 128 129 127 128 127 125 
125 124 125 124 126 123 122 124 124 125 127 126 125 127 124 125 125 
124 124 125 122 124 125  90 120 118 119 120 119 118 120 121 123 122 
120 120 123 122 121 120 121 122 121 123 121 119 122 122 123 123 122 
121 122 123 124 125 125 126 124 122 126 123 120 119 120 121 123 124 
123 125 125 124 127 125 124 124 125 126 126 126 126 125 126 124 127 
124 125 125 124 124 126 126 124 125 127 127 126 127 125 126 126 126 
126 125 126 129 126 127 126 129 129 127 127 126 128 126 128 128 126 
127 127 129 128 127 128 129 127 128 129 127 129 127 127 126 127 127 
128 128 127 127 129 128 129 129 129 127 127 127 128 129 131 130 130 
127 130 128 127 126 127 126 125 127 127 130 127 130 129 128 129 128 
127 131 130 128 130 126 127 129 129 129 129 127 129 129 132 129 128 
130 131 130 129 129 131 128 128 130 127 129 129 130 130 129 131 130 
128 130 130 128 131 132 132 131 132 129 131 128 129 130 129 129 131 
128 128 129 130 128 130 131 130 129 128 128 128 129 130 131 131 131 
130 128 131 128 128 130 130 127 129 129 128 128 127 128 126 129 130 
127 128 128 127 129 127 127 128 129 131 127 129 130 128 127 127 126 
127 126 126 127 127 128 127 128 127 127 127 128 129 128 128 126 127 
126 127 127 126 129 127 126 126 126 127 128 128 127 129 127 128 125 
125 126 126 125 126 126 127 125 127 127 125 125 125 124 125 126 124 
124 124 123 125 125 126 126 124 126 123 127 127 125 124 124 124 127 
121 122 122  85 120 118 121 118 117 119 120 119 119 119 122 119 122 
121 121 122 121 122 123 122 122 120 122 121 121 121 121 120 123 121 
124 123 120 123 124 122 122 122 122 119 121 119 123 119 123 124 123 
124 125 125 126 124 125 125 125 125 126 127 124 123 123 124 126 123 
124 125 125 126 126 127 126 124 125 125 124 125 124 124 125 126 127 
127 127 126 129 127 127 125 128 126 126 127 126 127 128 127 127 126 
126 127 125 126 126 126 129 128 126 128 127 126 128 128 126 128 128 
125 127 127 127 127 127 128 126 128 128 131 128 127 129 129 129 126 
126 125 127 127 127 127 126 128 127 127 127 127 129 128 129 130 127 
128 130 127 128 126 128 126 127 128 128 129 127 129 128 128 130 128 
129 128 129 129 129 129 127 127 128 125 127 128 127 130 129 127 128 
128 129 129 132 129 129 128 127 128 127 128 126 129 127 126 127 128 
127 130 128 127 126 127 127 129 128 128 127 130 129 127 128 129 129 
130 130 129 127 128 130 127 127 126 127 126 127 126 127 126 127 126 
128 125 126 127 127 129 127 126 129 125 127 126 127 129 127 126 127 
125 127 127 127 129 130 127 128 128 128 126 126 128 128 127 127 129 
127 128 127 126 126 125 125 124 124 127 126 126 127 125 127 125 124 
122 123 126 126 126 126 126 123 125 126 124 124 123 124 126 126 127 
125 122 124 123 124 123 122 124 125 124 125 123 123 124 125 123 122 
 88 124 119 122 120 118 121 121 120 121 121 122 120 121 123 124 121 
123 123 125 121 124 122 124 120 121 121 121 123 124 122 122 121 123 
124 124 124 125 125 125 121 123 123 126 122 124 124 125 124 125 125 
125 123 124 125 125 125 126 127 127 126 127 125 126 123 124 125 125 
125 125 125 124 125 126 125 126 127 128 126 125 127 128 127 126 125 
127 127 126 126 128 126 126 126 128 128 128 127 128 127 127 127 126 
127 129 128 129 126 125 127 128 127 127 129 128 129 129 127 128 126 
125 127 127 128 127 128 127 129 128 128 128 129 130 130 129 128 126 
126 128 129 129 128 129 128 128 129 131 130 130 130 130 128 128 128 
128 126 128 128 128 128 128 128 128 128 130 128 128 130 130 131 131 
131 131 130 129 129 129 127 130 128 129 130 128 128 128 128 129 130 
131 130 129 129 129 127 131 130 129 126 130 128 128 127 129 130 129 
130 130 129 128 127 130 129 129 129 128 128 129 128 128 129 130 130 
128 129 130 127 131 129 130 128 127 128 126 131 131 128 128 127 129 
128 130 128 129 129 131 127 128 128 128 126 127 129 126 126 128 127 
129 126 128 128 129 128 128 126 126 126 127 127 128 128 127 128 127 
126 127 126 127 124 125 126 126 125 126 124 126 126 126 125 126 125 
127 125 128 127 126 124 125 124 124 124 125 125 124 125 124 124 125 
122 124 123 125 125 126 124 125 124 123 123 124 124 124  86 120 119 
121 121 120 120 123 119 121 120 121 121 120 122 121 121 120 121 121 
122 121 122 123 120 120 121 121 123 123 124 124 121 125 124 123 124 
124 125 125 123 126 123 124 125 125 123 126 125 125 124 125 125 127 
126 126 125 125 124 124 125 125 124 124 123 126 125 125 125 126 126 
126 125 127 126 126 126 128 128 127 125 127 127 126 125 125 125 126 
127 129 127 128 126 128 127 126 127 128 127 128 127 126 127 127 126 
128 128 129 129 129 129 129 128 128 128 128 128 127 126 125 125 127 
128 127 128 127 128 128 128 128 130 129 128 127 128 127 129 128 127 
128 128 129 128 129 127 130 130 129 130 131 130 129 128 129 126 127 
128 129 129 128 129 128 128 128 129 130 128 128 128 131 130 129 127 
127 129 128 127 128 129 129 129 129 128 131 128 128 128 129 130 130 
130 130 129 129 130 129 128 128 131 130 131 130 129 130 130 130 130 
129 128 131 130 130 129 130 130 130 129 130 129 129 129 128 130 129 
127 130 130 129 128 129 130 129 129 129 128 127 129 131 128 131 129 
131 130 129 127 129 130 126 129 127 129 129 129 127 127 127 128 130 
128 128 127 128 127 127 128 127 127 127 126 127 129 128 126 127 125 
127 125 126 127 126 127 130 127 128 127 126 125 126 126 128 124 128 
126 126 127 127 126 126 127 127 126 124 127 126 124 126 123 125 124 
126 124 124 124 125 125 123 123 124 123 122  85 119 119 122 122 119 
120 121 118 121 120 121 121 120 120 120 122 123 123 122 124 123 123 
120 121 123 123 123 124 123 124 123 122 124 122 122 121 120 122 123 
122 120 121 122 121 121 123 121 123 125 125 126 126 126 125 124 125 
126 124 123 125 123 125 125 121 124 122 123 124 125 126 127 126 127 
126 125 126 125 127 126 125 126 125 126 126 127 128 126 127 129 126 
128 126 129 128 129 127 128 128 129 128 128 126 126 125 127 129 129 
127 126 129 129 127 128 129 127 128 127 126 126 127 129 126 126 128 
128 129 128 127 129 131 130 129 128 129 128 128 126 125 127 128 129 
128 127 130 131 130 129 131 130 129 129 128 127 127 126 129 128 129 
129 129 130 128 130 131 131 131 129 129 128 130 130 129 125 128 128 
126 128 127 129 128 129 129 130 128 130 130 129 129 127 130 131 129 
128 127 127 127 129 130 128 128 130 128 128 131 128 129 129 128 130 
129 131 129 129 129 126 130 131 129 130 129 129 131 128 128 129 129 
128 129 130 128 128 128 128 129 129 128 128 128 128 130 129 127 129 
130 128 129 128 126 128 128 126 129 128 127 127 128 129 128 129 128 
129 127 127 126 125 125 126 126 127 128 129 127 127 127 128 127 127 
128 127 126 128 128 129 127 127 125 124 125 126 125 127 126 125 127 
127 127 127 125 126 127 125 126 124 122 124 125 124 124 124 124 124 
124 125 125 124 124 124 124 122  87 121 119 121 121 120 120 121 121 
122 121 121 122 123 122 122 125 124 123 123 124 123 124 123 123 124 
122 122 122 122 123 123 125 125 124 125 125 123 125 125 123 122 124 
123 122 122 124 123 125 127 127 126 124 124 124 124 125 127 126 125 
127 126 126 126 123 125 124 124 126 125 127 126 128 128 126 125 126 
125 127 127 126 127 126 126 126 127 127 125 127 129 128 130 129 130 
127 128 127 129 129 131 129 130 128 128 128 128 127 128 128 128 131 
130 129 131 130 128 129 128 127 127 126 128 126 127 129 129 129 130 
128 129 129 129 132 130 129 127 128 128 129 129 130 129 130 129 130 
131 129 130 130 130 130 129 128 129 129 130 128 128 130 133 128 131 
129 131 131 130 132 130 130 129 129 129 129 129 131 129 129 130 128 
129 128 129 131 131 130 131 132 130 131 129 131 131 129 128 129 130 
128 129 130 130 129 130 129 130 131 130 133 130 128 129 129 130 129 
128 130 129 129 130 130 131 131 130 131 128 128 130 128 131 130 129 
129 128 129 128 128 129 128 128 130 128 129 131 129 129 130 128 130 
129 128 127 129 128 128 130 130 130 130 130 130 131 129 129 128 128 
127 128 127 127 128 127 126 128 126 127 127 128 128 128 128 128 126 
128 128 129 127 128 127 125 126 128 127 127 127 125 128 128 128 129 
126 127 125 126 125 124 124 125 125 125 123 122 124 126 125 126 126 
126 125 125 126 125  86 121 118 118 118 120 121 121 118 121 121 120 
120 122 120 122 124 125 123 120 121 122 124 122 122 122 120 121 120 
123 123 124 122 123 123 124 125 124 125 124 122 125 124 123 125 125 
121 124 125 125 125 124 124 124 125 125 124 126 123 124 123 125 123 
123 124 126 125 126 127 125 125 124 124 127 125 127 127 125 126 126 
125 128 127 127 126 127 127 127 127 129 130 129 129 131 128 128 127 
129 129 129 127 127 128 128 126 127 126 128 129 129 131 129 129 131 
130 128 128 127 128 128 126 127 127 129 130 129 131 132 130 131 129 
127 131 129 130 128 129 129 129 128 129 127 129 129 128 131 128 130 
128 130 130 128 130 130 131 129 130 131 131 130 128 130 130 130 130 
130 129 130 132 130 129 131 128 128 128 129 128 129 130 129 129 131 
130 132 132 132 130 129 130 129 129 127 130 129 129 131 129 129 128 
130 129 132 128 129 131 130 129 130 131 130 130 129 128 126 130 132 
128 128 127 127 128 129 130 128 127 128 126 128 128 128 126 127 128 
127 130 131 129 128 131 128 128 129 129 130 130 127 129 131 128 129 
128 128 129 129 127 130 130 129 129 129 128 128 127 128 127 127 126 
126 128 128 128 131 127 127 125 127 126 127 124 126 127 128 129 128 
126 126 127 126 126 127 127 127 125 126 127 127 126 128 127 126 126 
126 127 126 125 126 123 125 123 122 123 124 124 125 124 125 125 124 
125 123  85 122 117 120 119 118 121 119 119 120 122 121 122 122 120 
122 124 124 124 126 123 124 119 120 121 121 122 124 123 124 122 120 
123 123 124 124 124 125 125 126 125 125 124 125 124 125 123 124 123 
124 123 124 125 125 125 125 126 126 124 125 124 126 126 127 125 127 
125 126 126 125 126 125 124 128 127 127 127 126 126 126 128 128 127 
127 126 127 126 126 125 126 128 128 129 132 129 129 129 130 128 128 
129 129 129 128 127 129 127 128 129 128 130 129 129 130 129 129 128 
128 127 128 127 128 129 130 129 128 129 130 128 131 130 130 131 128 
129 129 128 128 128 129 130 129 129 129 128 131 130 131 129 130 130 
128 129 130 130 129 129 132 129 129 129 132 129 131 131 130 130 130 
126 128 130 129 128 129 128 128 128 130 131 132 131 130 131 131 127 
129 129 129 130 130 130 128 131 133 130 132 129 133 129 129 129 130 
128 132 131 130 129 130 129 129 130 131 128 128 128 130 130 130 128 
129 128 129 131 131 132 131 131 131 130 131 128 129 127 129 129 131 
130 129 129 129 126 128 128 127 128 128 130 130 127 128 127 128 127 
129 131 128 128 127 127 129 127 129 127 128 128 128 128 128 128 128 
126 126 129 129 127 128 127 129 127 128 128 128 128 128 128 128 129 
127 126 127 126 127 125 127 126 126 126 128 127 127 128 126 126 125 
125 127 124 127 126 126 126 125 124 126 125 125 126 125 126 124  85 
119 116 120 120 118 120 121 120 119 121 119 121 120 119 121 122 121 
123 121 122 122 120 121 121 119 122 121 120 121 121 121 121 121 123 
123 124 125 122 123 126 125 125 124 124 124 123 125 123 125 126 125 
123 123 124 126 123 124 125 125 124 125 123 124 124 125 123 125 125 
125 127 124 124 129 128 126 127 125 126 126 126 126 126 126 125 127 
127 128 129 127 126 127 128 130 129 128 128 128 126 127 130 130 130 
129 128 130 126 128 129 128 131 130 131 130 128 129 128 129 129 129 
128 129 129 129 129 130 131 129 127 131 129 130 129 128 127 129 128 
129 128 128 127 128 129 128 130 129 130 130 131 131 130 128 129 129 
129 130 129 129 128 132 131 131 128 129 130 130 128 130 128 128 129 
125 129 130 128 128 127 127 129 129 129 128 127 129 128 130 129 130 
130 131 130 127 130 130 129 130 130 129 128 129 127 128 128 128 130 
130 128 129 128 129 129 130 127 129 127 128 128 128 129 130 129 129 
128 128 129 130 129 130 130 130 129 127 129 131 128 129 129 130 126 
128 128 128 129 129 129 128 127 128 128 127 129 128 128 129 128 128 
127 127 128 129 127 130 127 129 127 127 129 128 127 128 128 127 127 
128 126 125 126 127 126 127 127 128 127 126 128 127 128 128 127 126 
126 125 124 126 125 126 126 127 123 127 126 126 125 127 123 126 125 
125 125 123 125 123 123 126 124 123 123 123 126 125  81 119 119 118 
120 118 120 120 119 119 119 121 117 118 119 119 119 122 121 121 121 
121 122 122 119 121 122 121 119 120 119 120 122 121 123 122 124 123 
124 124 122 123 123 123 123 122 121 123 123 122 123 122 122 123 123 
124 125 125 125 125 125 125 124 126 124 124 123 124 123 122 123 124 
124 128 127 126 124 126 124 125 124 125 126 127 126 127 126 126 125 
124 125 126 128 126 129 127 124 128 126 127 128 127 129 127 127 128 
128 127 130 128 130 128 128 129 126 128 127 127 128 127 127 126 125 
128 128 127 127 127 129 128 128 128 128 127 128 127 127 128 127 127 
130 129 129 130 126 129 127 128 129 130 130 126 128 129 129 127 130 
130 130 128 129 128 129 127 127 127 126 129 127 125 125 126 127 130 
127 129 129 128 126 128 127 129 128 129 129 125 128 131 130 128 131 
127 129 129 128 129 128 127 127 130 131 130 130 130 130 130 129 130 
128 127 126 127 128 128 129 129 129 129 127 127 127 126 128 128 128 
129 130 130 129 129 129 127 129 127 128 128 126 129 127 127 129 128 
128 127 127 128 129 129 129 128 129 127 127 126 125 127 127 125 129 
128 127 128 130 128 127 126 127 127 128 126 126 127 125 125 126 126 
127 128 128 127 128 126 126 125 127 127 125 127 125 125 125 127 126 
126 124 126 125 123 125 125 126 123 125 123 124 123 123 123 125 125 
124 124 122 124 126 124 125 123 124 122  87 123 119 120 121 120 120 
121 121 121 119 120 120 121 121 120 121 123 123 124 123 121 122 121 
121 122 124 124 122 123 123 122 121 122 124 126 125 125 123 123 122 
124 124 123 124 124 123 122 121 122 124 124 124 124 124 125 124 126 
126 125 126 128 125 125 125 127 124 126 125 125 126 126 124 127 127 
125 125 127 126 125 124 126 126 126 126 126 126 127 126 126 126 125 
126 128 128 128 128 129 127 129 128 127 128 128 128 130 129 130 128 
128 128 127 126 129 127 129 128 128 128 126 126 128 129 130 130 128 
129 129 128 128 128 129 127 131 127 128 127 128 129 130 131 129 130 
131 127 131 130 130 130 127 127 128 126 129 130 131 132 129 130 128 
130 131 127 130 130 132 131 130 128 134 137 137 134 129 128 126 126 
129 128 131 129 132 131 128 125 131 130 131 130 131 131 132 129 131 
130 129 129 129 128 127 130 130 130 130 131 132 131 132 130 130 130 
131 131 130 130 128 128 129 128 129 130 129 130 129 132 132 131 130 
129 128 129 128 127 129 129 128 128 131 128 129 131 132 129 131 130 
130 129 127 126 130 128 128 129 126 128 125 126 127 127 127 130 130 
128 130 127 128 128 126 127 127 127 127 123 125 128 128 129 129 127 
128 127 125 128 128 127 128 126 126 127 127 126 126 125 127 126 126 
125 127 126 126 126 126 125 125 124 125 124 125 125 125 124 123 124 
125 124 125 124 125 125 124  83 122 118 120 118 120 119 118 119 121 
120 121 119 120 121 121 121 122 121 124 122 122 123 123 120 123 123 
122 124 123 120 120 122 124 123 124 121 124 123 124 121 124 124 123 
124 124 124 124 122 123 124 125 125 126 125 126 126 125 125 124 123 
125 127 125 125 127 124 126 126 126 126 125 126 128 128 128 126 125 
126 127 126 128 127 127 127 125 126 126 125 129 127 127 128 129 129 
128 127 128 129 129 129 129 129 129 128 129 129 130 128 128 128 128 
127 130 128 129 128 128 129 128 129 130 129 127 129 129 129 128 128 
131 129 132 130 132 131 130 127 129 131 131 130 130 130 128 129 131 
132 132 129 130 131 129 129 130 129 129 129 128 129 130 129 130 127 
128 128 128 134 136 133 123 101  82  60  47  46  45  46  51  61  79 
103 118 123 129 128 131 130 131 133 130 129 129 129 132 130 129 129 
130 130 129 129 129 130 130 129 129 129 128 131 133 128 131 130 130 
132 128 127 128 127 128 129 129 129 128 131 131 129 129 129 129 129 
128 129 130 129 128 130 130 129 130 130 130 130 131 129 131 130 129 
127 128 129 127 127 128 128 128 130 129 129 128 128 129 128 126 128 
130 130 127 127 128 128 129 128 128 128 128 128 127 127 128 128 128 
128 127 127 126 125 127 125 128 128 128 127 128 127 127 126 125 126 
125 126 125 127 127 126 127 125 125 125 124 125 125 125 124 123 126 
124 125 124 124  83 122 119 121 120 123 122 120 120 122 121 121 120 
121 121 122 120 122 124 123 124 120 122 122 119 122 123 122 121 122 
122 123 122 123 123 122 121 123 123 124 121 124 122 124 125 123 124 
124 123 124 122 123 124 124 125 125 125 124 123 122 124 122 125 125 
125 125 123 125 126 124 125 124 124 127 129 128 126 125 126 125 124 
128 126 127 127 126 127 126 124 126 126 125 126 128 127 127 127 128 
129 128 127 128 128 127 130 131 128 129 126 128 126 127 128 129 128 
128 128 127 129 129 129 131 129 127 128 128 129 130 128 130 131 131 
131 132 129 130 130 128 129 131 129 128 129 128 129 128 128 128 130 
130 128 129 131 130 129 129 128 130 128 129 127 131 128 131 130 132 
130 118  78  51  41  39  42  47  47  48  51  52  53  54  52  55  84 
112 121 129 129 131 129 130 129 128 127 129 131 131 127 126 127 130 
130 130 131 130 129 130 131 131 129 131 131 132 128 129 129 130 129 
130 128 128 129 129 130 129 130 131 130 129 128 128 129 130 127 127 
127 129 128 127 127 127 128 130 132 131 130 131 128 131 127 130 127 
129 128 125 129 128 129 128 128 128 130 129 129 130 129 129 128 128 
128 129 128 129 128 128 126 126 126 125 124 125 126 125 126 126 125 
126 127 127 125 128 127 127 124 125 125 126 124 127 127 129 124 128 
127 125 126 126 125 125 125 125 125 124 123 122 123 125 125 125 127 
125  84 120 117 120 122 122 123 121 122 123 122 123 123 123 123 123 
121 123 121 122 124 124 121 120 122 124 124 124 123 123 122 122 123 
123 123 122 123 124 125 125 122 124 123 125 126 124 124 124 124 125 
125 124 124 124 125 126 125 125 126 127 127 126 126 125 128 129 127 
127 127 125 127 127 126 126 125 128 127 126 126 126 125 128 127 129 
128 127 126 126 128 127 128 128 127 128 129 129 130 129 130 131 130 
130 128 130 128 128 127 128 128 130 129 130 127 129 130 130 130 129 
130 130 130 131 131 132 132 130 128 130 130 131 130 133 132 133 130 
132 131 130 130 130 128 129 130 128 129 133 131 130 128 134 130 130 
131 132 130 131 131 132 131 129 131 129 129 132 138 129  92  50  38 
 40  51  68  75  86  87  82  74  71  66  60  55  56  54  57  90 114 
128 131 128 129 130 129 129 131 130 130 129 129 131 130 132 131 132 
131 129 129 130 129 132 131 129 130 131 132 130 128 129 130 130 130 
131 130 130 130 130 131 130 130 128 129 130 130 131 131 129 131 130 
130 130 128 128 130 130 132 131 130 130 127 129 129 129 130 128 128 
127 129 127 131 130 129 131 131 129 130 130 129 126 129 129 129 128 
128 127 128 128 128 129 127 127 129 129 128 128 129 129 129 129 128 
127 128 128 128 127 127 127 128 127 127 128 128 130 126 127 129 127 
126 125 125 126 125 124 123 124 124 127 125 125 124 125 122  82 120 
119 121 121 119 121 119 121 121 121 122 122 122 121 122 122 124 123 
123 122 121 120 122 120 123 125 124 124 124 123 123 121 121 121 122 
123 125 123 123 122 123 123 124 123 123 124 124 124 124 124 123 123 
123 124 124 125 125 125 127 124 126 126 124 124 127 126 126 125 125 
126 125 126 128 126 127 126 127 127 127 127 129 127 129 128 129 129 
128 125 126 124 128 126 127 128 128 129 129 130 131 130 131 130 131 
128 127 128 127 128 127 128 128 127 129 129 129 129 129 130 129 128 
129 129 129 129 129 126 127 132 133 130 132 131 129 131 131 131 128 
129 130 129 127 128 130 129 129 131 130 128 131 130 129 129 130 129 
128 128 130 128 128 131 133 133 133 115  69  36  41  52  73  91  93 
 78  69  68  71  65  69  73  75  69  62  56  56  57  83 110 125 130 
129 131 129 132 129 128 131 132 130 131 132 128 127 128 129 131 131 
131 129 130 133 129 130 131 129 131 130 129 130 129 130 132 130 129 
129 130 131 130 130 130 131 130 129 128 129 127 128 128 128 128 130 
129 131 129 129 132 130 128 128 128 129 129 130 128 128 127 128 129 
128 129 130 130 129 130 130 129 129 128 130 128 128 129 129 126 127 
126 127 127 127 127 128 128 129 128 128 129 129 126 126 124 126 125 
126 125 125 125 127 125 127 126 127 126 128 125 126 128 128 127 125 
125 124 125 125 122 123 124 123 124 124 125 123  80 122 121 122 120 
120 124 123 122 122 123 123 121 121 120 120 121 123 123 125 123 124 
122 124 126 124 126 125 122 125 125 123 122 123 124 125 123 126 124 
125 123 124 125 125 123 123 124 123 123 123 122 122 123 124 124 125 
124 126 124 124 122 124 122 125 123 125 126 126 127 128 128 127 126 
127 126 127 127 126 126 129 127 128 127 128 126 127 127 127 126 125 
126 128 127 129 128 129 127 129 132 131 130 131 130 130 129 129 127 
130 126 129 127 129 129 129 128 129 129 130 129 130 129 131 133 133 
132 134 133 134 133 132 132 131 131 131 130 131 129 129 130 129 129 
129 129 129 129 132 131 129 130 132 131 131 129 129 130 128 129 131 
128 130 130 132 130 111  55  35  44  59  81  86  76  69  58  54  56 
 61  67  57  63  70  74  75  65  56  57  58  72 106 125 129 130 131 
129 131 131 129 128 130 132 132 131 129 131 130 129 130 131 129 130 
130 131 129 131 131 129 128 130 131 129 130 131 131 129 129 131 132 
130 130 131 131 130 129 126 129 130 130 128 127 127 130 130 130 131 
129 129 130 128 129 128 129 129 128 129 127 129 129 128 129 129 128 
128 128 130 129 128 129 130 130 128 127 129 128 127 128 127 128 129 
128 126 127 129 128 128 130 129 130 130 129 127 129 126 126 125 125 
125 127 127 126 129 129 128 126 126 126 125 126 127 126 125 125 125 
127 124 125 124 124 126 126 124 123  81 122 118 120 120 120 122 120 
120 120 120 120 120 122 123 122 125 124 126 125 124 123 124 124 124 
124 125 124 123 124 123 122 122 123 124 125 124 126 124 124 123 122 
123 125 125 125 124 123 122 122 123 123 122 123 121 123 122 122 124 
125 126 126 123 124 127 126 126 124 125 123 123 123 126 127 127 127 
128 127 127 129 126 126 126 127 126 127 128 126 126 127 126 125 128 
127 127 127 128 128 128 128 127 129 128 127 130 129 127 128 126 128 
125 127 129 128 127 131 128 128 127 129 130 130 133 136 138 137 133 
131 129 131 131 133 131 132 132 130 131 130 129 128 130 131 128 129 
129 128 131 130 131 130 131 130 130 131 129 128 130 130 129 130 129 
131 112  59  32  48  62  81  66  59  55  56  59  61  57  63  62  56 
 62  66  65  71  68  67  60  57  58  79 111 125 129 128 130 129 129 
131 131 129 129 130 129 128 131 130 129 129 130 128 131 132 132 128 
130 130 129 129 129 131 128 130 130 131 129 129 126 129 130 132 131 
131 130 129 129 129 129 128 128 129 130 127 127 130 129 130 129 130 
129 132 128 129 129 129 131 127 129 129 128 129 128 130 130 129 131 
129 129 129 129 129 129 127 129 127 127 129 129 129 129 128 126 127 
128 130 129 129 129 129 128 128 126 129 126 127 127 127 127 126 125 
128 127 127 127 128 125 126 127 126 126 125 125 126 124 125 125 126 
125 125 125 123 123 125  80 121 117 120 119 120 117 121 118 121 121 
119 119 120 120 121 124 121 124 124 122 123 121 122 124 121 122 120 
122 122 122 124 123 123 123 124 119 121 121 123 122 125 121 122 123 
124 122 123 124 121 120 122 122 121 122 122 123 122 122 121 124 123 
122 126 125 126 124 125 126 125 123 126 127 127 127 128 127 128 125 
126 127 126 127 127 126 127 125 126 126 126 126 126 127 124 127 127 
126 128 129 126 129 126 128 128 128 127 128 129 125 125 127 128 126 
124 126 128 128 125 129 130 134 134 134 122  98  71  50  50  45  43 
 50  65  84 100 113 123 130 129 127 129 128 127 127 127 130 128 128 
127 129 129 129 129 127 128 130 129 129 129 127 130 126 117  68  41 
 49  59  69  71  59  53  56  49  56  64  59  67  74  69  72  69  62 
 62  61  61  61  54  60  57  81 116 123 129 128 129 129 130 127 129 
129 128 128 128 131 133 127 127 130 130 131 130 129 128 128 132 130 
131 130 129 128 130 130 129 128 129 131 130 131 131 129 130 130 128 
129 130 129 128 130 126 127 128 128 128 127 128 128 127 128 129 128 
129 127 126 127 126 126 127 128 126 129 126 129 127 129 130 130 130 
127 129 125 126 126 126 128 127 127 126 128 127 127 127 127 127 128 
127 127 127 127 127 126 128 127 125 127 127 124 125 127 125 128 127 
128 128 125 123 123 124 125 125 124 124 124 124 124 124 124 122 125 
124 124 122  84 121 119 121 122 124 123 121 120 122 122 120 121 122 
118 120 123 124 124 124 124 124 124 121 122 124 125 122 121 124 123 
123 123 124 121 120 118 121 122 123 123 125 122 122 124 126 122 122 
123 125 126 124 122 124 124 123 122 127 126 127 128 127 127 125 125 
128 129 127 126 126 126 126 124 126 126 126 125 127 126 128 127 128 
128 127 125 127 126 127 126 128 126 127 128 127 128 127 128 129 129 
131 128 129 130 130 127 127 127 128 127 128 129 128 129 134 129 129 
129 130 130 138 128 112  71  47  50  62  83  91  94  97  94  86  68 
 58  63  81  98 122 128 129 129 132 131 130 129 129 129 129 130 130 
130 130 128 133 130 131 128 130 130 129 124  97  49  44  57  65  71 
 73  56  54  61  59  66  77  83  82  80  76  68  72  65  70  67  63 
 57  64  58  58  69  98 121 128 129 130 131 132 130 131 131 130 130 
132 130 131 131 132 130 130 130 132 131 131 129 129 130 130 129 130 
131 129 129 130 131 132 130 131 129 131 130 132 130 127 130 132 130 
129 132 130 128 126 128 129 129 130 129 128 129 129 130 130 129 129 
129 127 126 126 127 129 128 127 130 129 127 130 130 131 131 131 129 
128 128 127 126 127 127 128 129 127 126 127 128 129 128 128 127 127 
127 127 126 128 126 126 126 127 126 128 127 128 128 128 123 126 125 
127 124 126 125 125 125 125 125 126 120 122 124 124 124 123 123 123 
 81 120 118 120 120 122 122 122 121 121 120 123 123 121 121 121 120 
121 122 120 122 124 123 122 122 123 123 123 123 123 122 124 121 123 
122 121 121 122 122 123 123 126 124 123 124 123 124 123 123 123 121 
122 123 124 124 125 124 125 124 124 126 123 126 128 124 126 126 126 
126 127 126 124 126 128 127 127 128 129 127 127 128 129 128 127 126 
128 127 127 127 128 127 127 127 127 128 127 127 131 129 129 129 131 
130 129 128 129 130 130 129 130 129 127 129 133 130 129 131 134 134 
115  74  43  62  83  96 111 117 112 115 114 109 106  96  88  81  66 
 65  81 108 122 128 128 130 128 127 129 129 128 129 130 130 129 128 
130 130 130 129 130 131 130 109  66  46  55  63  63  69  63  58  59 
 61  58  63  64  72  74  70  71  66  69  69  65  64  59  54  57  60 
 59  60  83 113 126 128 129 129 131 129 129 129 129 128 130 129 130 
132 130 128 131 130 130 133 130 131 128 129 129 129 131 132 129 130 
129 131 130 131 133 130 133 129 130 131 131 128 129 130 130 128 129 
129 129 128 130 129 129 127 127 129 128 130 130 129 129 129 127 127 
129 128 128 129 131 127 128 130 130 131 130 131 130 130 128 130 130 
127 127 128 127 128 127 127 129 129 130 128 129 127 128 128 128 127 
128 127 128 126 125 126 127 128 127 126 125 127 128 128 126 124 126 
126 126 126 126 124 124 125 126 125 125 124 124 125 124  84 120 121 
122 122 123 123 120 123 123 119 122 122 119 121 123 121 121 122 121 
122 123 122 125 122 123 123 122 124 122 124 124 122 123 123 123 124 
123 122 123 122 123 122 122 124 123 124 122 122 124 125 124 122 124 
125 124 124 122 125 124 123 125 127 124 123 125 127 129 127 125 125 
126 123 125 126 127 128 128 127 127 126 127 127 128 126 126 126 127 
126 127 127 127 126 127 128 127 128 131 130 130 130 127 129 130 128 
128 129 129 129 129 128 129 130 128 131 131 133 127  99  55  58  90 
104 113 116 128 115  87 103 132 113 105 103  99  96  89  80  73  79 
 98 116 127 128 129 129 128 127 129 131 128 128 131 127 128 131 130 
131 129 132 127  88  49  52  58  57  63  70  73  73  66  65  71  78 
 82  98  91  74  68  67  64  68  66  63  57  52  51  59  60  63  67 
 99 117 125 128 129 131 130 131 131 130 129 130 132 130 130 130 130 
128 129 131 131 131 132 130 130 128 127 129 131 130 129 129 130 130 
129 130 128 131 132 130 130 129 130 129 130 132 130 130 128 130 129 
130 128 129 128 128 129 127 128 130 129 129 130 129 128 129 128 129 
128 129 128 127 130 130 130 129 128 128 130 128 128 129 127 127 125 
129 127 127 129 128 128 130 128 131 128 128 128 127 127 128 128 129 
128 126 128 126 125 125 126 125 127 125 127 125 124 125 123 124 126 
126 124 124 125 125 124 123 123 122 124 121  84 122 119 123 121 123 
121 121 121 120 121 123 122 123 124 122 120 122 121 123 124 122 122 
123 124 124 124 123 126 123 124 124 124 124 123 123 123 122 124 125 
124 124 123 123 126 124 126 124 123 123 124 124 121 122 123 125 126 
126 126 131 127 126 126 128 128 129 128 128 127 126 127 127 126 127 
127 129 128 127 127 129 128 127 128 130 127 126 128 130 127 128 127 
128 129 129 131 130 131 133 130 131 129 132 133 130 129 129 129 130 
128 130 128 130 132 129 129 132 129  98  58  71  97 100 105 113 124 
138 114  85 108 125 110 103  99  99  97  93  92  84  73  82 100 117 
124 130 129 130 130 129 130 129 129 130 132 131 133 130 129 132 130 
119  74  55  60  58  58  57  60  65  64  62  66  70  76  88 100  84 
 74  71  63  57  60  63  59  56  50  48  55  62  63  65  84 112 124 
129 130 131 129 131 132 131 129 128 130 133 128 128 130 131 131 132 
131 129 131 130 131 129 129 131 131 131 130 132 131 132 131 132 129 
131 133 129 131 130 131 129 129 129 129 130 127 129 130 131 130 131 
131 131 131 129 130 132 130 130 130 130 130 128 128 129 129 129 129 
128 131 130 129 130 129 129 130 129 128 128 127 126 127 127 127 127 
127 127 127 129 128 131 130 129 129 128 127 128 128 128 128 127 129 
127 126 128 126 128 127 126 127 128 127 128 126 125 127 127 127 129 
123 124 125 126 124 123 125 122  85 123 119 119 119 119 118 123 122 
123 122 122 123 123 122 121 120 122 122 124 123 124 123 123 123 124 
124 125 125 122 123 124 123 124 121 122 124 125 125 124 121 123 125 
124 124 122 123 124 123 122 123 123 121 125 127 128 124 118 111 107 
102 104 108 117 123 127 126 125 126 126 127 127 127 128 125 127 126 
125 126 127 128 128 126 128 125 125 127 127 129 128 126 127 127 127 
129 130 129 129 130 131 131 130 131 131 129 130 129 128 128 130 128 
128 130 132 130 124  99  61  74  98  93  94  92 112 121 123 103 101 
116 125 107 106 110 100  97  92  90  91  81  71  79 103 119 127 130 
130 129 129 130 129 128 130 130 134 131 134 131 132 128 103  57  54 
 59  57  59  54  58  56  58  57  55  58  58  50  45  45  50  58  61 
 57  54  54  50  49  47  48  53  58  61  63  78 103 122 128 128 128 
129 131 132 130 128 130 130 130 127 131 129 131 131 132 130 128 128 
130 129 129 129 131 130 130 129 132 131 131 131 132 129 129 130 129 
130 129 127 128 128 126 129 129 127 128 128 130 129 130 129 128 130 
130 131 132 129 128 128 128 129 127 127 127 128 130 129 129 129 127 
126 130 129 128 127 127 128 128 126 131 126 129 129 128 128 129 126 
127 127 129 128 126 127 127 126 128 128 128 126 127 128 128 126 125 
123 124 126 126 126 126 126 127 126 125 126 125 126 126 123 124 123 
125 121 123 125 124  83 121 120 124 123 125 123 122 121 122 122 124 
123 121 122 120 123 123 124 125 122 125 124 124 121 124 124 124 123 
123 124 123 122 124 121 122 124 125 124 123 123 125 127 126 126 126 
126 127 124 125 126 127 129 124 102  81  50  33  28  27  29  31  33 
 35  48  73  97 115 124 124 123 124 125 127 125 127 128 127 128 127 
129 130 127 127 127 128 128 127 129 129 127 128 127 128 128 129 127 
127 128 125 131 130 128 128 129 129 130 128 128 129 130 130 129 130 
128 112  80  75  93  92  92  90  80 103 120 111 108 116 123 131 119 
112 110 103  97  91  87  88  87  81  75  95 107 120 128 130 130 130 
129 131 130 128 130 131 130 133 130 130 123  91  55  61  58  59  59 
 59  52  56  54  51  57  56  38  43  66  77  68  60  64  64  54  50 
 51  50  49  53  53  54  63  70  82 101 120 127 129 131 131 132 132 
130 131 131 129 130 131 133 129 131 128 132 131 132 133 132 132 130 
128 129 129 131 129 130 129 129 128 131 131 130 130 130 130 130 128 
130 131 130 130 129 128 128 128 130 129 130 129 128 131 132 130 132 
130 131 129 128 130 127 127 130 129 129 130 130 126 128 127 130 128 
129 128 127 129 128 128 130 127 127 129 128 128 129 127 129 128 131 
129 128 127 126 127 129 129 128 128 127 127 127 125 125 128 126 128 
126 128 128 126 126 126 126 126 125 127 126 124 125 123 125 121 122 
124 122  83 121 118 119 121 122 122 122 121 123 124 122 122 123 121 
122 121 123 121 124 121 122 123 121 123 122 124 125 123 123 122 123 
122 124 120 122 123 123 119 120 122 124 125 122 121 123 123 126 125 
126 128 121  96  60  33  28  35  40  44  45  45  42  42  43  40  42 
 41  53  84 109 120 124 124 127 125 126 126 126 127 126 126 130 127 
127 127 127 127 127 126 128 126 128 128 129 128 129 128 127 129 129 
126 128 128 131 130 128 131 127 129 128 129 129 130 128 121  97  76 
 89  90  87  89  91  90 106 113 112 114 120 132 132 114  92 106 110 
101  89  81  81  87  86  75  90 103 106 126 127 128 131 130 132 131 
130 129 131 129 132 127 128 118  84  54  65  57  66  65  58  51  55 
 49  49  59  48  53 100 122 125 114  92  65  75  60  52  49  48  49 
 50  48  49  63  74  84  94 120 128 128 130 129 129 130 130 129 130 
132 129 129 130 128 129 129 130 130 130 132 132 130 131 130 130 131 
132 130 129 128 130 129 129 129 129 131 131 132 130 130 130 128 128 
128 127 128 127 127 128 129 131 130 128 129 129 130 130 128 130 130 
127 129 127 125 126 128 128 128 130 127 128 129 129 126 129 130 127 
130 129 128 129 125 128 126 125 128 126 126 128 127 130 128 129 127 
128 129 128 129 127 129 127 126 126 127 127 127 126 125 127 125 126 
125 125 126 124 124 123 126 126 124 125 123 124 123 123 125 122  84 
122 117 121 121 120 120 119 121 118 121 123 120 120 121 120 120 118 
123 124 122 122 122 123 119 123 119 123 122 121 123 121 123 124 121 
122 124 122 123 124 123 121 123 123 121 122 121 122 122 120 102  65 
 32  29  35  43  43  40  43  44  44  43  44  44  43  42  40  43  43 
 56  85 113 119 122 124 124 126 123 125 124 125 126 127 127 126 125 
125 127 125 127 126 125 126 127 125 127 128 129 129 129 130 130 129 
129 127 128 130 129 129 130 128 128 128 121 102  73  74  85  79  81 
 86  87  96  96 103 119 129 136 139 125  97  91  92 102  92  81  74 
 77  86  84  80  75  84 103 115 126 127 129 128 129 129 129 129 128 
132 130 128 127 116  84  65  67  60  71  65  60  54  58  44  48  62 
 52  89 116 127 127 125 113  82  70  64  48  52  51  49  49  47  48 
 61  70  76  97 113 126 130 130 131 129 129 129 129 129 130 130 129 
129 130 131 128 131 130 131 128 130 129 130 129 129 129 133 129 130 
128 128 130 130 129 130 131 131 131 129 129 129 128 128 126 126 126 
127 127 128 129 129 130 128 129 130 129 128 130 128 128 127 129 128 
127 128 127 127 126 127 130 128 127 128 127 127 128 127 128 128 128 
127 128 127 126 126 127 127 126 126 125 127 126 126 127 125 126 127 
125 127 128 126 127 126 124 125 124 125 126 125 126 126 125 124 126 
125 124 123 125 124 121 122 122 124 124 122 123 123  87 123 119 121 
121 121 123 122 123 122 121 121 120 121 121 121 120 122 124 124 124 
124 122 123 121 125 124 124 121 122 123 124 124 126 124 125 123 122 
122 122 120 126 123 125 127 124 125 126 122  98  51  33  37  46  44 
 43  44  44  46  46  46  48  44  46  44  49  44  44  46  44  55  77 
106 122 124 125 126 127 125 127 126 127 128 127 125 127 127 127 124 
126 126 126 127 127 126 127 129 131 131 130 129 130 130 129 125 128 
129 131 130 129 130 130 129 123  94  80  90 102  97  88  87  90  92 
101 119 133 142 139 128 111  79  81  92  97  89  88  71  79  87  84 
 80  76  83 107 112 127 128 131 129 129 129 128 129 133 132 132 131 
125 114  79  69  74  62  75  69  60  61  65  44  65  71  63 103 122 
127 128 127 128  92  65  61  49  55  53  51  55  50  49  60  71  78 
 91 114 125 127 129 131 130 131 131 128 129 130 131 130 130 132 132 
130 131 129 131 128 129 129 129 129 131 128 132 130 129 131 130 129 
131 130 130 129 131 131 131 128 129 129 129 129 128 128 128 129 129 
129 130 131 130 130 130 129 128 129 127 128 128 128 127 126 131 128 
128 131 129 126 126 129 130 130 130 130 129 128 126 128 128 128 128 
128 129 127 127 126 126 126 128 128 128 128 125 125 128 125 126 126 
125 126 125 128 128 126 127 125 125 127 127 125 127 126 126 124 125 
124 124 124 129 122 124 125 124 125 123  84 120 119 120 120 119 121 
119 121 123 121 122 123 123 123 123 122 120 123 122 126 124 125 123 
121 124 123 124 123 123 124 122 123 126 123 125 124 124 123 123 123 
124 121 124 124 124 128 124  98  47  30  39  46  47  46  47  42  43 
 41  42  42  49  46  43  48  47  47  47  43  43  44  52  74 105 119 
121 126 125 128 127 127 128 129 129 127 126 126 127 128 129 128 126 
127 128 129 128 130 130 130 129 128 130 130 128 128 129 129 129 128 
128 128 129 123 114  88  90  99 105  99  84  88  84  89  96 110 114 
 86  72  87 104 103  93  85 101 100  89  84  77  89  90  80  82  76 
100 111 120 125 128 128 128 130 128 130 131 130 129 129 126 116  90 
 75  77  60  71  68  61  58  66  44  57  70  70 113 123 130 128 131 
126  95  66  69  53  54  54  56  53  48  49  63  72  67  89 115 127 
130 131 130 130 131 130 131 131 129 129 129 131 130 129 129 130 132 
133 131 131 130 132 130 132 129 131 131 129 131 130 129 132 130 129 
129 131 131 131 128 129 129 129 130 128 129 129 130 131 130 131 130 
130 129 129 128 130 131 127 129 130 130 129 130 131 129 129 128 129 
130 128 126 127 127 128 129 128 128 126 128 129 129 128 128 130 129 
126 125 126 126 127 128 128 129 128 127 128 128 128 128 126 127 126 
125 127 127 127 128 127 126 126 123 125 124 125 124 125 124 125 124 
126 124 123 123 124 124 122  82 120 119 121 122 122 120 119 119 121 
120 123 124 122 121 122 120 122 122 124 124 125 123 126 122 122 118 
121 122 121 123 122 121 124 122 123 123 123 122 121 124 121 123 124 
124 126 123 100  51  30  41  47  47  42  43  44  42  45  41  43  43 
 44  44  46  47  49  47  46  48  45  45  44  53  78 105 117 124 124 
125 126 124 125 126 128 126 124 124 125 126 124 126 128 128 128 128 
129 131 130 128 129 129 128 129 128 127 128 129 129 128 127 127 127 
122 110  96  86  76  75  78  69  76  79  84  91 107 100  70  79  87 
101 107  98  85  93  98  90  80  75  75  77  77  80  73 103 115 110 
123 127 128 128 131 130 130 134 132 132 130 127 117  87  77  81  61 
 73  66  63  63  63  47  57  68  66 101 121 126 129 126 123  83  60 
 62  52  54  54  52  50  52  53  65  73  60  85 115 127 129 131 129 
131 132 130 129 130 128 132 131 132 131 129 127 130 130 133 130 128 
130 129 131 131 131 131 131 130 129 131 129 131 131 129 129 129 130 
128 128 128 128 127 129 128 129 129 129 129 129 130 129 129 129 130 
128 128 128 128 129 128 128 130 130 130 128 128 126 127 129 128 127 
127 127 127 128 128 129 129 128 131 128 127 129 129 127 129 126 126 
128 127 128 126 128 127 125 124 125 126 127 125 127 126 125 126 127 
126 126 124 125 124 124 125 124 124 125 124 124 125 125 124 122 124 
125 124 126 123  85 123 120 121 122 122 121 123 123 124 122 124 124 
123 124 123 121 125 125 122 122 121 122 123 125 123 122 123 123 124 
123 124 124 125 124 124 124 123 124 124 124 121 126 126 124 124 107 
 63  33  39  44  45  44  45  42  42  43  44  42  42  45  45  42  44 
 48  48  48  47  45  47  43  44  42  56  83 107 120 127 125 123 125 
127 127 128 128 128 126 126 125 126 127 128 126 129 129 128 129 130 
129 130 130 128 128 128 127 130 131 132 131 127 130 127 121 115  90 
 83  77  71  70  71  79  86  76  79 110 106 105 123  94  90 101 100 
 84  76  83  86  85  76  71  77  77  85  73  98 120 108 123 128 129 
128 130 131 129 130 129 131 129 127 120  96  74  81  60  72  70  65 
 63  64  54  49  58  60  82 114 129 133 131 105  61  49  53  52  57 
 53  51  54  55  54  65  70  61  90 120 127 128 131 130 130 132 133 
131 132 131 134 131 129 130 131 132 132 132 132 132 133 131 130 132 
132 131 130 131 131 129 130 130 131 131 130 132 131 131 130 131 132 
130 129 130 130 131 130 131 130 130 130 131 131 131 131 128 130 129 
129 130 130 129 130 129 131 129 128 130 131 128 128 128 128 128 128 
128 127 128 129 131 129 129 129 128 127 128 130 127 127 129 128 130 
128 129 127 127 127 127 127 128 127 127 126 127 128 127 126 126 126 
127 125 124 126 126 125 127 126 125 126 127 127 125 126 124 122 125 
124  84 123 119 122 122 121 120 122 121 122 122 121 121 121 123 121 
121 122 119 123 121 125 123 121 122 123 124 124 124 124 124 124 123 
123 123 123 123 122 124 123 122 124 122 122 123 114  71  34  35  45 
 45  42  44  44  40  42  43  42  43  46  46  42  42  44  42  47  46 
 45  46  45  47  46  41  46  64  94 114 121 125 125 127 128 127 128 
127 127 127 128 127 127 127 128 125 127 127 126 127 129 127 128 129 
128 128 126 127 128 129 127 129 127 128 121 122 118  92  80  66  68 
 74  78  69  79  78  77 105  98 107 139 124  95 100 110  90  74  71 
 74  79  79  70  72  72  80  81  88 123 110 119 126 128 128 130 130 
130 133 130 132 131 129 122  94  74  78  63  70  72  64  63  64  57 
 48  56  59  55  73 103 113  93  55  37  56  58  55  53  55  55  58 
 55  57  65  56  57  96 123 129 129 132 132 131 132 132 128 131 130 
132 131 131 132 131 130 133 130 132 132 132 133 130 131 133 130 130 
130 130 131 130 130 130 130 131 130 130 131 131 129 130 129 128 129 
129 127 126 128 128 129 128 128 128 129 128 129 128 127 130 130 130 
128 129 129 129 128 128 127 129 129 129 127 127 128 128 130 128 128 
129 128 130 130 128 130 129 127 129 127 127 127 126 128 127 128 128 
129 130 129 128 128 127 128 127 125 127 125 127 125 126 125 124 124 
127 126 125 125 126 126 126 125 123 123 125 123 126 124 123  82 122 
120 123 124 122 122 123 123 125 123 121 122 123 124 124 121 124 124 
123 124 121 122 123 124 124 123 124 123 123 125 125 125 126 124 125 
124 124 124 123 121 122 122 125 120  97  46  32  41  46  46  44  45 
 42  44  43  40  46  43  44  45  43  45  48  45  46  44  43  43  47 
 46  46  44  45  53  73 102 119 124 125 126 127 127 128 127 126 127 
128 127 128 129 128 128 130 128 126 128 129 126 127 128 128 129 127 
129 129 131 130 131 132 129 118 124 118  86  86  98 108  78  71  71 
 66  67  76  96  94  90  97  98  99  87  84  81  78  69  69  76  82 
 84  83  96  98  78  92 131 112 116 127 130 132 130 130 130 130 132 
132 129 130 123 104  69  76  70  65  71  64  62  60  60  60  54  51 
 47  49  47  46  39  45  54  61  57  53  56  55  51  45  53  56  65 
 57  64 106 120 130 131 131 131 130 132 132 131 133 131 131 131 130 
131 129 129 132 131 133 130 130 131 131 130 130 129 130 129 130 131 
130 131 132 131 130 131 130 130 129 130 131 129 131 132 132 129 129 
129 130 130 130 129 129 131 131 129 131 130 131 130 131 129 128 128 
130 129 129 128 128 128 129 128 128 129 129 130 130 129 129 128 129 
130 129 128 129 128 128 129 129 127 126 127 127 127 129 126 128 129 
128 128 128 128 128 126 128 126 126 125 125 125 124 127 129 127 126 
125 126 126 126 124 124 125 127 124 124 126 122  84 123 120 121 120 
118 120 120 121 124 122 122 124 123 119 122 123 123 120 120 123 125 
125 121 124 122 123 124 124 125 123 124 122 125 123 124 121 123 122 
120 122 122 124 121 111  74  38  45  44  47  41  41  46  47  41  46 
 43  45  45  46  43  44  43  45  46  46  47  48  45  44  43  45  45 
 46  45  60  86 113 120 125 127 128 128 129 128 129 129 128 129 127 
126 127 128 126 128 128 129 129 128 131 129 128 131 129 127 129 128 
128 127 128 128 115 132 136  89  91 108 114  84  64  71  67  67  73 
 71  69  84  94  98  83  70  76  83  87  76  64  66  78  96 106 106 
 85  75  85 125 100 110 125 130 131 129 131 129 132 131 131 130 130 
126 109  77  69  71  61  67  68  60  56  55  56  57  60  65  70  67 
 75  88  83  73  62  61  58  56  53  48  56  55  57  63  47  73 112 
124 131 131 131 133 132 132 131 130 131 129 131 130 127 131 132 129 
131 129 132 132 132 132 133 132 131 133 132 131 132 132 131 128 129 
131 129 132 131 132 128 129 130 127 129 130 131 128 129 129 130 128 
129 128 129 129 130 131 131 131 133 129 128 128 129 129 129 129 128 
130 130 129 129 128 129 129 128 128 130 130 130 130 129 128 128 129 
129 128 129 128 128 126 127 127 128 126 126 127 127 126 127 127 126 
125 126 125 126 126 125 126 124 127 126 128 127 126 126 128 126 127 
126 123 125 127 125 126 123 122 122  81 121 119 120 122 120 121 122 
121 121 120 122 121 121 123 122 121 121 120 120 121 121 122 122 121 
122 122 121 122 123 121 123 122 124 123 123 121 121 122 120 120 119 
123 119  97  50  38  42  43  42  42  42  43  43  42  43  42  43  45 
 45  45  42  41  42  42  41  44  44  43  42  42  43  46  42  41  48 
 74  99 114 120 124 128 129 127 127 125 127 127 126 127 127 126 125 
129 129 128 128 127 129 130 128 129 128 129 129 128 127 129 126 125 
126 110 132 144  86  94  87  94  68  69  95  87  76  88  88  75  69 
 76  88  79  76  80  72  76  84  77  69  67  92  94  72  75  80  96 
123  98 110 125 127 129 129 129 128 131 130 129 131 129 125 118  83 
 60  62  60  58  59  61  57  55  54  54  62  73  82  85 107 111  84 
 61  62  63  61  55  55  58  54  57  59  53  51  88 118 127 132 130 
132 131 132 131 130 129 129 131 130 130 129 128 128 132 133 131 131 
132 132 131 131 131 131 131 129 130 128 130 133 129 128 129 127 129 
130 130 130 128 130 129 128 129 129 128 128 127 126 128 128 129 127 
129 128 128 129 127 128 130 128 130 129 127 128 126 128 128 128 129 
129 127 128 129 129 127 128 129 130 128 126 129 128 127 126 125 127 
125 124 126 125 128 126 127 126 126 129 127 127 126 126 128 126 127 
125 125 126 126 125 126 127 124 125 124 126 123 124 122 123 124 125 
123 125 123 124 122 122  86 122 118 120 122 121 122 123 123 125 123 
123 122 123 123 123 120 121 121 120 121 123 125 123 122 123 124 123 
123 123 123 125 123 124 123 123 121 123 120 122 121 120 122 116  82 
 46  43  44  44  45  42  42  43  43  44  45  42  43  45  48  46  46 
 46  44  42  43  44  44  43  45  43  43  46  46  45  45  61  94 112 
122 122 125 127 126 126 126 127 129 128 129 129 129 127 129 128 127 
130 128 128 130 130 131 129 129 127 129 129 129 125 126 126 110 138 
163  77  69  65  65  63  78  91  80  75  77  81  83  83  76  81  96 
 92  79  71  73  77  86  82  79  71  78  77  83  85  94 122  96 111 
125 130 130 131 130 128 130 129 129 130 130 127 121  98  69  63  63 
 63  59  57  65  62  63  60  63  72  75  80  91  79  62  69  80  73 
 69  64  57  55  63  60  58  53  68 115 124 131 133 129 132 133 134 
132 130 130 132 133 133 131 132 131 130 130 133 132 133 129 130 131 
132 131 132 129 131 130 131 129 130 130 130 132 132 130 132 130 130 
130 130 129 130 130 129 128 130 129 131 132 131 130 130 130 129 127 
130 130 130 129 128 130 129 129 134 130 131 130 128 128 128 129 127 
130 129 129 130 129 129 127 128 130 130 128 129 127 128 126 129 128 
129 128 128 125 127 128 129 125 126 126 127 127 127 127 129 128 126 
126 126 125 122 124 126 124 127 124 126 124 124 121 124 124 125 126 
125 123 122  86 123 121 124 124 123 123 123 122 121 120 123 121 122 
122 122 123 123 123 125 125 123 123 125 125 125 125 125 124 125 124 
125 123 126 123 127 125 124 123 123 122 124 122 113  70  38  41  44 
 44  44  42  44  41  42  43  43  41  44  43  44  43  45  43  45  45 
 44  45  46  43  42  41  44  44  46  46  44  57  84 109 117 125 126 
126 126 127 127 128 130 126 126 128 129 128 128 127 129 130 130 129 
128 130 130 129 126 126 127 126 128 128 127 128 118 137 163  80  70 
 71  68  73  99 112  85  71  74  76  85  85  84  86  89  91  89  80 
 75  77  90  96  89  68  62  67  83  84 107 122  98 118 129 133 131 
132 132 132 131 130 133 131 129 129 126 115  84  62  59  61  60  62 
 63  70  67  68  66  63  69  79  74  58  63  63  57  65  68  61  55 
 52  62  64  53  54  96 122 129 132 133 131 134 134 133 131 131 131 
134 131 130 129 133 133 132 131 131 133 132 132 130 133 132 132 135 
131 133 131 131 130 132 131 130 130 131 130 133 132 131 130 129 128 
130 129 129 129 131 129 131 130 130 129 129 130 132 129 130 129 128 
128 128 131 129 128 129 130 131 127 130 127 127 128 129 128 128 128 
127 129 127 129 129 130 130 127 128 126 127 126 126 127 127 127 126 
128 128 127 128 128 128 129 129 128 128 127 127 126 125 125 126 124 
124 126 127 124 125 124 125 124 123 125 126 126 125 126 125 123 122 
 87 124 119 123 122 123 123 123 124 126 122 122 121 123 121 123 123 
124 124 125 125 123 124 126 122 123 123 123 122 123 123 124 123 123 
123 122 123 123 122 124 123 123 122 108  59  42  48  47  42  41  41 
 42  41  43  41  43  44  44  43  45  43  46  45  44  46  45  46  45 
 43  43  44  44  43  47  42  46  48  75 102 115 123 125 125 126 126 
126 125 125 128 127 127 128 128 128 126 128 127 127 126 127 127 126 
128 128 129 129 127 127 128 129 128 120 119 153  90  72  89  82  91 
110 105  84  77  78  77  84  88 101 123 116 101  99  92  81  73  74 
 98  90  68  72  81  85  82  97 103  94 121 128 131 132 133 131 129 
130 129 129 132 131 131 129 122 104  69  54  60  62  63  64  65  72 
 72  72  71  74  89  85  81  68  56  66  62  58  61  54  58  61  54 
 44  75 113 126 130 131 133 132 134 132 131 131 132 131 131 129 133 
131 131 130 130 132 131 130 132 132 132 133 132 130 132 130 130 130 
129 131 132 131 131 132 131 130 131 132 133 131 131 129 129 129 129 
128 128 131 130 129 130 132 132 130 131 130 130 129 130 130 129 129 
128 128 130 127 130 129 130 129 128 130 130 130 128 128 129 128 128 
128 126 126 126 127 127 127 127 128 129 128 128 128 128 127 128 127 
127 128 127 127 126 125 126 126 127 126 126 126 128 127 127 125 126 
123 124 125 124 124 123 123 124 125 124 125 123 124 125  83 123 121 
123 124 125 125 125 123 125 123 122 123 124 122 124 126 125 123 124 
125 125 125 125 123 124 124 125 126 126 125 123 124 124 124 122 123 
124 123 125 124 125 119 101  47  40  46  44  45  43  43  42  42  43 
 42  44  46  45  46  47  45  46  45  45  48  46  46  45  45  46  45 
 43  43  43  46  43  47  66 100 115 124 127 127 128 127 129 129 127 
128 129 128 128 127 129 127 129 125 129 129 128 128 129 129 128 127 
128 129 131 131 128 127 126 110 147 109  70  90  89  93  87  75  85 
 94  83  88  92  96 104 117 133 112  94  96  89  75  89 102  80  72 
 70  76  79  79 107 103 102 122 127 129 129 128 130 131 129 130 132 
132 131 133 132 128 124  95  66  57  57  60  67  74  69  68  70  69 
 78  86  84  85  66  64  67  56  62  67  64  62  55  42  64 107 125 
130 131 132 133 133 134 134 134 135 135 129 131 131 132 130 130 132 
132 131 132 131 133 131 132 132 132 132 133 130 133 133 133 131 130 
131 131 132 134 134 134 131 129 129 131 131 129 130 129 130 129 129 
131 130 130 132 132 130 129 129 130 130 132 131 129 129 130 129 131 
128 131 129 130 131 132 129 129 128 128 129 130 129 128 129 129 130 
130 129 128 128 130 128 128 129 127 129 127 128 128 127 128 129 128 
129 128 127 126 127 127 127 128 128 128 127 127 125 126 125 125 125 
124 125 125 124 125 126 126 127 127 127 125  84 124 120 121 123 123 
123 122 121 120 121 123 122 122 122 123 125 125 124 124 123 123 123 
123 123 125 125 125 122 122 124 123 122 124 122 123 124 124 123 123 
124 126 118  96  52  43  47  45  44  44  44  43  43  40  42  44  44 
 43  43  43  46  47  45  47  45  44  44  46  45  46  46  46  41  43 
 44  48  44  62  95 115 121 124 125 125 126 128 130 127 125 127 125 
126 125 128 125 127 128 129 128 129 129 127 127 128 127 128 129 128 
128 129 129 126 115 120 112  76  84  84  82  72  73  89  93  88  93 
 98  92  95  98 121 121  99  94  90  86  98  93  80  78  78  81  77 
 83  99  92 109 126 127 126 129 129 131 131 133 131 131 131 132 131 
130 129 126 119  92  63  56  58  66  70  71  70  69  74  78  84  82 
 85  92  64  53  66  72  64  61  50  49  58 101 123 127 129 131 131 
132 132 132 133 134 134 133 132 131 131 132 132 130 130 130 130 133 
131 132 130 131 132 131 131 133 130 133 132 131 130 130 130 132 131 
133 131 132 129 130 128 130 131 129 132 130 132 132 129 129 129 129 
130 130 130 130 128 128 129 129 129 128 129 128 129 127 128 130 126 
128 128 130 128 130 128 129 130 128 129 126 129 130 128 128 127 128 
127 126 125 127 126 130 126 129 127 128 128 129 128 127 128 127 128 
127 127 127 126 127 126 125 125 126 126 125 126 124 124 124 125 126 
124 126 126 124 122 124 124 122  81 121 119 121 121 121 123 122 121 
122 123 121 123 124 122 122 123 126 126 124 122 123 125 123 124 124 
123 124 123 124 126 126 123 123 124 123 122 125 122 125 121 125 118 
 95  48  44  44  42  42  43  45  44  45  42  46  46  45  43  45  44 
 42  44  45  45  43  47  45  44  44  46  45  46  44  43  43  45  45 
 56  93 112 120 123 126 127 127 127 128 126 128 129 127 128 129 131 
128 128 127 129 129 128 131 131 130 131 129 129 130 130 129 130 130 
131 118 113 118  95  79  78  79  81  80  84  90  89  89 101 111  97 
 95 101 104 111  97  88  89  89  84  79  81  79  82  80  87  90  95 
118 129 131 130 130 128 129 130 130 130 131 131 131 132 133 129 131 
124 119  94  69  61  58  63  70  71  72  74  75  76  80  87  79  57 
 71  73  67  55  46  38  61 106 124 132 129 129 132 130 132 132 133 
131 133 133 133 131 133 131 131 131 133 133 131 131 134 130 133 128 
130 128 130 130 132 133 133 132 131 133 134 134 133 130 130 130 131 
130 130 130 131 131 131 131 131 132 132 130 130 130 131 129 129 129 
132 130 130 130 130 131 130 130 129 131 133 131 132 131 129 129 129 
128 129 130 131 131 130 129 130 128 130 129 130 130 132 130 130 129 
131 129 128 129 129 127 129 128 130 129 129 129 127 128 128 127 129 
129 127 126 127 128 126 126 125 126 126 126 126 125 126 125 125 126 
125 125 125 124 122  89 124 121 122 121 121 123 121 121 121 124 125 
124 124 123 123 125 124 124 125 125 124 124 123 121 123 122 123 122 
122 124 125 124 124 124 124 123 124 124 124 125 122 117  90  52  47 
 44  46  43  41  45  42  42  42  44  44  45  45  44  43  42  44  43 
 42  43  44  41  40  44  44  44  45  44  44  44  48  46  61  93 115 
125 125 126 127 126 125 128 127 127 128 127 128 129 129 127 129 127 
126 128 127 129 127 126 128 129 129 130 130 130 130 129 130 125 109 
116 103  79  79  81  87  81  85  79  84  89  97 111 118  95 100 105 
107 105  90  85  88  81  78  83  86  88  83  88  86 103 125 130 133 
133 132 130 131 130 130 131 129 132 130 130 131 131 130 129 128 120 
100  70  62  57  61  61  77  85  84  84  88  85  76  73  64  56  50 
 39  45  79 112 125 129 130 130 133 130 129 131 131 133 131 133 132 
132 132 134 134 133 131 133 132 133 130 131 131 133 132 130 130 133 
130 132 132 131 132 132 133 132 132 133 133 130 132 129 131 132 131 
132 128 129 130 132 130 130 129 129 128 130 128 130 129 129 128 128 
129 128 128 126 130 131 131 129 130 130 129 130 130 128 125 128 127 
129 129 127 128 126 129 130 129 128 129 126 128 128 127 128 127 129 
128 129 127 127 128 128 126 127 129 127 129 128 126 126 127 127 127 
125 127 127 127 125 125 125 123 125 123 125 125 124 124 126 127 124 
125 125  86 120 118 121 123 122 121 122 121 123 124 123 123 123 125 
124 124 124 122 121 123 124 124 123 122 122 125 122 123 123 124 125 
123 124 124 124 124 125 122 123 122 119 116  95  49  45  44  42  41 
 41  43  42  42  43  42  42  44  45  44  43  44  45  43  42  42  40 
 39  40  44  43  42  41  42  42  44  44  46  57  97 111 122 124 125 
124 125 126 127 125 124 127 128 127 126 128 127 127 127 127 129 130 
126 127 127 128 127 128 129 127 127 128 127 127 124 117 106 106  86 
 78  77  89  84  77  81  73  79  90  94 113 120 108  94 105 113 105 
103  88  78  80  90  89  85  90  82  91 119 128 128 129 129 130 128 
130 130 129 129 130 132 131 132 131 126 128 127 128 126 123 112  87 
 62  56  57  59  59  59  60  58  51  51  52  46  37  39  68 101 127 
129 131 131 131 132 131 131 129 129 132 130 130 133 132 132 130 131 
134 132 132 127 130 131 131 129 130 131 130 132 133 133 129 131 129 
129 130 128 129 130 130 132 132 129 130 129 132 131 129 128 130 131 
129 130 131 131 130 129 128 128 128 128 129 128 130 127 129 129 128 
129 129 129 129 129 131 131 127 127 128 128 127 127 127 129 126 126 
127 129 127 127 128 128 127 127 128 127 125 127 126 127 127 127 126 
126 127 128 127 128 128 127 125 126 126 126 126 124 127 124 126 124 
127 124 124 123 122 125 124 124 124 122 124 123 122 124 125 123  87 
122 119 120 121 122 122 122 123 123 123 124 124 125 124 124 122 125 
124 125 123 122 123 125 124 123 123 124 124 126 125 126 125 126 125 
125 124 125 122 124 121 122 117  99  59  50  46  44  43  43  43  45 
 43  44  41  42  43  47  46  44  43  45  45  45  44  43  44  44  45 
 46  45  45  39  45  43  50  45  63  96 113 121 124 126 126 126 127 
127 126 126 127 126 126 127 129 128 127 129 130 129 129 127 130 128 
128 126 128 130 129 130 130 129 129 126 127 110 110  95  80  81  83 
 84  92  93  93  91  89  91 101 128 146 112 108 128 114 109  97  88 
 97 100  98  92  81  86 112 127 131 131 132 132 133 128 130 129 132 
130 130 131 132 131 132 131 134 131 130 131 131 127 123 106  89  66 
 53  50  51  49  50  44  43  43  54  81 107 124 131 127 129 128 130 
129 132 131 133 130 132 132 133 131 134 133 135 134 134 134 132 133 
130 129 128 129 134 132 134 135 133 131 132 131 133 132 132 132 131 
132 132 130 132 131 132 132 133 132 131 131 131 131 133 132 133 130 
131 127 130 132 133 132 132 131 129 129 130 129 129 129 131 129 131 
128 131 130 130 128 128 129 125 124 128 128 130 127 130 129 128 128 
128 128 128 127 127 128 127 127 128 127 127 127 128 126 127 127 128 
128 126 129 128 129 128 125 128 127 127 126 124 126 126 124 125 126 
124 123 127 126 125 124 124 125 126 124 124 124 123  86 122 121 124 
123 123 123 123 125 125 123 124 122 123 123 125 124 125 123 123 122 
123 123 126 125 124 122 125 125 127 124 124 124 125 126 126 123 125 
122 124 123 127 120 107  67  51  49  45  43  44  45  45  44  42  43 
 45  44  46  44  45  44  44  46  48  48  47  45  47  47  46  46  46 
 41  41  45  47  46  67 106 115 124 126 128 128 127 128 126 125 126 
127 123 125 126 128 128 127 129 128 128 129 127 128 129 127 127 130 
130 129 130 129 128 128 127 125 122 106  98  88  84  87  85  85  87 
 92 100  96  93  92 100 115 107 119 136 122 106  94  95  98  98  86 
 79  80 102 125 131 133 132 133 131 130 129 129 129 132 130 132 131 
131 132 135 132 133 133 133 130 132 130 132 130 127 121 117 107 102 
 94  92  97 107 119 129 133 135 134 130 130 131 130 131 130 134 132 
129 132 132 130 133 133 135 133 134 133 132 131 132 130 131 131 130 
132 133 133 133 132 135 134 134 133 132 131 133 132 132 130 130 133 
133 131 131 131 132 131 132 131 131 132 132 130 133 134 132 130 130 
132 132 130 131 133 129 129 131 131 130 129 132 129 130 129 128 130 
130 130 130 129 131 128 129 129 130 127 127 129 130 128 128 128 128 
128 127 129 128 128 127 126 127 128 126 126 128 126 127 128 126 130 
128 129 129 127 128 124 125 126 127 125 125 124 125 125 126 125 126 
126 125 126 126 125 125 124 123 123 122  88 122 119 123 123 122 121 
121 121 124 125 125 122 122 121 124 123 125 121 123 127 124 125 124 
122 124 124 125 126 126 126 126 124 125 124 125 121 123 122 124 123 
123 119 112  79  55  55  46  45  45  43  45  46  45  43  43  46  47 
 44  44  45  45  46  44  44  43  42  46  47  46  46  43  42  44  50 
 52  46  79 107 118 124 125 126 126 127 127 126 125 126 127 125 128 
128 128 127 127 128 129 127 126 130 127 126 128 127 130 128 128 130 
128 128 129 128 131 125 118  96  86  81  80  83  88  90  95 104 113 
114  99  88  90  94 123 128 112 104 101 100  99  89  75  74  93 118 
128 134 135 131 134 133 131 131 132 130 131 130 131 131 134 133 129 
130 131 130 132 131 133 128 129 128 129 131 133 129 131 131 133 132 
135 134 133 128 128 128 131 131 130 129 131 132 131 129 131 129 131 
131 133 132 132 130 131 130 133 132 132 133 131 129 130 132 132 132 
130 130 132 132 133 132 132 131 133 132 132 131 130 131 130 132 130 
131 131 131 132 130 129 131 132 131 129 129 132 132 132 131 132 133 
131 133 133 130 130 131 132 130 133 131 128 128 130 130 130 129 129 
130 130 129 130 128 128 129 127 128 127 126 128 128 130 129 129 128 
127 124 127 128 129 127 128 127 127 126 128 129 127 129 126 127 128 
126 127 125 126 125 125 125 125 126 126 124 124 125 125 126 124 125 
126 122 123 125 124 123 122  88 123 122 125 123 122 122 124 124 125 
124 124 126 127 125 124 124 124 123 122 125 124 123 125 125 126 125 
125 125 125 125 124 126 126 124 126 124 125 124 123 125 123 123 119 
 92  58  54  46  44  45  44  44  45  44  44  43  45  46  43  44  45 
 44  45  43  44  45  50  47  46  48  45  45  45  45  57  54  55  91 
116 123 126 126 128 128 128 128 128 128 128 129 127 130 129 127 127 
127 126 127 126 128 128 127 128 128 129 132 131 131 132 130 131 131 
129 131 129 125 115  92  86  79  84  89  97 104 103 110 112  99  74 
 74  97 114 107  98 107 103  97  95  81  69  92 118 128 133 133 131 
132 135 134 134 132 134 133 131 130 131 130 129 131 131 135 133 131 
132 132 132 134 134 132 131 130 131 129 128 129 131 131 132 129 131 
130 131 130 132 132 131 132 132 131 131 132 131 129 132 132 133 133 
133 132 132 133 134 135 135 134 132 132 132 130 132 132 132 133 131 
133 133 130 132 134 133 131 132 133 131 128 129 132 130 133 132 131 
130 131 132 131 131 130 130 130 132 132 130 131 133 132 131 133 130 
132 130 131 131 131 132 131 129 128 131 132 131 130 130 130 130 128 
130 132 130 130 127 130 130 130 132 128 129 128 129 127 127 128 128 
128 129 128 127 127 128 128 129 129 129 128 126 126 128 127 127 126 
127 125 126 127 127 127 126 125 127 128 125 126 127 125 127 125 126 
126 125 124 122  90 125 121 123 122 123 123 124 123 125 124 123 123 
125 125 124 123 126 123 126 125 123 125 124 122 124 124 124 124 125 
126 126 125 125 125 126 125 126 124 123 122 123 122 119 105  71  55 
 52  44  47  45  46  43  45  44  46  44  44  43  45  46  43  45  46 
 44  47  50  45  45  46  44  46  41  49  52  49  65 103 117 124 125 
125 127 126 128 126 125 125 127 127 126 128 129 128 128 128 125 130 
127 128 128 129 127 128 129 131 131 130 130 130 131 130 130 131 131 
130 123 116  94  89  78  76  91 100  98 107 109 107 106 107 106 107 
106 103  99  96  76  66  66  94 120 130 133 131 131 132 131 132 133 
134 132 132 132 132 131 128 130 132 132 132 133 133 131 129 130 129 
133 130 131 131 131 130 128 127 130 132 132 132 132 134 130 131 131 
131 131 132 130 131 131 131 130 132 128 130 130 131 129 132 131 133 
131 134 132 130 132 131 130 132 134 132 130 129 130 130 132 133 131 
132 132 132 131 131 133 130 130 131 132 131 131 132 131 129 130 130 
130 132 130 129 130 130 130 131 128 128 131 131 130 131 131 131 132 
130 131 129 129 130 130 129 130 130 129 129 127 129 129 128 127 127 
127 127 127 128 129 130 128 129 127 130 129 131 128 130 129 129 127 
131 129 128 129 131 128 129 128 129 126 127 126 127 126 127 124 127 
127 128 124 127 128 127 128 127 129 127 126 128 127 127 126 126 123 
122  86 123 121 123 125 125 124 124 122 124 124 124 123 124 124 123 
124 124 123 124 123 124 125 124 124 124 124 124 125 125 124 125 126 
126 127 127 126 126 125 124 121 126 124 121 113  86  58  53  49  47 
 46  45  46  47  45  44  45  46  43  44  44  44  44  45  46  48  47 
 46  47  46  43  43  45  52  53  51  85 106 121 121 126 127 128 129 
129 129 128 128 127 128 126 128 127 127 126 126 130 131 128 129 127 
129 128 129 129 130 130 129 128 129 131 130 129 131 129 129 127 126 
120 106  85  74  72  83  91 110 115 119 123 121 117 112 106  93  70 
 60  58  76 106 126 130 129 131 130 130 134 132 133 131 131 132 130 
130 131 132 133 132 132 133 134 130 135 136 133 136 133 134 133 129 
132 131 130 132 130 131 133 130 133 130 130 130 132 132 132 131 132 
131 131 131 133 134 132 132 132 132 133 132 135 133 133 131 133 133 
134 132 132 132 132 133 133 131 131 133 133 130 132 132 132 129 132 
133 131 133 131 131 131 131 131 130 130 131 130 131 134 131 130 130 
130 129 130 129 131 130 131 131 131 131 131 128 130 130 130 131 130 
131 132 131 133 131 130 129 129 129 128 128 129 129 127 127 129 127 
128 129 129 129 128 130 130 128 129 129 129 129 130 130 129 128 127 
127 130 127 129 128 130 127 127 128 127 126 128 126 128 124 123 124 
126 128 126 127 125 127 127 126 126 126 125 124 126 125 124  89 125 
122 124 126 125 123 124 122 123 122 124 124 127 125 125 126 126 123 
125 124 123 125 122 124 123 123 123 124 122 124 127 125 124 125 125 
127 126 125 124 122 126 124 123 119 107  72  61  54  49  47  45  46 
 47  45  46  45  45  41  46  44  45  44  47  45  48  47  44  45  46 
 44  46  49  57  46  64  98 113 122 125 126 128 126 127 127 129 127 
128 126 128 128 129 128 129 128 129 129 129 130 130 130 129 127 130 
130 127 130 130 128 127 128 128 128 128 131 131 128 130 126 123 111 
 99  82  70  66  68  75  83  88  92  87  68  48  46  55  74 101 117 
130 131 131 131 130 129 130 131 132 132 132 131 127 129 131 131 132 
134 132 134 135 134 132 132 134 133 131 127 132 134 131 131 132 132 
130 130 131 128 129 128 129 132 132 131 132 132 133 132 131 131 132 
131 131 131 130 128 132 132 131 132 132 133 131 132 132 134 129 131 
131 132 132 132 130 133 131 133 132 130 131 133 130 134 132 130 132 
131 129 130 131 131 131 129 128 129 130 132 129 134 130 131 130 132 
129 132 130 131 129 127 126 129 129 130 128 128 128 129 130 129 132 
132 132 133 130 129 127 130 130 127 130 129 129 128 127 130 129 127 
130 127 131 131 130 130 129 128 127 128 128 130 129 129 127 129 126 
128 127 128 127 129 128 127 127 127 126 127 127 128 125 127 126 124 
127 126 126 126 126 125 125 125 125 126 124 124  88 121 120 122 122 
122 123 122 121 123 124 122 123 123 122 124 124 125 125 124 124 123 
124 123 125 123 123 124 125 124 125 126 124 125 124 126 124 125 125 
126 123 122 122 122 122 116  97  66  57  50  47  46  42  43  44  40 
 42  44  45  43  41  41  41  42  45  43  43  42  45  46  42  44  53 
 46  50  87 107 119 123 124 126 126 129 127 127 128 126 128 126 125 
128 126 127 127 126 126 127 126 127 127 127 127 128 128 130 130 128 
130 129 130 129 130 129 130 127 129 130 130 129 127 127 126 118 109 
 90  77  68  67  57  50  47  55  68  92 110 123 131 131 133 132 132 
133 133 131 132 132 132 132 132 131 133 132 132 133 132 132 133 132 
132 135 133 131 132 132 129 130 132 131 131 130 129 129 128 129 130 
132 131 131 131 132 130 132 130 130 129 132 132 132 132 130 132 130 
131 131 131 131 131 131 132 131 133 133 133 133 133 131 132 132 131 
133 132 131 130 130 131 132 131 132 133 132 133 133 133 132 131 132 
128 130 130 131 130 130 129 130 132 129 131 129 129 129 128 129 129 
128 130 126 127 127 127 127 129 130 129 129 129 130 131 129 129 128 
130 129 130 130 127 130 130 128 128 128 126 129 127 126 128 128 129 
128 129 130 129 129 129 127 127 129 128 128 128 127 127 127 126 126 
126 125 127 126 124 127 123 126 125 126 127 127 125 127 125 125 124 
124 124 125 124 125 125 125 123 121  87 121 121 124 122 122 121 123 
123 124 124 124 124 125 123 124 125 126 124 125 124 124 124 123 125 
126 125 126 125 126 125 125 125 127 126 127 126 125 125 124 123 126 
123 125 124 120 113  90  56  59  52  49  46  48  46  48  44  47  47 
 46  45  46  43  45  42  45  46  45  42  44  49  54  53  52  79 108 
122 126 126 127 124 126 124 125 126 127 128 128 128 128 130 128 129 
131 129 128 128 128 126 128 127 128 128 127 127 130 131 133 131 130 
128 130 127 130 129 129 129 128 128 128 130 132 129 131 131 130 123 
124 121 124 128 132 129 133 134 134 129 128 128 128 130 131 130 129 
132 131 131 132 132 133 132 131 132 133 134 132 133 134 133 135 133 
135 133 134 132 132 131 134 131 132 133 133 131 130 131 135 131 132 
131 132 130 131 130 132 132 131 132 132 133 133 133 132 133 132 133 
132 131 134 132 134 133 133 134 134 134 133 133 132 131 133 132 131 
130 130 131 134 130 131 132 132 134 135 134 132 131 133 130 129 129 
129 129 129 131 132 128 130 131 130 132 130 132 133 132 130 131 131 
129 129 131 130 130 132 131 131 130 132 129 131 130 129 129 129 128 
129 127 129 129 129 133 131 130 130 130 130 130 130 131 130 130 129 
129 130 128 128 128 129 128 129 129 130 129 128 130 129 127 126 125 
126 125 126 124 127 126 125 127 128 126 126 124 127 126 125 124 125 
125 127 125 124 123 122  88 124 121 125 123 122 122 124 122 123 121 
123 123 124 123 123 126 126 125 126 124 123 123 122 124 125 124 126 
126 127 125 124 126 128 126 126 125 124 126 125 124 123 126 124 124 
124 119 110  81  55  52  52  48  46  45  44  45  47  45  43  43  43 
 40  42  44  42  44  40  41  51  51  55  47  70 101 119 125 123 127 
126 127 129 126 127 127 128 127 127 129 127 128 128 130 129 128 129 
126 127 127 128 127 128 128 128 130 131 129 130 129 130 130 132 130 
133 131 131 131 130 130 130 130 130 133 134 132 133 132 132 134 133 
132 131 129 133 130 129 128 130 129 129 128 131 129 127 135 134 133 
134 132 134 134 133 134 132 131 130 131 134 135 135 135 136 133 135 
131 132 131 131 133 131 129 131 131 131 131 130 129 132 132 132 130 
132 132 133 131 132 133 133 132 129 131 131 131 133 134 134 131 131 
130 132 133 134 133 133 132 132 133 132 132 131 133 134 131 131 133 
131 131 132 132 133 132 133 133 132 131 133 133 131 132 132 132 132 
129 130 131 133 131 131 129 131 130 134 129 129 129 130 132 131 127 
128 130 131 130 129 131 133 130 130 130 131 130 130 129 128 129 128 
128 127 130 127 128 128 129 130 130 129 130 129 129 130 128 129 127 
129 130 131 128 130 128 130 130 130 127 128 128 128 127 128 127 126 
127 128 127 126 125 128 129 127 125 127 127 127 125 126 125 127 128 
127 125 125  87 126 120 123 123 122 122 122 123 125 122 124 124 124 
125 124 124 124 124 125 125 123 124 123 120 123 125 124 125 123 124 
127 125 127 126 124 124 123 125 125 127 126 125 126 126 123 125 122 
110  85  56  54  49  49  46  45  45  44  43  41  42  43  41  40  41 
 43  44  48  49  55  56  44  71 101 116 122 126 125 127 124 126 125 
127 125 127 126 127 128 128 130 129 130 129 129 129 129 128 128 129 
128 128 127 128 129 129 130 130 131 131 131 130 130 131 133 131 130 
130 129 130 131 131 131 131 131 131 132 132 132 130 131 129 132 132 
131 133 131 129 131 131 130 129 132 130 130 131 132 133 134 132 134 
131 131 132 132 132 132 131 131 131 132 134 135 134 135 131 130 131 
130 131 131 131 132 131 132 130 130 130 132 131 131 131 132 132 131 
132 134 132 133 130 128 131 131 132 133 130 132 132 133 133 134 132 
133 132 133 132 131 131 131 132 132 132 133 132 131 132 130 132 134 
132 133 130 132 133 134 132 133 131 130 130 129 129 131 130 130 130 
132 129 130 129 131 130 131 130 131 130 131 130 131 129 129 130 130 
132 130 130 129 129 130 128 128 132 130 127 127 126 128 130 127 129 
128 126 131 129 130 131 130 129 128 128 130 130 129 128 128 130 128 
127 128 128 130 128 128 129 129 128 128 126 127 127 127 128 127 125 
126 126 126 126 125 124 125 124 125 125 125 124 126 127 126 125 124 
 86 123 121 121 123 123 121 122 124 125 124 125 125 123 125 124 124 
124 125 125 126 125 125 124 122 124 123 123 125 125 127 126 125 125 
124 125 124 127 125 126 125 126 126 128 127 125 126 125 122 112  92 
 59  49  47  49  50  47  48  47  44  45  46  44  44  44  48  49  50 
 51  43  46  75 104 121 126 126 126 124 126 128 127 125 128 127 126 
128 129 130 127 129 130 130 130 129 131 130 128 128 128 128 129 128 
129 128 131 130 129 129 130 131 130 130 132 133 132 132 132 131 130 
131 131 132 133 133 132 133 133 135 132 131 129 130 131 130 131 132 
132 132 132 133 134 134 132 134 132 134 134 134 132 133 133 132 134 
133 133 133 133 134 134 136 134 136 134 135 134 132 131 131 132 132 
132 134 131 132 132 133 132 132 132 133 134 133 134 134 135 134 133 
135 135 136 135 134 132 133 134 133 133 132 131 134 133 133 132 133 
135 133 134 134 133 133 131 132 131 131 131 130 132 133 131 132 131 
133 133 133 134 134 131 132 132 133 132 133 133 131 132 131 130 132 
132 132 131 130 129 130 131 130 129 130 129 131 131 129 130 130 131 
130 131 131 131 132 131 131 132 130 128 127 130 128 127 129 128 129 
130 130 130 130 131 130 129 131 128 128 129 129 129 129 130 130 129 
131 131 130 132 129 130 130 127 129 127 128 128 128 125 127 129 128 
127 127 127 127 126 128 126 126 125 127 127 126 125 124  88 124 120 
121 122 121 122 126 124 124 124 125 124 123 125 123 123 125 125 126 
125 126 125 124 124 126 124 125 125 125 126 128 126 126 125 124 123 
126 125 127 126 125 126 125 123 128 124 125 124 125 119 103  76  53 
 50  45  45  48  47  44  46  45  44  47  48  49  50  52  42  54  92 
113 120 126 123 125 124 123 127 126 125 126 127 126 125 126 129 127 
127 129 127 131 130 129 129 129 127 129 128 128 128 130 129 129 129 
129 130 130 129 129 131 131 130 132 133 133 132 130 130 132 131 131 
132 132 129 129 131 131 131 132 128 130 131 130 133 132 131 131 132 
133 133 132 132 133 132 132 131 131 131 131 131 130 131 133 132 133 
134 136 137 136 135 137 136 133 133 133 133 133 134 132 129 131 131 
132 131 131 130 131 132 133 132 131 132 133 131 133 132 134 133 133 
132 130 132 132 132 132 132 131 132 133 134 134 134 134 133 130 131 
132 132 131 130 133 132 131 133 130 132 133 131 132 132 133 133 133 
132 133 131 132 130 132 131 131 131 130 132 130 131 130 131 130 130 
131 130 131 131 129 132 130 128 131 130 130 129 131 131 131 129 132 
131 131 129 131 130 131 129 130 126 126 128 129 129 130 128 128 129 
127 127 129 128 128 127 129 128 128 127 129 128 126 129 129 129 131 
130 129 129 128 128 130 127 127 127 128 126 127 125 125 126 125 125 
125 124 125 124 125 124 126 126 125 125 123  87 124 119 122 123 121 
122 123 124 124 125 126 125 125 125 125 123 126 125 127 125 125 123 
124 126 125 122 124 126 125 124 124 125 126 126 126 124 126 124 126 
126 128 124 126 126 127 128 126 123 125 121 119 114  98  69  53  46 
 45  45  46  46  45  45  47  40  39  42  59  83 110 123 124 123 126 
126 126 128 129 125 123 126 127 127 128 128 130 130 128 128 131 128 
130 130 129 130 128 128 130 129 129 128 129 128 129 129 129 130 131 
131 131 131 128 130 132 133 132 133 133 130 131 129 132 131 130 131 
131 132 134 132 133 134 133 132 132 134 135 132 133 132 132 130 133 
134 135 133 134 133 134 134 133 132 132 132 136 137 141 140 135 125 
116 106 106 105 107 114 125 129 133 132 135 135 134 132 131 131 132 
133 134 135 135 134 133 134 135 132 136 134 135 134 131 134 134 132 
134 131 134 133 133 134 132 132 135 134 135 135 133 134 134 131 133 
130 132 134 132 132 131 132 133 133 133 133 133 134 134 132 132 133 
133 130 132 131 130 131 132 132 131 133 130 132 131 131 131 132 131 
131 130 129 129 129 132 132 133 131 131 129 129 131 129 130 131 129 
133 132 131 130 130 130 130 130 130 130 129 129 130 130 130 129 129 
130 128 128 131 129 129 129 130 129 127 126 129 127 129 128 127 126 
128 125 127 128 128 128 128 126 125 127 126 127 126 127 127 127 126 
125 126 125 126 126 126 125 123  89 124 121 122 122 124 122 123 123 
124 125 127 123 123 124 125 125 127 124 125 126 126 126 126 123 124 
125 125 125 124 126 125 125 126 126 126 124 125 125 126 126 123 128 
125 125 125 125 127 126 125 123 125 125 124 117 109  89  72  52  46 
 37  42  45  51  58  83 102 118 125 125 126 125 123 125 125 125 126 
124 124 124 129 127 129 127 128 127 127 128 128 131 128 132 129 127 
128 130 130 129 127 128 130 128 128 129 130 129 131 131 132 133 133 
132 130 132 131 130 131 132 131 131 130 131 130 131 133 133 131 130 
131 131 130 132 135 135 134 131 133 133 133 134 130 132 131 132 132 
134 133 132 132 132 132 135 136 141 133 115  87  63  51  51  56  63 
 64  60  57  61  71  94 119 127 131 131 133 134 133 132 133 132 133 
134 133 131 133 134 131 132 132 132 135 133 134 133 131 133 131 134 
130 133 133 134 134 136 133 133 134 134 134 133 133 133 132 133 133 
130 133 131 129 130 132 132 133 132 133 132 133 131 133 133 132 133 
132 131 128 127 131 128 130 130 130 134 131 131 128 129 129 129 130 
129 129 129 129 130 132 131 132 130 132 127 129 130 129 131 129 131 
130 128 129 127 129 129 129 131 130 129 127 130 129 128 132 128 125 
130 129 127 127 126 127 128 127 128 130 130 130 127 129 127 128 128 
128 128 128 126 124 125 128 128 126 126 126 125 127 127 125 127 125 
125 125 126 127 125  86 123 121 124 122 122 123 121 122 123 125 122 
125 123 125 123 124 125 125 126 125 126 126 125 124 124 124 124 126 
123 126 125 125 124 124 125 123 125 124 124 124 126 124 122 125 122 
124 125 126 128 125 126 124 127 128 126 124 124 125 122 121 119 124 
126 125 126 127 125 128 126 128 126 124 125 127 126 127 126 125 123 
125 126 126 128 125 128 129 127 126 126 127 126 128 128 127 128 128 
125 128 126 128 126 125 126 127 128 130 131 128 128 130 128 130 130 
131 130 131 129 132 129 130 131 131 129 130 130 131 129 129 131 130 
129 131 130 130 132 133 131 132 130 131 129 130 132 129 127 130 131 
131 131 135 137 135 112  67  44  53  68  78  85  88  84  87  84  78 
 70  62  63  66  84 109 123 133 131 130 132 131 130 133 131 131 133 
132 132 132 131 134 135 133 132 132 132 131 130 133 132 132 129 132 
133 131 134 133 133 131 130 131 130 131 133 130 130 131 130 131 130 
130 132 131 133 129 132 132 132 131 133 131 134 132 131 129 130 131 
130 130 131 129 128 131 131 132 130 131 131 128 128 129 129 128 128 
130 129 128 130 129 130 128 129 128 127 129 129 127 128 127 127 128 
127 130 130 128 128 129 128 128 129 126 128 130 131 129 128 127 127 
125 126 127 126 127 126 127 128 128 128 127 127 127 127 126 124 124 
127 123 125 128 127 125 126 123 125 124 125 125 126 125 126 124 125 
123 122  87 123 120 124 124 124 124 122 122 124 123 126 125 125 123 
123 124 126 126 127 126 125 122 123 125 125 123 125 125 125 126 125 
125 127 125 125 124 124 126 124 125 128 126 126 127 125 126 124 126 
128 126 127 125 127 127 126 124 126 125 124 122 122 123 123 124 125 
124 129 126 127 126 127 126 127 126 127 125 126 127 127 125 128 127 
127 128 127 127 128 125 130 128 128 131 131 130 131 129 132 131 131 
131 130 131 130 128 131 131 133 132 132 133 135 129 132 132 132 133 
130 131 133 129 130 130 132 131 131 129 129 131 132 133 134 132 133 
134 133 131 131 132 132 132 133 133 132 130 135 132 134 136 134 136 
128  91  64  54  74  88  91  86  88  86  89  90  91  92  88  82  90 
 79  71  85 103 117 129 130 131 132 134 130 133 133 133 134 133 132 
134 135 133 133 135 131 134 132 133 134 133 132 133 133 133 134 136 
133 136 134 133 132 131 130 133 130 133 132 132 131 130 133 135 133 
136 133 135 131 132 131 133 130 133 133 132 131 130 128 132 130 132 
130 132 132 133 132 132 131 131 129 133 132 130 130 131 132 131 130 
132 131 131 129 132 132 130 129 130 129 129 130 129 129 130 130 132 
129 130 127 128 128 129 128 129 127 126 127 127 128 129 126 127 128 
128 126 127 128 127 128 128 128 128 125 129 127 128 128 129 128 126 
128 128 128 127 125 125 124 125 124 125 124 124 123 124 124 123  85 
123 121 124 124 125 125 123 122 123 123 124 124 124 124 125 125 126 
124 125 126 126 123 125 124 126 126 128 126 126 127 126 125 128 126 
126 125 126 128 127 127 129 127 128 127 126 128 127 127 128 127 128 
126 127 128 127 126 126 126 128 125 125 126 126 125 127 126 127 129 
128 127 129 128 127 126 127 127 127 127 126 126 127 125 127 127 129 
128 128 128 127 128 128 130 127 130 129 129 132 135 134 134 136 134 
132 133 133 133 131 128 133 132 133 131 132 130 131 132 130 131 132 
129 133 130 132 130 132 130 131 133 132 132 132 129 130 133 132 132 
133 132 132 132 133 134 132 132 135 132 134 134 139 116  83  58  79 
 87  95  91  83  81  84  90  88  92  91  86  85  82  86  82  82  83 
 84  93 112 126 130 131 132 132 132 132 135 132 134 133 135 135 134 
133 133 134 134 133 134 134 134 133 134 134 133 133 135 132 135 132 
132 132 133 133 135 132 133 131 130 131 131 131 135 132 135 133 134 
131 131 132 134 131 132 133 132 132 131 129 131 131 132 130 131 134 
132 130 129 128 131 130 130 129 128 129 130 131 131 130 131 130 130 
129 132 130 130 129 130 130 129 129 130 129 131 130 131 130 130 130 
131 130 130 129 130 129 128 130 130 129 128 128 129 128 129 127 129 
126 124 125 127 129 128 128 129 128 128 127 127 127 128 128 127 128 
125 126 125 126 126 124 125 125 124 125 125 125 124  88 123 119 122 
124 122 123 123 122 124 123 125 124 124 123 124 124 123 123 124 124 
125 125 124 125 125 125 126 126 126 125 124 125 127 126 128 127 126 
127 126 126 127 126 128 125 123 126 126 126 126 125 127 126 128 127 
127 124 127 127 125 126 127 127 128 126 125 126 126 127 126 129 126 
127 127 129 128 127 126 127 127 127 127 125 127 129 128 128 127 126 
129 129 129 129 129 131 132 135 135 128 115 100  87  83  85  94 102 
114 122 129 130 132 133 133 133 133 133 133 130 132 131 129 132 129 
133 131 131 130 132 132 132 131 132 134 131 133 133 131 132 132 134 
133 133 133 132 131 131 133 133 135 121  91  60  82  91  85  83  81 
 84  87  88  87  87  93  89  83  83  78  84  87  86  86  80  70  90 
114 126 128 133 130 132 133 131 133 132 134 132 133 132 135 135 133 
133 131 133 132 133 132 131 132 132 133 134 133 135 134 133 134 134 
133 134 131 132 132 131 131 131 132 134 133 132 130 130 134 133 131 
134 131 131 133 130 132 130 128 132 128 131 130 132 132 135 131 130 
131 131 132 131 131 130 129 129 131 131 130 129 129 131 130 131 129 
132 131 130 130 128 129 130 129 131 130 129 130 130 129 129 129 130 
129 128 128 129 129 128 128 126 129 128 127 126 127 128 126 127 128 
126 127 129 128 128 129 130 128 128 127 128 125 127 125 127 125 128 
125 126 124 125 124 124 126 124 124 122  84 123 122 125 125 125 125 
123 122 124 125 125 124 124 124 125 122 124 126 127 125 126 125 125 
127 126 124 126 126 125 125 126 127 126 125 127 126 127 125 127 126 
127 126 128 127 125 127 126 127 127 127 129 128 127 126 125 127 124 
126 127 128 127 126 125 126 128 124 126 126 127 126 127 129 128 128 
127 128 129 130 130 128 128 127 130 126 128 129 128 128 129 129 129 
130 132 132 129 115  81  48  41  48  66  79  82  78  69  62  62  81 
109 122 131 131 132 133 132 131 130 133 133 129 134 132 132 132 134 
134 132 130 131 130 132 132 131 132 132 131 131 132 133 133 132 133 
133 132 133 132 134 125  93  70  84  97  93  85  86  85  95  88  81 
 87  88  91  82  81  82  92 105 103  92  92  87  76  82  98 114 126 
132 130 133 134 132 134 133 135 135 135 133 137 136 134 135 134 134 
132 135 134 133 133 134 131 133 134 135 134 133 134 133 133 134 131 
134 133 134 131 131 131 132 131 132 133 131 135 133 131 133 131 131 
134 133 134 132 131 131 129 133 131 132 133 133 132 131 131 130 132 
132 133 133 129 129 129 130 130 129 128 130 132 131 129 132 132 131 
133 131 132 131 129 130 131 131 130 129 128 129 130 130 131 129 128 
129 129 129 130 128 132 131 129 128 126 130 128 128 129 129 130 129 
130 131 127 129 127 128 129 128 126 126 127 124 127 125 128 128 125 
126 125 125 126 124 125 123  87 123 120 124 125 123 122 121 120 121 
123 122 124 124 124 124 123 126 125 125 126 127 124 126 124 126 125 
126 125 125 125 126 126 126 125 127 125 127 126 128 125 126 126 125 
125 125 126 126 126 125 126 127 127 127 126 127 126 128 128 127 127 
128 125 124 125 127 125 127 125 127 127 126 126 128 128 127 125 128 
128 129 127 130 128 128 129 128 128 129 127 131 128 128 133 131 112 
 87  53  76 116 146 160 165 165 160 150 145 130 107  86  72  83 107 
120 130 132 131 131 132 133 133 131 132 132 132 132 132 133 133 131 
132 131 132 128 130 132 132 132 133 132 131 131 131 132 132 130 134 
133 126 120  79  78  86  81  87  84  88  88  85  78  84  85  83  81 
 83  88  91  95  92  89  86  89  95  91  85  89 106 119 128 133 133 
132 134 132 134 132 134 133 135 135 133 133 133 133 135 133 136 133 
134 134 134 132 133 131 132 131 132 133 133 133 134 132 133 131 132 
131 132 130 131 130 133 135 133 133 134 132 133 130 130 132 132 133 
133 129 131 132 130 133 132 133 133 130 130 130 130 131 131 132 132 
128 129 129 129 129 128 129 129 130 131 132 133 131 131 133 133 130 
130 128 130 128 129 128 128 130 131 130 129 129 129 129 128 129 129 
129 128 129 130 129 130 129 128 127 128 128 126 127 130 129 130 129 
129 126 128 127 126 126 127 126 126 126 126 127 127 124 125 124 125 
124 122 125 124  84 125 122 123 123 123 124 122 122 124 124 125 125 
126 124 124 124 126 124 124 126 126 123 125 124 126 126 126 128 128 
125 124 126 128 126 129 127 127 125 125 127 127 125 124 124 126 125 
126 128 127 128 127 126 126 127 128 127 126 126 127 126 127 127 127 
125 128 126 125 127 126 127 126 126 128 129 128 128 130 128 127 129 
129 128 131 128 129 130 129 128 129 131 132 127 112  80  78 122 144 
134 124 116 116 107  98 110 120 125 128 132 118  89  75  99 116 127 
132 133 133 132 132 133 133 133 132 131 131 132 131 131 133 133 135 
132 133 133 133 132 133 133 132 132 133 131 131 132 132 131 119  85 
 81  88  81  78  88  96 102 103  99  91  91  90  89  90  92  94  91 
 91  90  89  94 105  98  92  93  96 101 112 127 128 131 131 131 134 
133 132 130 131 134 134 136 133 133 133 135 133 135 133 133 134 133 
133 133 131 133 132 135 133 133 132 133 134 133 132 132 131 132 133 
134 131 132 132 133 132 134 133 134 133 131 132 132 132 132 132 131 
132 132 131 133 131 131 130 133 133 132 133 132 132 130 129 131 131 
131 131 129 131 130 127 130 131 133 131 132 131 129 130 131 131 131 
128 129 128 130 131 131 132 131 131 131 132 130 127 128 128 129 128 
130 128 129 129 128 128 129 128 128 127 127 128 127 129 127 124 128 
128 131 128 127 127 126 126 125 128 125 124 126 124 126 125 124 125 
124  84 124 121 122 121 123 124 123 122 122 123 121 124 123 125 126 
126 124 123 126 126 126 125 125 126 125 126 125 128 124 123 125 126 
127 124 127 126 126 127 127 126 127 125 127 128 130 125 127 126 126 
126 126 128 129 129 127 128 127 127 125 127 128 128 128 127 127 124 
127 126 126 128 129 127 129 129 125 126 127 127 127 128 128 129 131 
128 128 129 129 130 128 131 126 109  77  89 129 132 103  70  85 127 
135 121 105  91  94 105 107 107 108 114 106  83  98 115 129 134 133 
134 135 134 131 131 132 131 131 130 131 132 133 132 132 135 133 132 
134 133 134 132 131 131 133 131 132 134 133 127 105  77  84  89  86 
 82  81  81  84  88  90  91  94 105  95  88  92  90  83  73  72  72 
 87  99  90  89  92  90  96 111 118 125 130 134 133 131 132 130 133 
133 132 134 134 134 132 133 134 133 133 132 131 134 134 131 133 134 
135 134 134 134 135 134 133 133 133 133 134 132 131 131 133 133 132 
131 133 134 132 133 134 132 129 131 132 132 131 134 132 133 131 133 
132 131 132 133 132 133 132 134 130 131 131 130 131 131 131 131 129 
132 132 129 129 128 130 129 132 131 130 131 131 131 129 127 128 129 
130 129 128 129 129 129 128 132 131 131 129 128 127 126 128 127 127 
129 128 128 127 127 128 128 128 128 125 126 128 128 130 128 129 129 
129 128 127 124 125 127 125 124 126 123 125 124 123 125 123  83 124 
120 121 123 123 122 123 124 124 122 124 122 124 124 123 123 123 124 
124 124 124 125 126 125 125 125 123 126 125 124 125 126 126 126 124 
124 126 126 126 126 126 125 125 127 127 126 127 129 125 127 127 127 
127 127 127 128 126 127 126 127 128 128 126 125 125 125 128 128 129 
127 128 127 126 127 127 128 130 127 128 128 128 129 129 130 131 130 
131 126 128 123 111  72  83 115 109 102  94  92 106 128 122 110  89 
 83  94 123 114  95  86  88 103 102  80  97 117 127 128 130 130 129 
129 131 131 131 128 131 131 131 133 132 131 130 131 133 131 132 132 
132 132 131 129 131 129 130 123 122  96  66  86  89  79  75  85  78 
 83  95  71  69  77  78  77  76  81  80  83  90  93  95  87  88  89 
 91  90  95  97 118 113 123 129 129 130 132 130 132 134 133 135 135 
133 132 133 133 133 132 133 130 131 132 133 132 133 134 130 132 132 
135 133 130 131 133 132 134 131 131 131 131 133 131 130 132 133 131 
133 131 129 133 130 128 130 130 131 132 128 129 131 129 131 130 130 
129 130 132 129 129 130 130 130 130 129 129 128 129 127 128 125 128 
129 130 131 130 132 132 128 128 129 130 130 129 129 127 127 127 129 
130 127 127 128 129 131 128 127 130 128 128 127 126 127 129 128 129 
128 130 127 126 128 126 127 128 129 129 127 129 128 127 129 125 128 
126 126 125 125 125 124 123 123 122 124 122 122  83 124 122 123 126 
125 124 124 121 125 125 126 125 125 123 125 124 124 124 124 125 124 
124 124 125 127 126 126 125 126 124 126 126 127 126 125 126 128 125 
125 126 127 127 128 128 129 126 126 126 128 128 127 127 129 126 128 
127 126 128 127 127 126 128 127 126 128 126 126 125 128 129 130 126 
127 128 128 128 128 128 129 128 131 128 125 127 129 130 129 129 129 
120  95  81 107  98  92  91  81  72  91 117 116 114 106  99 107 107 
107  96  84  93  94  99 108  80  95 120 127 132 130 131 131 132 130 
132 131 133 133 132 132 131 133 134 133 133 133 132 133 133 134 133 
133 132 131 129 128 125  84  77  76  71  75  72  85  84  87  91  91 
106 107 104 117 117 117 110 102  98  89  82  85  84  89  91  94  97 
 93 114 120 114 127 129 132 132 133 131 133 133 135 133 133 134 134 
131 133 132 133 135 134 134 133 132 134 134 134 134 133 134 132 133 
134 133 132 133 133 132 133 132 134 133 134 132 131 130 133 131 132 
132 133 132 130 133 132 131 130 131 131 130 132 131 132 131 132 133 
133 131 130 130 130 130 132 131 129 131 129 130 131 131 130 130 132 
130 129 130 130 129 131 128 129 131 131 129 128 128 130 128 128 129 
131 127 129 128 129 131 128 129 128 129 130 129 129 129 128 128 128 
128 129 129 128 127 131 128 130 130 127 126 129 126 128 127 125 125 
125 123 126 124 123 125 126 124 124  84 125 122 122 124 124 124 124 
124 123 124 124 123 124 125 125 124 125 125 126 128 127 126 126 124 
126 126 128 126 127 124 125 123 127 127 126 124 126 126 127 125 126 
127 128 129 129 129 127 125 128 127 127 127 128 125 126 129 128 129 
129 130 129 127 126 128 128 125 127 128 129 128 129 127 130 129 131 
127 130 128 129 127 129 130 127 128 128 126 130 125 125 104  79 105 
106  92  98  96  84  90 108 114 120 122 116 102  90  88 100  95  88 
 89  95  95 109  98  89 110 122 130 132 130 131 131 130 132 133 132 
132 132 133 133 134 134 133 132 132 132 131 132 131 133 129 131 132 
130 129 113  77  76  75  75  74  78  84  82  81  87  94 100 104 109 
111 108  98  90  86  82  83  94  95  85  87  90  90  96  96 105 115 
109 127 131 132 133 133 131 134 133 133 133 133 135 134 134 134 134 
134 134 132 135 133 132 134 133 133 132 134 134 133 135 135 134 134 
133 133 131 132 129 130 130 133 131 133 132 132 134 132 134 134 133 
134 131 134 131 131 131 131 132 132 132 133 132 133 133 132 132 133 
133 132 130 131 130 130 131 130 130 130 131 133 134 132 131 129 131 
129 131 130 129 131 130 131 131 128 129 128 128 129 127 129 129 130 
129 128 128 127 128 129 130 129 127 129 129 127 127 128 128 129 127 
129 125 128 128 130 127 127 125 129 128 127 126 125 126 125 125 127 
126 127 124 126 127 125  83 125 122 124 126 125 125 125 125 126 124 
123 125 125 125 125 123 124 125 125 125 125 125 126 124 126 125 125 
125 125 125 124 123 126 126 126 125 126 126 126 126 128 127 129 128 
129 129 127 126 126 127 128 127 126 127 126 127 127 128 128 129 129 
128 127 126 128 126 125 126 128 128 130 127 128 128 128 128 128 130 
128 125 130 129 129 130 129 129 128 126 118  85  94 107  92  94 101 
 85  74  85 103 109 112 118 113  96 103  97 101  96  86  90  90  92 
101 102  96 100 116 125 131 133 133 132 130 134 133 133 132 130 135 
134 133 133 133 132 132 133 133 132 135 133 133 132 135 123 129 100 
 70  88 103  95  79  82  99  91  91 102  97  86  83  90  91  89  85 
 85  81  79  78  73  94  94  89  92  93  93  88 109 119 108 123 129 
132 133 133 132 134 132 134 133 135 135 134 133 136 132 133 133 130 
132 134 132 132 132 133 132 131 132 132 133 133 133 133 134 132 131 
132 132 130 129 133 131 132 130 131 130 130 130 131 130 130 129 129 
130 131 130 132 131 130 131 134 131 133 133 131 133 132 133 131 131 
131 130 130 129 129 130 129 130 130 130 131 133 132 131 130 128 130 
129 130 129 128 129 130 127 127 128 128 128 128 127 127 128 129 128 
129 131 130 128 129 129 130 130 127 128 127 127 127 128 129 127 129 
127 127 127 126 127 129 127 126 127 126 126 125 124 124 124 127 125 
125 126 123  83 126 123 125 126 126 126 125 123 126 126 124 125 125 
124 125 125 126 125 126 125 126 125 126 125 127 126 126 127 126 126 
125 124 126 126 125 127 127 128 128 128 128 128 129 129 128 130 128 
126 127 127 127 127 125 127 128 127 128 128 127 128 129 129 129 126 
127 127 129 129 127 127 131 129 130 129 129 129 128 131 129 127 126 
129 129 130 129 128 130 123 102  84 121 111  96  88  98  82  80  81 
 87  98 107 104  98  93 101 109 104 100  91  93  95  97  95  95  98 
105 109 121 126 131 132 130 131 133 134 132 132 133 135 132 132 135 
135 133 135 133 134 136 134 136 134 135 133 124 128 100  78  95  82 
 68  77  90  92  87 100 108  79  82  84  86  86  77  69  70  70  70 
 72  79 100 104  94  98  95  96  94 103 130 110 119 129 129 132 133 
134 134 133 134 135 135 135 134 135 135 133 135 134 133 136 135 131 
133 134 131 132 133 133 131 133 133 134 134 134 135 134 134 132 134 
133 133 130 133 132 132 133 134 133 133 132 132 131 131 132 132 132 
133 132 131 131 131 131 133 133 131 133 131 133 132 130 132 130 130 
130 130 130 133 131 133 132 131 131 132 131 131 129 131 131 131 131 
130 129 131 128 128 131 130 128 128 128 128 129 128 129 131 128 129 
130 130 129 129 128 128 130 129 129 129 128 130 128 128 130 128 128 
129 129 128 127 128 128 125 126 125 125 126 124 127 127 125 126 126 
 85 126 122 124 124 125 125 124 123 125 125 125 124 125 125 122 123 
124 124 126 124 125 125 126 125 126 124 123 125 125 126 127 123 123 
123 123 125 125 126 126 127 127 125 127 126 127 127 127 125 127 125 
126 125 126 125 127 127 128 127 127 126 128 128 127 127 129 127 128 
127 128 128 128 127 128 127 130 127 129 129 130 129 130 129 127 131 
129 130 123 125  92  91 111  89  88  81  75  73  77  75  74  84  97 
104  98  91  90 109 112 103  95  98  96  96  96  85  93 115 108 116 
126 129 130 131 130 132 132 132 133 133 132 130 131 132 133 131 133 
134 135 131 133 132 134 132 130 121 127 100  79  81  74  75  78  81 
 91  91  92  85  67  74  78  82  83  77  78  72  70  72  75  81 105 
102  91  87  96 100 101 111 139 111 120 130 132 133 134 132 133 130 
134 133 134 133 133 132 135 134 132 134 134 135 135 134 133 134 133 
132 134 133 135 134 136 134 135 133 136 135 133 130 131 131 132 132 
132 133 134 131 134 130 131 133 132 132 131 132 133 131 132 131 132 
131 130 131 132 131 131 130 132 132 133 131 132 131 131 130 130 129 
130 129 131 130 130 129 130 127 129 130 128 130 130 130 130 130 129 
129 129 129 129 126 128 128 127 128 130 129 129 130 131 130 130 129 
129 127 129 128 128 126 127 124 128 126 126 128 126 126 130 128 128 
129 129 128 127 128 127 124 127 125 127 126 124 125 125  84 124 122 
124 124 124 125 124 126 127 124 124 125 126 126 125 124 124 125 126 
123 124 124 124 125 126 125 125 126 127 125 126 124 126 126 126 126 
127 125 126 127 126 127 127 129 129 127 128 127 128 126 126 128 129 
126 128 129 128 126 127 127 128 129 129 128 128 127 129 129 129 128 
129 128 129 129 129 130 130 132 132 128 128 130 129 130 130 128 125 
119  87  91  89  65  78  84  80  79  75  70  74  85  93  87  80  88 
104 111 119 111  93  97  99  99 100  91  98 117 113 107 124 131 132 
133 134 132 132 132 133 133 132 131 132 131 134 132 133 133 132 132 
134 134 133 133 129 120 124  98  76  72  68  72  74  85  94  89  87 
 93  81  72  74  77  81  82  80  82  95  93  95 103  93  79  89  97 
102 100 104 115 130 102 122 129 136 133 133 133 135 132 133 134 133 
133 134 133 133 134 134 132 134 133 133 133 134 134 134 132 133 131 
133 133 135 135 137 134 135 134 133 132 134 134 133 133 133 133 132 
132 131 132 130 133 134 132 133 131 133 133 131 131 131 130 132 130 
132 131 132 131 135 133 132 133 131 132 132 131 132 131 130 130 131 
130 129 130 132 129 127 128 130 128 129 131 131 129 129 128 130 126 
127 128 129 127 127 128 129 129 131 130 130 129 126 129 130 128 130 
129 129 127 127 127 127 129 129 129 128 130 130 128 130 130 129 127 
127 126 125 121 124 126 127 126 126 127 125  86 125 122 123 123 124 
124 124 123 124 124 126 124 125 126 126 126 125 124 126 123 126 126 
125 125 127 127 126 128 128 124 127 127 127 127 126 124 126 124 126 
126 126 126 127 128 128 125 126 127 125 126 124 125 126 126 127 128 
127 126 128 126 127 127 127 126 126 126 130 130 130 130 130 129 130 
129 128 129 129 129 128 129 131 128 131 128 129 126 125 117  78  95 
 86  70  77  78  79  77  69  66  81  87  59  47  50  66 105 113 106 
109  96  92 101 102 101  91  93 125 117 105 120 128 130 132 132 131 
132 132 133 131 131 131 133 130 134 132 134 132 134 133 136 132 132 
133 130 121 133 110  85 101  91  90  95  89  93  90  79  89  99  98 
 96  92  92  87  88  96  91  74  71  76  73  77  88  94  96 100 109 
114 119  96 118 128 131 133 134 132 135 134 135 132 131 132 133 133 
133 132 135 133 135 132 135 133 133 132 135 133 133 132 134 133 133 
134 136 135 132 133 135 132 131 131 132 132 131 130 130 130 132 133 
134 135 131 133 133 133 133 132 132 133 133 130 132 129 129 130 130 
128 131 132 132 132 132 132 131 131 131 130 131 129 128 132 131 132 
131 131 133 126 129 130 133 130 129 129 127 127 128 129 129 129 128 
129 128 128 129 129 130 129 129 130 131 129 130 129 128 129 128 129 
128 127 126 126 126 129 128 130 128 128 128 128 129 129 128 127 127 
124 127 123 123 126 126 124 124  82 121 120 121 121 123 123 123 124 
124 125 125 126 125 124 123 125 126 125 126 124 125 125 126 123 123 
125 125 126 125 125 126 125 123 125 126 123 122 125 126 127 129 129 
131 132 130 130 129 126 124 122 126 125 124 127 128 123 123 127 126 
128 128 128 127 127 128 128 131 129 130 128 128 127 128 128 130 129 
129 129 131 127 130 130 130 128 128 121 131 117  81  97  80  70  75 
 76  76  72  53  73 108  76  67  88  98  88 103 132 100  99  89  89 
 98  97  93  85  86 126 126  95 119 125 129 132 133 132 132 131 133 
129 128 132 130 130 130 132 132 132 133 133 132 133 131 133 131 120 
126 120  90  95  82  96  91  83  85  88  83  80  84  75  71  69  70 
 71  67  62  64  69  72  74  71  76  84  90  96 101 110 117 116  94 
120 126 129 132 132 133 130 133 132 133 131 130 132 134 132 133 132 
132 135 132 132 133 132 130 134 131 131 130 129 132 132 135 134 133 
132 132 133 133 133 132 134 133 133 132 132 132 130 131 131 131 133 
132 131 131 132 130 131 132 131 131 131 131 131 128 130 131 131 132 
133 132 131 129 130 132 130 130 131 129 130 129 130 129 129 130 130 
129 129 130 128 128 129 132 129 128 129 129 128 129 127 128 128 126 
126 127 129 130 128 130 129 127 127 127 127 124 123 128 127 125 127 
126 126 127 126 125 127 126 128 126 126 126 124 126 127 124 123 123 
124 126 124 125 123  85 125 119 123 123 123 123 122 121 124 124 126 
124 124 123 124 123 125 125 125 125 125 126 126 125 128 126 128 129 
128 127 128 125 128 128 125 127 131 132 133 126 118 106  96  93  93 
 97 105 108 117 122 128 131 129 127 126 125 130 127 127 127 126 128 
127 128 128 127 128 126 128 128 129 128 128 128 129 131 129 129 128 
128 131 132 132 131 129 123 135 117  78  96  78  66  76  82  79  67 
 54  94 124  78 107 118 128 113 123 151 104  94  88  90 102 106  98 
 81  84 125 124 102 121 127 131 132 132 131 131 129 130 129 129 131 
132 131 132 132 132 134 133 132 134 134 132 131 131 122 133 130  84 
 85  81  75  77  77  90  87  89  82  72  73  79  82  86  78  79  82 
 80  77  78  76  80  77  82  93  93 101 111 130 115  94 120 129 135 
132 131 131 132 134 134 132 133 133 133 133 134 135 133 132 134 134 
134 133 134 132 134 133 134 134 134 133 133 133 134 134 133 133 132 
133 132 131 132 132 132 133 134 133 133 133 132 130 132 133 133 132 
135 134 134 134 131 132 132 129 129 128 128 130 131 132 133 131 133 
131 133 131 131 130 132 130 132 128 129 129 131 130 129 128 128 129 
131 131 131 131 130 128 130 129 128 127 128 128 129 128 128 128 129 
128 128 130 130 129 129 128 129 129 128 129 127 127 128 127 127 130 
129 127 127 124 128 128 129 127 127 126 124 124 126 126 127 124 123 
125 125  84 123 119 124 123 123 124 124 125 126 125 127 124 125 124 
125 124 126 125 124 125 125 128 126 124 127 131 129 127 125 127 126 
125 127 128 128 129 117  96  76  57  41  42  58  66  57  54  57  62 
 71  77  89 108 119 125 125 128 128 128 127 127 127 130 130 129 129 
128 129 127 129 128 128 127 129 130 128 129 128 131 130 130 133 129 
130 132 131 122 132 120  91 102  76  73  80  79  78  72  68 110 126 
 83 111 126 129 124 121 138  91  85  92  93 104 100  96  88  86 125 
121  94 120 125 131 132 132 133 133 133 131 132 133 132 133 132 134 
134 134 133 133 134 132 133 131 132 129 126 120 121  88  74  70  73 
 72  81  81  78  77  86  86  83  84  91  88  83  87  87  91  91  94 
 95 102  95  84  95  96 108 116 137 108 100 126 130 133 132 134 135 
136 135 133 132 133 134 134 135 136 135 133 133 133 132 132 131 133 
134 135 134 134 132 131 134 134 134 137 136 136 135 133 133 133 133 
133 134 132 133 134 134 132 130 133 132 131 131 133 131 131 132 132 
131 131 133 132 132 130 132 133 132 132 133 134 131 136 134 134 132 
133 131 130 130 131 128 131 128 131 131 130 130 130 130 133 131 131 
129 130 131 130 129 129 127 129 130 130 128 129 130 128 130 129 129 
127 128 129 129 129 128 127 129 128 127 128 127 126 129 129 128 128 
125 128 127 125 127 127 126 124 126 127 124 126 126 127 127 125  84 
123 120 121 121 121 122 123 123 123 123 124 124 125 125 124 123 125 
126 126 125 125 126 123 126 128 128 126 124 126 125 127 125 131 131 
122  94  66  59  63  74  82  89  92  91  89  87  79  73  74  67  70 
 74  88 102 112 124 125 127 127 127 126 130 128 128 129 128 130 128 
130 129 128 126 129 130 127 127 127 129 129 128 130 129 129 133 130 
124 128 126  95 100  77  74  81  82  78  70  62  80 109  89 113 125 
129 127 127 119  76  75  92 101 106  91  87  82  85 129 110  94 120 
126 132 132 132 133 132 132 131 133 134 132 132 131 132 131 132 131 
132 132 135 133 133 133 134 128 116 123 108  86  84  81  87  84  86 
 88  90 102 107  95  92  87  86  90  89  78  74  78  87  85  89  99 
 88  91 101 106 119 129  97 111 127 134 131 134 133 132 132 133 132 
134 132 133 132 133 134 133 134 136 134 133 133 131 133 134 135 135 
135 133 134 133 134 134 135 134 134 135 134 131 132 133 133 134 132 
134 134 133 133 131 134 133 132 131 131 133 134 132 131 133 133 133 
133 131 132 132 130 129 132 133 132 130 133 132 132 132 132 131 129 
130 132 129 131 129 129 127 130 129 130 131 132 132 131 130 130 131 
129 130 131 128 127 127 127 128 129 130 130 129 130 128 127 128 130 
128 128 127 126 128 128 128 128 127 126 127 127 127 127 127 129 128 
127 127 127 128 128 124 126 125 125 125 124 125 124  86 124 120 122 
123 125 125 125 124 125 126 125 126 125 125 125 125 128 126 127 125 
126 126 125 126 129 126 128 127 127 128 129 130 121  99  68  56  62 
 72  80  90  88  83  88  89  91  96  96  92 100  94  84  78  78  81 
 90 105 119 123 128 127 129 129 129 129 130 130 131 129 130 130 130 
128 129 129 130 130 128 128 128 128 129 129 131 131 132 124 121 127 
104  96  83  81  79  78  82  80  75  73  95  91 104 124 129 117  99 
 79  66  85 108 115 103  94  93  84  90 134 104  94 123 130 134 133 
133 134 134 133 133 135 135 133 135 135 134 132 133 133 134 136 135 
136 133 134 132 133 118 115 109  85  93  86  97  95  81  89 106 120 
 87  74  86  97  98  99 100  99  92  93  97  84  91 116 100  93 101 
102 116 109  90 118 127 134 133 134 135 134 133 133 132 133 131 133 
134 134 136 134 134 135 134 134 134 130 133 134 135 136 135 134 135 
134 135 135 135 134 134 135 135 134 135 134 133 135 134 135 134 132 
134 132 133 132 132 131 131 131 131 133 133 133 133 133 131 130 131 
133 133 132 133 132 130 131 131 132 132 133 129 131 132 133 131 132 
133 130 130 132 131 131 132 131 130 130 132 130 130 129 128 129 130 
129 129 129 129 129 129 131 129 129 128 128 129 128 129 128 128 129 
128 129 128 128 128 129 129 129 129 128 127 127 128 130 128 129 126 
129 127 125 127 127 127 127 124 126 125  86 126 121 124 122 124 125 
124 123 125 126 125 123 123 123 123 124 126 125 125 124 126 126 126 
126 125 125 127 127 126 129 127 117  88  60  63  74  84  87  88  86 
 85  94 110 107 105 106 112 104  97  93  92  85  80  77  79  88 104 
113 120 125 127 129 128 128 129 129 131 129 129 128 128 130 129 129 
129 130 128 130 131 130 130 129 127 129 129 127 120 130 109  94  94 
 81  81  82  84  79  74  69  68  62  63  79  88  73  82  86  85  99 
113 115 102  88  85  75  99 129  83  99 123 128 131 130 132 131 131 
133 135 134 135 133 133 133 134 133 133 135 135 132 136 133 132 130 
131 131 125 112 108  94  90  88  82  83  85  85  93  90  93 125 137 
134 126 113 104  94  94  91  90  97 103 100  92  96  99 105 121  97 
103 124 131 136 134 134 135 133 135 132 132 132 132 132 133 134 136 
135 133 134 135 135 135 133 134 131 131 132 133 132 132 133 134 135 
134 134 133 134 134 132 133 132 133 134 133 133 131 131 131 131 132 
132 131 131 132 129 130 130 130 131 132 131 131 134 131 131 132 132 
133 131 131 130 133 132 132 131 129 130 131 129 130 131 130 130 130 
130 130 129 130 129 128 128 132 131 132 130 129 129 127 128 129 129 
129 128 129 130 130 129 129 127 129 128 130 128 129 129 128 130 129 
127 127 127 127 127 127 127 127 126 129 127 128 126 127 127 125 123 
124 123 124 126 125 125 123  85 123 120 122 121 123 124 125 122 124 
126 126 126 125 125 123 124 126 127 126 125 125 124 125 125 126 127 
126 125 129 124 113  78  56  61  80  91  90  84  87  90 100 103 114 
108 103 102 100  97 101 103  93  87  85  72  62  80  93  98 112 118 
126 128 128 128 129 130 132 131 131 128 127 128 129 129 128 129 128 
130 130 130 131 131 131 131 131 129 120 114 105  89  96  81  80  78 
 79  81  86  93  99 104 108 107 118 126 107  84  83  97 108 118  99 
 89  87  82 110 115  83 105 123 131 134 133 135 133 134 133 135 132 
134 133 131 131 134 132 132 132 135 135 135 136 136 136 134 131 129 
118 115  96  87  87  85  84  87  90  89  91 100 109 101  98  92  89 
 92  95 108 105 101 101  95  82  84  98 105 121 109  93 123 130 135 
133 133 134 132 131 134 133 134 134 135 134 136 134 135 135 135 135 
135 135 133 134 135 131 133 133 134 134 133 132 132 134 133 133 133 
131 133 131 133 133 136 136 135 134 133 132 132 133 131 133 133 131 
130 133 131 131 132 131 132 131 131 130 133 133 131 130 131 131 131 
131 134 133 134 133 134 133 133 132 132 134 133 129 130 130 128 128 
129 129 129 129 129 129 131 128 129 130 129 129 130 128 128 126 126 
129 129 131 130 129 130 128 128 128 128 129 128 129 128 129 130 130 
128 128 127 128 129 127 128 128 130 128 128 128 126 124 126 125 126 
125 125 124 124  90 122 122 122 123 124 124 125 122 123 125 124 126 
124 126 125 125 125 126 123 125 125 125 127 124 123 127 126 128 126 
113  76  54  69  92  99  89  84  86  90  93  92  90  88  87 100 100 
 98  84  86  99  96  79  82  86  90  87  89  93  93 109 120 123 128 
129 129 129 130 128 128 128 128 128 130 129 131 131 130 129 129 126 
129 129 128 129 129 128 121 116 109  87  94  87  84  78  75  84 102 
101 100  86 102 159 171 128 110 106 107 104 106 113 100  86  90  88 
114  98  79 117 123 128 132 131 134 132 135 132 134 133 132 132 134 
133 134 132 134 132 134 133 135 134 133 132 134 134 129 125 107  99 
 93  88  87  89  81  89  91  95  94  92  92  94 100  98  90  87  83 
 81  82  75  75  88  96 101 102 114  93  99 125 129 132 132 131 131 
132 131 133 133 135 134 135 133 134 133 132 133 133 133 134 134 135 
132 134 133 136 133 132 133 135 131 132 134 132 131 133 130 135 132 
133 133 135 134 132 132 132 133 132 134 132 133 130 129 130 131 131 
132 132 132 132 131 133 133 132 130 132 132 130 129 132 131 131 130 
133 132 131 131 131 132 131 130 132 130 133 131 130 130 128 131 130 
130 127 128 131 129 130 130 129 129 129 128 130 128 129 131 129 130 
130 129 131 128 128 129 129 130 129 131 129 127 129 129 127 127 127 
128 128 129 129 128 129 127 125 128 128 126 127 125 125 125 125 125 
124  86 124 122 124 122 122 120 122 122 124 123 124 127 125 124 126 
124 125 124 126 124 125 123 124 121 121 122 122 119 114  85  66  68 
 86  99  87  86  84  85  86  88  84  81  83  86  92  93  88  81  81 
 96  92  83  79  79  83  81  72  78  91  98 109 117 122 125 126 128 
128 129 128 128 129 128 130 128 128 128 130 128 128 128 128 128 130 
128 128 129 127 108 100  90  95  96  83  79  81  81  97 114 106 108 
134 144 163 153 144 132  95  80 105 113  96  93  93  97 110  77  95 
115 126 131 132 133 134 134 133 132 132 130 131 132 131 131 133 131 
133 130 133 132 131 131 132 132 133 134 132 129 119 103 101  88  87 
 81  77  92  97  88  84  78  78  76  74  76  84  86  87  89  94  89 
 91  97  97  95 106  92  86 118 126 131 131 131 133 133 133 132 132 
134 131 132 132 136 133 132 131 131 132 133 132 133 132 134 136 132 
132 134 133 133 134 132 131 132 133 134 134 133 132 132 133 133 132 
132 133 131 131 132 132 130 131 132 130 132 132 130 131 131 131 133 
131 132 132 132 132 131 132 131 130 131 130 129 131 130 132 132 133 
131 130 130 129 130 128 132 129 132 130 130 129 127 129 129 130 130 
131 127 130 129 127 128 127 128 128 128 127 130 128 129 127 127 129 
128 129 129 130 129 128 128 128 129 129 129 128 126 126 125 127 126 
129 126 127 126 125 127 125 126 125 123 122 124 125 125 123  88 125 
122 124 125 124 123 125 124 126 125 124 124 126 123 126 124 125 124 
124 124 125 125 124 124 127 125 125 119 101  68  64  87  96  94  92 
 93  81  78  80  89  91  89  97  97  94  87  88  88  84  87  91  82 
 84  86  88  81  81  73  81  90  98 114 122 126 129 128 128 130 130 
127 128 128 129 128 129 129 131 129 128 128 130 130 129 126 127 128 
127 117 108  95 105 111  90  84  86  87 104 111 108 130 136 131 140 
124 123 125 109 103 113 107  99 101 100 102  96  81 111 124 130 132 
135 134 133 133 133 134 134 134 134 134 133 132 133 130 132 133 134 
132 133 134 134 132 132 131 137 132 128 114 104  94  87  85  92 100 
 96  90  86  87  92  94  94  94  95  96  95  93  96  96 100  97  98 
 96  86  78 111 124 128 132 132 134 135 134 133 133 135 133 135 136 
136 135 135 135 136 133 134 134 133 132 133 132 134 132 133 134 133 
133 133 131 133 133 135 135 133 134 131 131 134 134 133 131 131 131 
131 129 132 132 132 134 133 134 134 133 135 132 132 134 133 133 133 
130 132 132 133 132 132 134 133 131 132 131 131 131 131 130 131 132 
133 129 131 132 133 131 129 127 130 129 129 128 128 129 128 129 131 
131 130 130 129 130 130 130 129 129 129 129 129 129 129 127 130 130 
129 128 129 129 130 127 129 129 130 128 130 127 126 127 130 127 128 
126 126 127 126 126 128 127 127 125 124 125 126  86 124 122 124 123 
121 122 124 124 127 124 124 124 125 124 124 124 125 124 124 126 125 
127 125 123 123 123 124 104  79  72  80  93  96  98 111  99  82  82 
 83  96  96  83  86  95  99  98  98 100  96  96  95  89  86  85  86 
 86  87  81  80  95 103 108 118 123 126 129 129 128 130 129 129 130 
130 128 130 130 132 132 131 127 129 129 130 128 128 128 129 124 110 
 97 101 112 101  87  88  84  91 101  99 109 127 120 137 129 103 110 
113 110 117 117 110  98 100  99  73  97 120 130 130 130 132 133 134 
133 131 132 134 136 135 135 135 133 133 132 132 132 133 132 134 135 
134 134 135 132 131 134 134 123 114  95  92  95  88  89  83  87  87 
 87  90  91  93  90  97  97  97 100  99  99  98  99  99  87  81 110 
121 127 130 132 133 134 134 133 133 133 135 134 134 137 133 134 134 
132 133 133 134 131 132 134 135 134 135 134 135 134 134 134 135 133 
134 132 132 135 132 134 132 133 135 135 135 133 134 133 133 132 134 
133 131 131 131 132 132 133 135 132 131 132 132 134 134 132 133 132 
133 132 132 132 130 131 131 130 128 129 128 130 132 132 134 133 134 
132 133 131 130 129 131 129 127 128 128 129 127 129 129 129 128 131 
131 130 130 131 131 129 129 129 130 130 130 129 129 129 129 131 130 
129 132 127 129 128 128 128 130 129 129 127 128 127 127 126 127 127 
126 125 125 124 124 125 125 125 124  90 125 121 122 126 126 124 123 
122 125 124 124 125 123 125 125 122 123 123 125 126 124 127 126 125 
124 122 118 101  69  80  89  89  91  96  99  85  77  78  83  86  98 
 98  97 104  99 101  96  76  78  95  99  85  84  93  91  81  86  83 
 79  87 101 105 112 121 124 127 128 125 126 127 126 128 129 129 130 
129 129 131 129 131 130 127 128 130 130 128 128 127 119 109  97 101 
108  99  91  99 111 123 115 115 122 111 129 120  96  83 100 111 111 
111  96 103 104  76  89 116 128 131 132 131 133 131 131 131 131 132 
132 136 134 134 134 131 133 132 132 131 133 132 132 132 131 132 133 
135 134 130 131 133 127 111  93  81  88  87  80  84  91  92  96  97 
101  99  99 102 103  99  96  92  99  99  83  82 110 124 127 131 133 
134 133 135 132 134 135 133 134 134 134 135 132 136 134 133 136 133 
133 135 134 133 135 133 133 131 133 132 134 134 134 135 134 131 131 
132 133 133 134 133 134 134 134 133 135 134 133 131 132 132 131 133 
133 132 133 133 132 132 133 132 131 133 132 132 133 131 132 133 133 
131 130 130 132 131 130 132 130 131 133 133 133 131 129 131 130 132 
130 128 129 128 129 129 129 129 127 130 132 129 128 127 127 128 129 
128 127 127 128 127 126 128 127 126 128 128 127 130 130 128 128 126 
127 126 126 127 127 127 127 127 127 127 128 127 127 126 125 127 127 
126 126 126 126 127 125  86 124 122 123 124 124 124 124 124 125 127 
126 128 126 125 128 125 126 124 125 125 125 126 125 124 125 121 113 
 81  72  89  99 100  94  99  91  79  77  79  82  85  95  98  94  99 
 91 104 109  92  84  90  86  88  88 101  90  86  90  83  85  80  97 
107 109 120 126 128 130 129 128 126 126 127 129 129 130 130 130 132 
130 128 130 129 128 127 129 129 130 129 130 117 100  90 102 113 107 
103 109 125 132 124 129 127 132 138 120 110 118 120 114 108 112 108 
 72  81 109 131 135 133 132 132 134 131 132 133 133 133 132 133 134 
134 134 131 133 134 134 132 133 133 134 133 133 134 133 133 134 133 
136 134 132 125 116  93  78  84  88  90  85  81  83  83  85  84  81 
 82  84  87  92  85  74  71  91 120 132 132 136 133 134 133 135 134 
135 136 136 135 136 134 138 134 136 137 136 135 135 135 136 135 135 
133 132 134 134 134 136 133 134 135 134 132 133 135 134 134 132 132 
133 133 134 133 134 134 135 133 132 134 135 133 133 133 132 132 133 
134 133 131 132 131 132 134 132 130 133 132 133 133 133 133 133 131 
132 131 132 131 130 131 132 130 131 131 131 130 128 130 130 129 130 
131 132 132 130 129 129 129 130 129 128 130 132 131 129 129 129 130 
130 130 128 131 130 130 131 130 129 130 130 128 128 129 130 130 129 
130 128 129 128 129 127 126 127 126 128 127 127 127 129 127 128 127 
127 127 126  88 125 121 122 122 123 123 123 122 123 125 125 125 126 
125 125 125 127 125 124 125 126 125 124 125 124 117 103  71  75  95 
101  96  89  85  76  70  72  73  79  86  86  74  75  92  91 101  93 
 75  88  90  87  91  91  86  84  88  94  91  91  81 101 114 106 114 
121 126 130 129 129 128 128 128 129 129 128 130 130 130 129 129 130 
128 127 127 129 129 129 126 130 126 117  97  87  99 122 124 117 126 
125 117 131 130 122 134 124 100  86  89  99 113  98  61  77 108 123 
132 131 132 135 131 132 131 133 133 132 133 133 131 133 132 132 131 
132 133 133 132 132 132 132 133 133 134 133 131 132 132 132 131 131 
134 130 116 104  83  78  82  87  91  95  97  95  93  98  98  96  80 
 67  62  76 110 127 133 135 136 134 134 134 133 133 134 133 135 134 
136 135 131 135 134 135 134 134 133 136 135 136 135 134 132 135 134 
134 134 135 134 134 133 133 133 135 131 133 131 131 133 133 131 133 
135 136 135 135 135 135 134 135 131 132 131 132 134 134 131 134 131 
130 131 132 133 133 132 133 131 132 132 132 132 132 130 130 130 132 
129 130 129 129 129 129 130 131 132 129 129 128 130 131 130 131 130 
128 128 129 129 131 131 130 131 132 131 130 127 129 130 128 128 128 
131 129 130 130 129 129 129 127 127 129 127 130 129 127 126 127 129 
128 129 128 126 127 125 127 126 129 125 128 125 128 126 127 126 125 
 86 122 119 123 124 124 124 125 124 125 125 125 126 127 126 125 124 
125 127 126 126 126 126 126 125 124 119  96  71  88  87  85  89  90 
 85  76  70  73  74  79  83  92  89  88  90  86  96  85  78  86  88 
 83  87  90  85  88  88  91  96  95  86  89 105  95 108 117 124 128 
127 128 129 128 127 128 130 129 130 129 128 129 128 128 129 130 129 
130 128 128 129 129 130 126 115 100  83  89 113 127 123 100  81  78 
 84 102 122 117 100 103 115 111  85  62  80 108 129 133 134 133 133 
131 131 133 132 131 129 130 133 132 134 135 133 134 134 134 132 132 
133 133 134 133 131 130 132 131 132 134 133 132 131 132 132 133 132 
128 119 106  79  65  63  69  74  81  83  73  55  55  61  82 110 128 
135 132 138 135 133 134 132 134 133 134 132 133 134 135 134 134 134 
134 135 134 135 135 135 136 135 137 132 134 134 134 134 133 134 134 
132 134 133 134 133 134 132 134 134 132 135 133 131 132 134 134 134 
134 134 134 133 134 132 134 131 131 133 131 129 133 132 132 134 132 
132 133 132 133 132 134 133 132 131 129 130 131 129 129 129 130 129 
130 130 131 132 132 132 130 131 132 129 130 128 131 131 131 129 129 
129 130 130 129 128 129 130 129 128 130 130 128 129 128 129 130 128 
130 131 131 131 131 129 127 127 130 129 128 127 128 130 128 126 126 
126 127 125 126 125 127 127 129 127 128 128 127 127 125  85 122 120 
123 122 122 122 124 124 123 127 123 124 125 123 125 126 124 125 125 
127 126 126 127 123 119 108  87  78  88  86  88  84  82  84  82  81 
 80  79  80  75  79  89  90  86  85  93  87  80  87  82  80  84  81 
 74  84  92  87  92  91  88  84 104 104 102 116 123 129 128 130 130 
131 130 130 132 129 131 129 128 130 129 129 128 127 127 130 129 127 
131 129 129 132 128 120 100  81  74  97 116 115 100 114 132 130 132 
124 123 115  88  57  62  94 117 128 132 129 133 134 132 135 133 132 
131 132 131 131 135 134 133 135 134 135 134 132 132 134 133 133 134 
134 132 130 132 132 132 133 131 130 133 132 132 135 132 132 132 131 
129 124 111  99  93  89  90  95 105 119 128 135 136 133 134 134 134 
130 133 131 133 134 133 133 132 131 133 133 133 134 133 133 132 134 
135 135 132 134 133 133 131 132 133 134 133 133 134 134 134 134 132 
132 134 134 133 133 130 131 134 134 133 133 134 134 135 135 135 135 
132 133 131 135 133 132 135 133 133 131 130 133 134 131 132 133 132 
133 132 132 132 131 131 130 128 130 130 131 132 131 129 129 129 131 
131 133 132 132 131 129 130 131 129 133 131 131 129 130 130 131 130 
130 129 130 130 129 129 129 129 129 131 131 128 130 130 128 127 129 
129 130 129 128 128 128 128 128 129 128 130 126 125 126 125 127 126 
126 125 124 125 126 126 124 128 126 128 125  83 121 121 123 121 123 
125 125 125 123 125 124 125 124 123 124 124 126 125 125 126 124 125 
123 119 114 105  88  84  94  94  91 102  98  95  84  81  84  95  90 
 90  86 100  98  83  86  86  77  76  82  94  95  84  82  86  80  85 
 87  91  87  87  92 106 105  98 111 123 123 125 126 128 127 128 129 
128 130 129 129 129 128 129 127 129 125 129 128 129 128 129 128 129 
131 127 127 123 116  95  77  65  68  92 105 108 107  93  73  51  48 
 53  82 111 126 133 135 131 131 132 132 132 131 130 131 131 131 132 
133 132 132 132 133 132 133 132 131 132 132 132 132 131 131 131 130 
131 132 130 132 129 133 131 131 133 133 132 134 133 134 134 132 133 
134 133 134 134 137 137 134 132 132 133 132 132 132 133 131 134 134 
131 131 130 132 132 133 133 134 134 134 134 134 134 134 133 133 132 
134 134 134 130 131 133 129 132 134 132 133 132 133 134 134 133 132 
132 134 132 135 134 132 131 130 133 133 133 133 132 133 132 132 132 
132 132 131 132 132 130 131 132 132 132 130 133 130 130 131 131 133 
132 131 131 132 130 130 130 130 129 131 129 130 130 129 129 129 129 
130 130 131 131 130 130 129 130 130 130 128 129 129 131 133 129 129 
128 129 130 128 130 131 127 130 129 129 128 126 129 127 129 126 127 
127 128 127 128 128 128 126 126 128 127 129 128 128 125 126 126 126 
123 127 125 124 126 127 123 124  87 123 121 124 122 123 125 124 126 
125 126 124 125 124 125 126 126 129 125 125 125 124 124 124 119 122 
109  90  87  89 107 117 109 107  99  82  87  96  99  90 103 109  99 
 91 100 107  93  95  97 100  96  90  75  80  81  81  85  92  86  84 
 92  99 116 116 100 115 121 125 128 127 128 129 127 130 128 130 129 
129 127 129 130 130 132 130 131 129 128 128 126 130 133 132 131 131 
129 128 125 121 111  94  76  61  55  56  50  65  86 107 124 133 135 
133 132 134 132 133 132 131 133 134 131 132 132 132 132 134 133 133 
132 134 134 135 134 134 133 131 130 131 133 131 132 134 131 130 132 
135 133 135 132 132 133 132 132 134 131 133 133 134 133 132 131 135 
132 131 131 132 133 132 129 133 133 133 134 133 135 134 133 134 131 
133 132 133 133 133 133 134 135 134 134 134 134 134 132 135 134 134 
134 132 132 132 130 134 134 134 135 135 134 135 135 134 134 135 132 
133 134 132 130 133 132 131 132 130 131 132 134 133 131 133 134 133 
132 130 132 133 131 132 132 129 133 131 132 134 132 134 132 132 132 
131 131 132 131 132 131 131 130 130 129 131 131 133 130 131 130 130 
132 131 131 130 130 131 130 129 131 129 129 130 129 130 130 129 130 
130 131 133 129 131 128 127 127 128 127 128 127 128 127 127 126 128 
128 127 129 130 127 125 126 127 126 126 126 126 126 125 125 126 124 
124 127 128 124 124  85 123 121 125 125 125 125 123 123 123 124 123 
123 124 126 127 124 126 124 126 125 125 125 126 120 117 113  90  95 
103  81  83  97 102  87  70  85 105 104  89 110 112  91  95 111 110 
 86  96 102  88  84  93  89  88  92 101  91  89  92  86  93  96 112 
122 107 108 120 124 126 126 129 130 128 131 128 129 128 130 129 130 
129 129 128 129 129 129 128 129 129 133 133 131 132 131 130 130 128 
130 132 133 132 133 130 132 134 133 134 136 136 131 131 132 132 134 
134 135 135 134 133 133 133 133 133 134 132 133 133 133 132 134 134 
134 134 134 134 133 133 134 132 132 131 130 132 132 132 134 132 133 
132 133 133 133 133 134 133 134 133 134 134 134 133 134 134 135 134 
133 134 135 134 135 135 134 132 132 134 131 133 134 131 133 132 132 
131 131 132 133 134 134 133 133 133 133 134 134 132 135 135 132 133 
132 130 131 132 133 133 134 136 136 131 133 134 136 133 134 134 134 
133 134 134 134 132 132 134 132 134 133 133 133 133 132 133 134 134 
132 131 131 130 132 133 133 134 133 133 134 130 133 132 130 129 133 
133 131 130 133 134 132 130 134 132 134 129 131 131 133 132 131 131 
130 131 130 128 128 130 130 131 130 129 129 129 129 129 130 129 131 
127 129 130 129 128 129 127 130 127 129 126 127 126 128 128 128 128 
129 127 127 126 127 126 126 128 127 127 125 125 126 125 127 128 127 
126 126  85 122 121 124 123 122 124 123 125 125 126 125 124 124 124 
124 124 125 123 125 125 124 123 123 117 121 114  92  89 112 112  98 
 90 104  92  80  96 112 106  88 110 109  87 100 114 115  92 102 108 
 88  90 103 101  96  89 109 102  90  95  95  98  93 106 132 101 107 
119 126 127 128 128 128 128 129 129 131 128 130 129 129 131 130 128 
128 126 128 128 128 129 128 129 130 131 132 131 130 132 131 129 129 
128 128 129 129 128 127 128 131 131 130 131 132 133 133 133 133 133 
133 133 134 133 133 131 131 131 132 132 132 132 134 133 134 133 133 
133 133 131 133 133 130 131 131 131 131 131 133 133 132 133 133 132 
133 133 133 133 134 134 133 133 132 132 133 133 133 133 132 132 132 
133 134 134 134 134 133 133 133 134 135 132 134 133 133 132 131 133 
133 132 132 131 132 132 133 133 133 133 136 135 133 134 131 132 133 
131 131 133 134 134 135 132 133 132 132 131 132 132 133 131 133 133 
131 131 132 132 132 131 132 132 132 132 130 132 133 130 134 132 135 
132 130 132 130 132 135 129 131 132 132 132 130 130 130 131 131 133 
130 131 130 131 133 128 131 131 134 131 130 129 130 131 131 132 130 
129 131 129 130 131 130 129 129 129 129 129 130 129 130 130 129 130 
129 128 129 128 130 127 126 125 127 127 129 130 129 128 128 127 128 
127 129 128 127 127 125 128 125 124 126 126 128 126 124 125 125  83 
123 122 125 124 123 124 123 125 125 126 125 126 127 126 126 125 127 
125 126 125 124 125 124 122 118 116  98  98 108  91  90  86 104  89 
 89  99 110 101  93 115 106  92 108 114 110  87 107 108  95 100 104 
104  89  78 105 116 116 113 113 118 104 117 132  97 104 121 127 131 
126 130 130 130 130 129 131 129 130 130 132 131 131 130 130 129 130 
131 131 132 130 129 131 129 130 130 129 130 131 130 132 132 132 131 
130 130 132 132 130 132 130 131 130 133 133 133 133 133 132 133 134 
133 133 132 132 133 134 134 134 134 134 134 135 134 134 134 134 134 
135 136 135 136 136 132 132 133 134 136 135 135 134 133 136 133 134 
134 133 134 134 133 133 135 134 134 133 134 132 132 133 134 135 135 
136 135 134 133 134 135 135 133 133 133 132 133 133 133 132 132 133 
133 134 134 135 131 136 133 133 134 133 133 133 132 134 135 134 133 
133 133 134 135 137 133 135 134 134 133 132 132 133 132 132 133 133 
133 133 132 131 133 132 133 134 132 134 133 133 131 131 131 134 131 
131 130 129 129 131 131 132 132 131 131 131 129 131 131 132 131 131 
129 132 130 132 131 131 131 131 133 132 129 129 131 131 129 128 132 
131 130 130 129 130 130 130 129 131 130 131 131 129 129 127 127 128 
129 129 130 128 127 129 128 128 128 128 129 127 127 127 127 129 129 
128 128 126 128 126 125 127 127 128 126 125 127 126  82 121 120 123 
122 123 124 125 124 124 124 124 124 125 124 125 124 125 125 125 124 
123 124 124 119 117 112 101 103 102  91  83  92 109  82  85  92  95 
 90  91 109  94  90 108 115 111  90 115 112  95  99  96  95  87  83 
 91 102 107 103  96 106  97 115 123  87 105 117 125 130 129 130 129 
126 128 129 130 129 130 129 130 128 128 129 131 130 130 131 131 129 
130 128 128 129 132 132 133 130 130 129 130 130 134 131 131 130 132 
131 130 130 131 132 132 131 133 133 133 133 134 134 132 133 133 134 
134 133 133 133 132 133 132 132 133 133 133 133 135 135 134 132 133 
134 132 132 132 133 133 134 135 135 135 134 135 135 136 134 133 131 
134 135 136 135 134 135 134 133 131 132 135 134 133 134 135 133 136 
135 134 132 133 134 134 133 133 132 131 132 132 131 132 132 133 133 
133 132 135 134 133 133 134 135 134 133 131 133 134 132 133 134 133 
134 136 135 136 134 134 135 134 134 134 132 134 132 131 134 131 131 
132 131 132 132 132 133 132 130 132 130 133 133 133 133 131 128 133 
128 131 132 130 131 132 131 131 131 133 133 132 131 132 129 130 130 
130 129 129 130 130 128 130 129 129 128 129 128 130 129 129 129 129 
128 128 129 130 130 132 129 130 130 129 128 127 128 130 129 128 128 
129 127 128 128 128 128 129 130 127 126 127 127 129 129 128 127 127 
128 127 124 126 125 126 125 126 127 125  85 123 122 124 123 123 124 
126 124 125 126 125 126 125 124 125 126 126 125 125 123 123 124 125 
124 114 107 102  91  78  69  80  91 103  72  82  90 100  95 100 112 
 97  95 110 118 105  90 115 122 102 106  98  88  89  84  90  96 102 
111 102  97 103 120 114  95 108 121 126 129 130 129 129 128 130 130 
128 131 132 130 131 131 130 130 131 131 130 132 130 129 131 130 129 
130 132 131 133 132 133 129 131 131 132 131 129 129 132 133 134 131 
134 134 133 133 135 132 132 132 133 135 133 134 134 135 132 133 133 
134 133 131 132 132 132 134 133 133 135 131 132 134 133 133 135 133 
134 135 134 134 135 134 135 134 134 134 135 134 135 135 137 135 135 
132 133 135 133 131 132 132 133 131 133 134 134 134 135 133 134 134 
134 135 133 132 134 134 136 130 132 132 134 134 134 134 134 133 132 
135 136 134 134 135 134 135 136 135 134 134 135 133 135 133 136 135 
136 134 133 133 132 132 135 133 132 134 133 133 133 133 133 133 132 
130 133 131 131 132 132 131 131 132 133 130 130 131 132 132 132 130 
131 130 131 131 134 133 130 130 132 131 130 130 130 131 131 130 130 
130 130 129 130 131 130 128 128 127 128 128 130 131 131 130 130 131 
133 129 131 130 130 130 130 129 130 128 131 129 128 129 129 128 129 
126 129 128 126 126 126 126 126 126 127 127 126 126 127 126 127 124 
125 126 127 125 126 126 124  86 123 120 122 123 125 122 124 123 125 
125 124 125 124 123 126 125 124 123 126 124 125 124 124 121 115 110 
102  86  88  97  91  89  97  80  91  92 101  84  92 108  92  88 104 
113  98  93 111 111  85  96  91  74  80  89  97  98  97  92  74  83 
 94 118 113  92 115 119 126 132 132 128 129 129 128 131 132 131 130 
129 131 129 130 130 131 128 129 131 129 129 129 130 130 131 130 129 
131 130 130 131 130 130 130 130 134 131 133 132 131 134 131 130 130 
132 134 132 134 133 129 130 133 131 131 134 132 133 132 133 131 131 
132 131 131 133 133 132 133 133 133 133 134 133 132 132 132 131 133 
134 134 132 133 133 133 132 131 133 134 134 134 133 134 134 133 134 
135 132 134 132 134 133 132 134 134 134 135 134 134 133 134 135 135 
133 135 132 133 132 133 132 133 132 134 135 134 135 134 135 135 132 
131 133 138 135 134 135 135 132 132 133 132 130 131 131 133 133 134 
133 132 131 132 135 132 130 132 132 133 131 133 133 132 131 134 132 
131 131 133 132 133 133 133 131 131 131 133 133 132 129 132 130 131 
131 129 133 129 132 131 133 133 130 129 131 130 128 129 129 128 129 
129 129 130 129 130 131 130 131 131 128 127 128 129 128 128 130 131 
130 129 131 129 129 130 126 129 128 127 129 127 129 129 128 128 126 
127 127 127 126 127 128 128 127 126 126 129 126 126 127 127 126 127 
124 125 123 124  87 124 120 122 121 122 121 122 122 124 125 123 124 
123 123 125 123 123 123 124 125 124 125 122 121 113 109 103  84  88 
 87  81  87  91  81  88  88  94  82  91 106  85  84 105 112  91  80 
 93  93  80  95  77  71  96 105 102 113 119 100  87  97  96 125 104 
 94 111 119 126 128 130 129 127 128 128 130 132 127 130 128 129 128 
128 128 129 129 130 131 130 128 129 131 129 130 129 130 129 127 129 
129 129 130 132 131 130 129 130 130 129 131 130 129 129 130 132 131 
132 132 131 132 133 132 131 131 131 132 133 132 131 133 132 133 131 
132 134 132 134 132 133 134 132 134 132 133 133 133 133 132 135 133 
132 132 133 132 131 131 133 130 131 133 132 133 134 132 134 134 131 
134 133 131 130 132 131 132 130 132 134 132 131 133 133 130 129 133 
134 130 130 132 132 130 131 130 133 132 131 132 133 133 133 133 134 
130 132 132 131 132 133 131 131 132 133 133 133 132 133 134 134 133 
134 133 134 133 132 132 130 130 130 132 132 132 130 131 132 131 132 
132 132 131 130 132 131 132 133 130 131 129 131 131 132 129 130 131 
130 130 130 131 131 132 130 130 129 130 128 128 129 129 129 128 129 
131 130 130 130 128 128 128 128 128 129 128 128 127 128 127 127 127 
129 128 129 128 128 130 128 128 129 130 128 125 127 127 128 126 125 
126 126 124 126 127 126 126 126 125 125 124 126 124 125 125 125 124 
121  86 123 120 122 123 125 121 122 123 125 124 122 124 123 123 124 
125 126 126 125 122 122 125 125 118 120 109 104  95  94  93  85  86 
100  89  84  81  94  84  92 102  95  88 102 101  88  88  92  81  93 
 93  80  88 105 101  96  94  92  82  79  86  98 117  91  94 119 125 
128 129 129 128 129 128 132 128 131 130 129 130 128 129 130 129 129 
130 131 130 130 130 129 129 130 129 131 130 127 127 128 129 131 132 
132 130 128 129 130 132 131 130 129 130 131 131 133 130 133 136 136 
134 134 133 134 132 132 134 135 132 133 134 132 133 135 134 134 133 
132 133 133 133 133 134 132 132 133 133 133 132 134 133 133 134 134 
132 134 132 132 133 135 134 134 134 135 132 132 133 131 134 131 127 
131 133 134 134 135 133 133 133 135 132 134 136 139 142 143 141 142 
138 136 137 138 137 137 138 139 135 136 134 135 135 134 133 135 134 
132 133 134 132 132 134 134 134 136 134 134 133 133 132 134 130 132 
131 133 132 131 132 130 133 134 133 135 134 133 134 134 133 134 133 
132 133 133 130 131 132 133 132 132 132 131 129 131 130 133 132 129 
130 131 132 132 130 130 131 129 131 131 131 130 130 131 131 131 129 
129 126 129 128 129 128 128 129 128 126 129 128 128 130 130 127 131 
130 130 127 129 129 129 129 126 128 130 127 125 127 127 127 126 128 
129 128 126 125 125 125 127 123 126 125 125 124 124 126 123  86 121 
120 122 123 124 121 122 123 125 125 123 124 124 124 126 123 126 125 
126 125 125 126 127 125 118 106  96  98  89  87  85  84  95  91  85 
 85  92  86  98 112  97  90 101 101  94  96  90  81  77  72  75  73 
 88  97  93  94  85  80  87  92 117 121  90 106 118 125 127 130 129 
129 128 130 129 132 132 129 130 131 130 128 128 130 130 129 130 130 
130 129 130 129 129 131 130 129 129 131 130 129 130 130 131 131 130 
130 130 133 133 133 132 132 131 132 135 133 134 134 133 131 132 131 
133 134 134 134 134 132 134 133 134 133 133 134 133 133 133 133 133 
133 134 135 133 133 134 133 133 134 135 135 133 134 133 131 134 134 
134 133 134 135 134 134 135 133 134 133 133 133 132 132 134 134 133 
133 134 134 134 134 135 134 137 141 137 126 105  75  59  54  53  54 
 63  83  99 114 124 133 133 133 134 132 136 134 135 134 134 133 133 
133 132 132 134 133 134 133 136 133 133 134 135 132 133 132 133 132 
133 133 133 133 133 132 134 131 131 129 130 131 132 132 132 133 133 
131 131 131 132 130 131 131 131 129 130 128 131 131 129 130 131 130 
133 132 132 131 131 131 131 130 130 130 132 131 131 130 129 128 129 
129 131 129 128 130 128 128 127 128 129 126 127 129 131 129 130 127 
129 129 128 130 130 127 127 126 126 128 126 125 127 125 126 128 127 
129 128 127 127 124 126 125 125 124 124 125 124  86 121 119 122 123 
123 122 124 123 124 124 123 123 124 124 125 125 126 124 125 125 124 
124 125 123 118 107 100  98  86  84  83  82  88  90  84  93  97  91 
 93  97  91  97 111 113  95  92  90  88  77  73  72  73  95 100  95 
 93  86  89  89  91 115 102  89 110 123 125 128 130 128 129 127 129 
132 129 131 130 128 131 129 129 131 130 130 130 131 128 131 127 129 
130 132 130 131 130 131 129 129 128 129 128 129 131 132 129 130 131 
132 133 133 131 129 132 133 131 132 134 133 134 135 132 133 133 133 
133 132 132 133 133 133 133 133 131 132 134 133 132 133 132 133 133 
133 132 133 131 132 134 134 134 132 132 131 132 133 133 135 134 134 
132 131 134 134 131 132 132 131 131 133 131 131 133 134 134 133 134 
133 134 139 138 136 118  77  50  42  53  65  68  68  68  66  66  60 
 63  78  99 122 129 131 131 133 134 134 134 135 133 132 131 131 133 
134 132 135 133 134 132 134 133 134 132 134 133 133 135 135 135 134 
135 132 133 131 131 132 130 131 132 131 132 133 132 130 133 132 131 
132 130 132 130 130 129 131 130 131 132 130 131 129 126 129 131 130 
129 130 129 130 128 128 129 130 130 130 131 129 127 126 129 128 127 
128 128 128 128 127 127 129 128 129 129 130 126 128 127 128 129 127 
127 129 129 130 129 126 127 127 128 129 128 127 126 125 128 127 126 
125 126 126 125 126 126 125 125 124  89 123 121 123 125 125 125 124 
124 126 125 125 125 126 126 126 125 125 124 123 126 124 125 124 123 
123 115 111 101  88  87  86  86  79  83  87  89  82  78  88  98  96 
 99 118 111  90  95 108  95  70  76  83  84  97  98 107 101  92  92 
 87  94 109  85  97 118 125 130 129 129 128 128 129 130 132 130 131 
130 129 130 130 132 130 130 131 128 130 130 129 131 132 132 133 132 
132 132 130 129 131 131 131 129 129 129 127 128 131 132 133 132 131 
131 131 132 132 132 132 134 132 135 134 133 136 134 134 135 135 133 
135 133 132 133 135 135 134 133 132 133 135 134 134 133 134 134 134 
133 135 135 133 134 133 133 133 132 135 132 134 135 134 132 134 134 
135 135 134 136 134 134 135 134 134 134 135 134 133 135 135 138 134 
123  88  52  48  67  77  77  76  75  76  74  71  72  73  71  69  73 
 88 109 121 133 132 133 134 133 135 134 132 133 135 132 135 134 134 
134 135 135 135 133 134 133 135 133 133 135 135 132 132 133 133 132 
133 132 131 131 133 134 132 130 131 132 132 133 133 132 131 131 131 
130 130 127 131 132 133 131 131 130 129 130 131 132 130 130 132 130 
133 129 129 131 131 131 131 132 131 129 129 132 131 128 127 128 129 
128 129 130 131 128 129 128 128 126 128 130 131 131 129 129 129 129 
129 128 126 126 127 128 128 128 127 128 128 129 127 126 126 125 125 
125 125 125 125 125 124  87 123 121 122 123 123 123 121 122 124 124 
124 123 123 124 125 124 126 127 125 126 125 125 124 122 125 121 106 
 91  84  82  85  84  82  80  73  71  77  82  84  90  85  79  85  85 
 85 103 111  82  69  66  56  68  92  92  97  91  85  83  82  96  89 
 87 108 120 126 124 128 128 127 129 130 129 128 130 130 128 132 128 
129 129 130 129 130 129 131 128 129 128 131 129 130 131 131 130 129 
130 131 130 130 130 131 131 130 129 133 132 133 132 130 131 132 133 
132 132 133 133 132 133 130 130 134 132 134 132 133 131 133 132 133 
133 132 133 133 131 133 132 135 134 133 133 135 134 134 133 134 133 
131 132 132 133 134 133 134 131 133 134 135 133 134 133 135 133 133 
133 134 133 135 134 136 133 132 131 131 133 137 134 118  72  55  66 
 79  83  84  79  81  75  74  75  76  78  74  71  70  71  68  74  93 
117 129 130 133 132 135 135 133 133 133 130 129 129 131 133 132 133 
134 132 134 133 134 131 132 132 130 132 133 132 131 131 132 132 129 
132 131 131 131 131 132 132 132 131 133 133 131 131 131 130 130 131 
133 132 133 130 130 129 130 130 130 129 129 129 129 129 130 129 129 
130 130 130 130 129 129 127 129 129 129 129 127 129 129 128 130 129 
128 127 128 127 129 125 128 127 130 130 129 129 128 127 126 127 127 
126 126 126 127 125 126 126 126 126 127 127 126 123 126 128 126 126 
126 125 124  87 123 122 123 123 123 124 124 125 125 124 126 125 126 
126 126 124 126 126 125 124 124 126 125 121 125 121 114 102  91  83 
 86  84  82  83  83  83  85  89  88  88  88  89  93  99 100  96  93 
 74  70  81  87  93 100  97  94  88  92  93 106 105  88 103 117 122 
124 129 130 128 130 132 129 128 133 127 129 131 128 131 130 127 129 
130 131 128 131 128 130 128 129 131 132 132 131 133 130 129 129 129 
127 128 129 132 133 131 133 133 134 132 131 132 131 130 132 133 134 
132 132 134 133 133 134 132 134 131 132 134 133 134 134 135 132 131 
133 133 134 132 134 134 134 134 135 134 133 132 133 133 133 134 135 
134 135 134 134 133 135 133 133 134 133 134 137 134 136 133 136 134 
135 133 136 134 135 136 135 134 131 116  75  62  73  82  87  88  88 
 80  81  80  77  76  74  77  79  78  76  77  73  67  73  99 117 125 
133 134 135 134 134 132 130 134 134 133 133 134 134 134 132 132 134 
133 135 132 133 134 134 134 137 132 132 132 133 133 132 132 132 135 
134 133 133 132 134 130 131 133 134 131 132 130 130 130 129 129 130 
131 131 129 130 129 129 129 130 130 129 129 129 129 131 131 131 130 
129 129 130 128 130 127 129 130 130 130 131 128 127 129 130 126 128 
129 129 127 129 130 132 131 130 129 128 128 128 129 127 126 127 126 
126 127 127 126 126 125 128 128 125 124 126 128 126 125 125 125 123 
 91 123 122 123 123 123 122 123 123 124 124 125 124 125 124 126 123 
123 123 126 125 124 125 126 123 124 123 117 111  96  87  88  85  85 
 86  89  88  85  87  83  77  80  81  77  80  80  80  86  82  81  84 
 84  83  87  91  90  93  91  95 111  92  90 112 122 126 125 126 130 
128 128 130 130 127 130 129 129 129 127 130 130 129 132 129 128 128 
130 127 131 128 130 132 132 132 131 130 128 130 130 130 129 130 128 
130 130 131 132 131 133 131 131 133 132 130 134 132 135 133 133 131 
130 131 133 132 131 132 130 133 133 131 131 132 131 134 133 131 133 
131 133 133 132 133 133 132 133 133 135 134 133 134 134 132 133 133 
133 131 134 134 132 129 129 134 135 132 133 133 132 133 133 134 133 
133 131 131 131 129 115  74  67  79  81  82  83  81  82  77  81  83 
 78  78  77  80  75  80  81  76  74  75  70  77 103 118 130 134 134 
133 134 133 131 132 132 133 132 132 130 131 131 133 133 131 133 134 
131 130 132 134 134 132 133 133 130 133 132 129 129 131 130 132 133 
133 134 132 130 131 131 130 130 131 130 131 129 133 130 133 130 129 
130 131 130 131 129 128 130 128 131 129 130 129 130 131 130 129 131 
129 131 129 130 130 131 127 130 129 130 128 128 129 129 126 128 130 
126 130 129 129 128 126 127 128 126 127 125 128 128 125 125 126 125 
124 128 126 126 126 125 125 125 126 125 125 125 125 124  83 122 120 
121 121 123 121 123 123 123 124 122 124 124 125 125 122 124 125 124 
123 124 125 125 122 123 122 123 117 105  93  80  74  81  81  84  87 
 88  87  86  92  96  99 100  87  83  85  86  85  82  84  89  88  88 
 91  94  86  81 103  89  78 103 115 122 125 127 128 128 128 129 130 
129 128 129 130 129 130 128 129 130 128 130 130 128 128 129 130 130 
127 128 130 127 128 130 130 130 130 130 134 132 133 135 132 132 130 
126 129 132 131 130 127 127 130 128 131 130 131 130 130 130 131 132 
132 131 132 133 130 133 131 132 134 132 131 132 131 132 130 131 130 
132 131 132 132 134 131 133 132 130 132 132 134 133 134 134 132 131 
132 132 131 131 131 131 132 132 133 133 132 131 132 128 133 131 131 
130 121  90  67  77  76  77  77  85  85  75  71  70  77  77  76  75 
 74  75  79  78  78  79  72  75  73  79 105 119 127 130 130 132 133 
132 131 128 131 132 133 132 131 131 132 131 130 132 133 134 133 131 
130 133 131 132 134 133 132 131 130 131 131 129 132 131 130 132 130 
130 132 131 133 132 130 128 128 130 128 131 129 129 130 132 129 127 
127 127 125 129 129 129 127 128 127 125 127 127 128 130 127 128 129 
127 128 128 128 128 126 128 127 128 129 127 126 128 125 125 126 128 
129 126 127 126 126 126 127 124 127 128 127 127 127 126 126 126 125 
124 126 127 126 126 125 126 125 123 124 123  87 124 121 123 123 124 
122 124 125 125 124 124 125 126 124 123 125 124 125 125 124 125 126 
123 124 125 125 125 123 116 106  90  83  85  79  82  84  85  92  97 
101 108 104 105 105 104 101  97  86  89  85  93  92  93  91  87  88 
107  95  85 105 116 124 129 129 128 127 129 128 130 129 128 129 130 
129 130 129 130 128 130 129 130 129 129 128 128 130 129 128 132 131 
133 131 132 134 134 125 118 107  94  85  82  90 102 109 125 130 131 
129 132 132 131 131 135 134 134 131 133 134 131 130 132 130 130 132 
134 130 133 134 135 133 132 134 136 134 132 132 133 132 133 132 133 
132 133 132 134 135 135 134 134 135 136 134 133 134 132 134 133 131 
131 130 133 135 134 133 132 132 131 132 135 131 131 131 127 114  72 
 70  86  85  81  77  79  75  73  74  79  80  79  78  80  81  79  78 
 80  83  79  76  78  73  76 101 114 124 129 133 131 131 130 130 133 
131 129 131 133 135 130 133 133 132 132 132 133 133 133 130 135 132 
134 133 131 131 132 130 133 130 132 133 133 131 131 132 133 132 133 
133 133 133 132 130 131 128 128 128 132 130 130 128 129 129 130 128 
129 128 128 126 128 130 128 128 129 129 129 128 130 129 129 127 128 
128 128 127 130 131 130 129 127 127 128 129 131 128 127 128 127 128 
128 127 128 129 128 128 129 127 128 127 127 125 127 126 127 126 127 
124 127 127 127 129 128 125 122  84 122 121 122 122 125 124 123 123 
125 124 125 124 126 124 125 126 127 126 126 126 125 124 124 126 127 
125 124 124 123 115 101  86  74  71  81  80  80  84  86  83  91  97 
110 100  86  94  92  92  88  88  89  84  85  76  74  91  82  76 101 
114 122 129 127 127 128 127 128 128 130 131 130 129 130 131 130 131 
129 129 130 131 131 130 129 130 132 130 130 132 130 129 132 136 135 
118  90  66  67  70  81  89  89  87  84  78  75  80 103 120 128 129 
130 131 132 131 132 133 132 134 132 132 133 133 135 133 134 133 132 
133 134 134 131 133 134 132 131 132 133 132 134 132 132 132 132 131 
131 133 133 133 136 135 136 133 133 135 132 134 134 133 133 131 134 
133 133 133 133 135 134 134 135 133 132 126 127  95  68  75  83  85 
 82  80  78  81  80  81  76  75  82  82  81  81  85  77  78  78  82 
 81  79  85  74  96 120 116 130 131 136 133 135 134 133 135 132 134 
136 133 134 133 133 133 133 133 134 133 133 131 132 128 131 132 132 
131 131 130 130 133 130 133 130 130 130 131 132 131 132 132 132 131 
129 131 129 130 131 131 131 130 132 129 129 129 129 129 128 129 131 
128 129 130 129 127 129 128 128 128 129 128 129 129 130 130 128 126 
128 128 126 128 127 128 129 126 130 128 127 127 127 127 127 127 129 
128 127 127 128 126 127 127 128 127 127 127 128 127 126 125 124 124 
126 126 125 125 122  84 120 119 121 122 122 123 124 123 125 124 123 
122 123 123 125 125 125 126 126 124 124 124 124 124 125 125 125 123 
124 123 118 100  83  74  73  80  81  82  81  77  81  82  79  80  68 
 79  91  90  90  88  82  76  74  82  91  88  80 102 116 123 128 127 
126 126 128 129 127 127 128 129 129 129 129 129 131 130 130 129 129 
129 131 127 129 127 128 129 127 126 130 133 135 123  91  66  73  86 
 95  98 101 103 102 102  98  96  93  93  84  86 101 122 128 130 131 
129 132 132 133 130 131 131 133 132 133 130 130 131 132 129 133 133 
132 133 130 134 132 133 135 132 133 132 131 132 133 130 131 133 133 
132 133 134 135 134 134 135 133 134 134 133 133 133 133 130 131 132 
132 134 133 132 135 132 132 127 120  79  64  77  75  79  79  82  76 
 76  79  78  79  77  79  77  77  80  81  80  82  83  85  83  78  84 
 77  79 107 117 125 131 133 132 131 130 134 131 133 134 133 133 132 
130 130 131 132 132 133 131 131 133 134 130 132 131 131 132 132 131 
130 130 131 130 131 128 131 130 131 129 128 129 129 130 131 127 131 
130 130 131 128 132 129 129 130 127 128 129 127 128 128 128 128 130 
131 127 129 128 129 127 129 129 128 128 127 129 129 130 130 129 129 
132 130 129 129 128 129 128 130 127 127 126 125 128 130 128 128 127 
128 126 127 127 127 127 125 127 126 126 126 124 126 124 123 124 124 
123 123  83 121 121 121 124 124 124 122 125 125 124 124 125 125 125 
125 125 126 127 127 125 126 126 125 124 125 125 126 127 124 123 122 
120 108  89  79  75  73  77  82  85  90  90  87  89  89  93  97  90 
 80  77  68  73  85  90  78  86 107 119 124 129 126 126 129 129 128 
129 128 129 128 130 131 130 130 129 131 130 130 130 129 132 132 131 
131 130 132 129 130 130 132 132 114  82  71  85  95 101 108 106 105 
104 104 108 107 111 106  99  93  82  77  93 117 128 132 131 133 131 
133 131 133 131 133 133 135 133 131 133 132 131 132 133 132 133 133 
133 133 132 134 133 134 134 133 134 134 133 134 133 133 134 134 136 
135 135 136 135 136 135 135 134 134 134 135 132 134 134 133 135 135 
135 133 134 130 127 112  71  79  84  75  71  72  75  75  76  78  78 
 87  86  82  81  85  83  80  81  80  84  82  82  82  83  83  67  98 
114 121 128 133 133 133 132 134 134 133 134 135 133 134 132 132 133 
133 132 133 132 133 131 133 133 134 134 135 135 134 133 131 129 130 
132 131 134 132 130 132 133 133 131 129 131 133 132 130 133 130 129 
129 128 129 129 130 129 130 131 131 130 128 129 129 131 133 129 130 
129 129 129 129 129 129 129 128 130 128 130 130 128 129 130 130 128 
129 128 128 126 129 129 129 129 128 128 130 128 129 128 128 128 128 
128 127 126 125 127 125 126 127 126 125 126 128 126 124 125 124  85 
124 121 123 123 121 123 124 122 121 121 121 122 123 123 123 124 126 
125 123 125 126 125 125 126 126 126 125 124 123 124 126 122 121 111 
 96  83  77  75  73  69  76  79  89  90  85  81  78  60  53  68  77 
 82  74  77  97 112 123 126 128 128 128 129 128 127 127 127 128 128 
128 128 129 129 129 130 129 129 127 129 127 127 130 128 130 128 128 
128 128 128 130 104  66  67  88 104 107 103 109 107 106 107 106 108 
111 106 110 110 104 101  88  84  92 115 126 128 130 130 130 133 132 
133 132 133 134 131 130 133 132 133 135 130 133 132 132 133 131 131 
132 132 133 134 134 134 134 131 133 131 131 132 132 135 134 135 136 
134 135 133 134 134 133 132 134 133 134 133 133 134 134 133 138 132 
124 123  94  70  85  83  79  84  79  73  78  76  74  72  81  76  68 
 69  79  86  81  81  81  75  78  84  83  78  78  69  91 112 111 127 
128 136 134 133 133 131 132 133 133 131 132 133 133 133 132 130 131 
131 132 132 132 130 131 131 132 132 130 132 131 132 131 130 129 131 
128 129 130 128 130 128 129 130 132 129 132 130 131 128 128 130 128 
126 128 127 128 127 128 127 127 128 130 132 132 130 131 130 129 129 
129 128 129 128 129 129 127 129 131 128 128 128 130 128 131 129 130 
127 127 129 128 128 128 126 127 127 127 128 128 127 127 129 128 126 
126 127 127 126 128 123 126 125 124 126 125 124 122  81 123 120 121 
122 122 122 123 125 125 124 124 124 123 124 124 126 125 126 125 124 
126 126 125 125 125 124 125 124 125 124 123 123 126 124 120 110 100 
 84  78  75  79  83  84  79  73  68  75  77  85  80  68  78  99 118 
126 128 130 130 129 129 129 129 130 128 129 129 128 128 128 127 126 
128 131 130 132 128 128 129 128 128 130 130 131 130 132 130 132 128 
113  74  69  90 105 107 104 109 108 114 116 111 109 109 102 100 100 
106 107 105  97  83  77  93 117 126 131 129 131 132 132 130 132 131 
131 133 130 131 132 131 132 132 131 132 133 132 133 132 132 133 132 
133 133 134 134 134 134 134 134 135 135 133 133 136 136 135 136 135 
135 134 133 133 134 133 134 134 134 134 133 134 134 132 125 122  91 
 65  82  79  79  80  71  70  72  67  71  98  88  61  64  71  88 100 
 80  79  86  80  84  82  78  69  71  77  83 107 112 120 132 134 133 
131 133 131 132 133 133 132 130 131 131 132 132 133 132 132 131 131 
132 132 133 131 132 134 135 131 129 130 131 132 133 131 131 130 132 
129 132 131 133 132 132 129 129 130 132 132 129 129 129 129 131 131 
131 128 130 128 130 127 128 129 129 128 129 131 131 129 130 131 130 
128 128 128 130 129 132 132 131 129 131 129 131 127 128 128 128 130 
127 128 128 127 127 127 128 129 128 127 127 126 127 126 127 126 127 
126 127 126 125 124 125 125 125 125 123  83 122 117 120 122 122 122 
125 123 124 124 125 125 124 123 123 125 126 126 125 127 126 124 126 
124 124 125 125 124 125 124 122 125 124 122 125 125 123 120 112  98 
 85  80  70  68  65  66  65  74  83  98 110 123 127 122 126 125 128 
127 129 129 128 129 128 128 127 128 127 129 128 129 129 128 130 129 
130 129 127 130 127 127 128 127 129 128 129 129 128 117  90  76  90 
109 114 111 109 113 113 112 106 101 100 102 104 104 104 105 109 105 
110 103  87  81 101 118 127 130 130 131 132 130 130 131 131 131 131 
132 131 131 132 131 129 132 131 133 132 131 132 135 133 132 132 131 
132 132 133 134 134 134 134 133 136 135 134 135 134 135 135 133 133 
129 130 130 133 134 133 132 132 132 134 130 121 123  91  71  73  65 
 70  73  70  73  70  66  91 122  91  96 119 123 106 118 111  90  94 
 69  78  94  97  75  66  72  72  98 108 123 127 132 133 131 131 132 
131 131 130 130 131 131 133 133 134 132 130 132 131 131 131 129 132 
131 133 132 131 129 129 129 129 131 127 128 130 131 134 131 130 129 
129 130 131 132 131 132 129 131 129 131 130 129 128 127 129 127 130 
128 130 130 130 131 131 132 130 130 131 129 128 128 127 128 129 127 
128 127 128 128 129 130 131 129 131 129 127 127 128 127 125 128 128 
129 126 127 127 128 128 126 128 125 127 127 126 126 126 125 125 125 
126 125 126 125 124 125 124  81 124 119 119 122 124 123 122 122 124 
123 123 123 122 122 124 123 124 122 125 125 125 125 123 122 125 125 
126 124 123 125 124 125 124 125 125 125 126 124 127 125 129 123 125 
122 122 122 124 127 128 125 126 124 124 125 125 124 126 125 127 128 
128 127 128 128 128 130 130 127 128 127 128 127 128 128 128 127 126 
127 127 126 127 128 128 128 130 126 122  96  74  94 108 112 114 116 
116 112 100  95 100 101  99 102 103  97 102 106 102 104 103 106  97 
 83  84 108 123 126 129 131 128 131 130 132 130 131 130 131 130 130 
131 132 132 131 131 131 131 130 130 132 131 130 130 133 134 132 135 
139 140 137 138 134 136 134 130 132 132 130 133 131 129 129 130 130 
132 131 133 132 133 131 131 128 119 119  83  70  75  71  67  77  77 
 69  70  64 109 123  81 113 123 126 113 120 103  67  68  64  73  78 
 80  70  79  77  77 106 108 118 127 130 133 132 133 134 133 133 133 
132 131 129 131 132 132 131 131 129 132 131 131 132 132 132 129 129 
132 129 129 128 128 131 128 130 130 129 130 128 131 129 128 130 131 
128 128 129 130 130 132 130 130 130 129 129 128 127 130 129 129 129 
128 129 131 130 129 129 126 128 128 132 128 128 128 126 127 127 128 
126 128 128 127 127 130 129 131 128 125 126 127 125 127 127 127 127 
129 126 127 128 125 125 126 126 126 126 126 125 125 123 123 123 125 
124 124 123 123  85 124 119 121 122 121 123 125 122 125 123 124 125 
125 124 124 123 126 124 127 124 124 125 126 123 124 125 126 126 125 
126 125 124 125 124 126 126 125 127 126 125 128 124 125 125 124 124 
122 124 127 123 127 124 126 127 128 124 125 125 127 129 130 130 128 
127 127 129 129 129 129 128 128 128 129 130 130 130 128 128 128 127 
130 131 131 130 130 127 114  81  86 109 107 101 105 112 104  96  99 
101 104 105 105 105 102 100 108 108 105 109 105 105 105  90  88  97 
115 127 129 132 133 130 133 133 132 131 131 131 131 130 133 132 133 
130 132 131 132 132 135 132 136 137 141 143 136 115 103  84  70  74 
 84  89 105 116 130 133 135 135 133 132 135 134 134 132 133 132 133 
131 132 132 133 130 124 126  93  77  77  79  80  83  82  75  75  71 
 95  91  86 116 124 126 124 115  91  76  86  76  80  79  75  63  70 
 74  78 106 105 122 126 132 134 133 134 133 135 133 133 132 131 131 
132 133 132 134 135 131 129 131 132 132 132 131 133 130 130 132 134 
130 130 131 131 132 133 131 131 129 131 129 129 130 129 130 130 130 
130 128 130 129 129 127 128 129 128 128 128 128 130 130 131 128 127 
130 130 131 131 128 128 128 127 126 126 128 128 126 128 127 128 129 
128 126 126 130 131 129 129 129 128 127 128 127 129 127 128 127 128 
128 126 125 126 126 126 126 126 128 127 124 125 124 125 123 124 123 
123  82 124 120 121 123 122 124 124 121 124 123 124 123 123 124 123 
123 125 123 124 125 123 126 125 126 126 126 127 126 124 125 125 126 
126 127 127 126 126 126 126 127 126 124 126 127 124 127 128 125 126 
127 127 127 125 126 125 126 128 126 126 128 129 127 127 129 129 129 
128 130 130 128 128 128 128 128 127 128 127 129 130 129 130 128 129 
129 129 125 103  78 101 108 105 101 105 108 101  94 102 107 105 105 
106 103 102 102 102  94  98 108 107 106 103 102  95  91 106 122 126 
131 134 131 133 132 131 131 133 133 132 130 132 134 133 133 131 133 
134 132 133 138 141 140 124  91  57  41  46  57  64  65  61  58  56 
 60  71  94 118 128 131 133 129 133 133 133 134 132 131 130 132 132 
132 129 122 108 104  84  81  74  80  96  84  79  76  72  73  86 100 
118 126 125 117  98  71  63  67  73  83  82  76  65  80  84  83  99 
101 120 127 131 133 135 133 133 133 131 133 132 134 132 132 133 132 
132 132 132 134 132 133 130 129 129 133 129 130 131 133 130 131 130 
132 130 130 128 129 129 130 131 132 133 132 132 132 130 131 130 131 
129 128 129 129 129 128 128 127 128 129 129 132 130 130 130 130 129 
128 130 130 129 128 128 129 128 128 127 128 128 128 129 128 129 130 
129 128 128 129 129 127 127 127 126 127 125 127 127 126 125 126 126 
127 126 127 128 128 128 126 123 125 124 123 124 125 125 125  82 122 
119 121 122 121 123 125 121 123 122 122 122 123 125 125 123 123 122 
124 124 124 124 123 125 127 126 127 125 125 126 127 125 124 126 125 
123 125 124 125 126 126 125 126 128 127 129 128 128 129 127 128 127 
127 126 127 126 126 126 126 126 127 127 127 128 130 128 129 129 130 
128 129 126 127 127 126 127 127 127 129 129 127 126 127 128 128 120 
 94  89 115 114 108 102 110 108 105 105 107 109 102 100 101 101 110 
102  95 100 104 104 104 103 101 100  88  78 100 119 129 130 133 132 
132 132 131 134 133 133 133 130 131 131 130 134 130 131 132 132 137 
139 124  86  47  54  76  86  93  98  90  90  91  91  91  87  73  63 
 70  98 118 128 132 133 134 133 134 133 131 132 133 129 130 131 120 
108 108  80  72  67  72  74  73  75  77  73  69  79 100 102 121 117 
 93  66  63  64  68  72  70  65  63  69  85  74  85 104 104 122 126 
131 130 132 134 129 132 130 131 133 134 133 131 132 132 132 130 131 
134 132 133 131 131 130 133 130 132 130 131 131 132 131 130 128 129 
128 129 129 129 128 129 130 130 131 131 130 130 129 130 129 130 129 
129 129 129 129 128 129 127 127 128 128 129 127 128 130 130 129 128 
128 128 128 128 128 128 126 127 127 128 129 128 129 129 128 128 128 
127 128 127 129 128 125 127 126 127 126 126 129 126 125 127 127 128 
125 124 125 125 124 124 126 123 124 124 124 123  84 123 119 121 121 
123 125 124 123 125 124 124 128 125 124 124 121 122 124 123 126 123 
125 125 126 127 126 126 125 127 127 127 125 126 125 126 125 125 126 
125 125 128 128 127 128 128 130 128 127 129 128 129 127 128 126 128 
126 126 127 129 127 128 128 127 127 130 130 130 129 129 128 129 128 
129 130 130 129 127 127 129 128 128 129 130 131 129 116  94  97 116 
114 109 106 109 106 106 104 104 104 111 121 121 115 114 103  92  99 
107 104 105 104 100 105  96  85  95 114 126 128 127 133 133 134 133 
135 133 133 134 132 133 130 135 134 133 132 134 135 138 118  71  54 
 83  96  98  96  95  89  81  85  87  86  88  95  96  82  70  74  91 
113 128 131 133 133 135 134 133 133 133 132 132 129 125 102 114  89 
 71  71  73  75  77  75  78  79  75  73  72  68  67  65  51  69  79 
 73  74  77  72  68  67  66  64  66  88  94 103 120 130 130 131 131 
132 133 132 131 132 130 130 133 133 133 133 133 134 133 132 132 132 
131 132 132 132 130 132 132 131 131 131 132 132 130 130 132 131 130 
131 130 130 131 131 132 132 129 130 130 130 130 130 129 130 129 130 
130 130 130 127 129 130 129 130 129 128 129 131 129 130 128 129 129 
127 130 128 126 129 128 129 129 129 129 129 128 131 129 128 129 129 
129 128 126 126 127 127 128 125 126 126 126 128 127 128 125 127 128 
127 124 123 125 125 125 124 124 123  83 122 119 122 121 121 122 122 
120 123 123 123 128 124 124 125 122 123 124 125 126 125 126 127 125 
126 124 124 124 126 126 125 126 126 125 126 125 126 125 126 127 128 
126 127 129 130 129 128 127 128 130 129 129 128 127 127 126 128 127 
127 129 129 128 129 127 130 131 129 130 129 127 127 127 127 128 128 
129 127 127 129 128 130 130 128 128 126 108  90 101 116 104 106 113 
109 104 104 108 114 125 124 120 112 100  99  94  93  96 107 104 104 
104  99 104 104  85  91 113 124 132 132 132 133 133 134 134 134 133 
134 131 132 130 134 132 132 132 133 132 110  66  59  83  99 102  97 
 93  87  86  88  86  83  88  89  86  82  81  87  75  71  87 107 121 
127 131 132 131 131 130 129 132 132 131 126 112 115  93  76  80  83 
 82  91  90  86  84  82  80  86  74  69  74  82  94  93  74  76  78 
 77  70  71  69  62  68  95 100 114 124 129 132 131 130 133 130 133 
132 134 133 132 130 132 131 131 130 132 132 130 132 132 131 131 131 
131 130 130 129 131 130 130 131 132 130 131 128 129 128 129 129 129 
130 131 130 131 129 130 131 130 129 129 130 132 129 129 128 129 128 
126 126 127 129 132 130 129 131 131 129 129 128 128 128 127 127 126 
127 131 128 127 128 128 130 130 125 128 126 127 126 128 127 128 126 
127 125 123 128 126 126 124 124 128 127 127 126 128 128 126 124 125 
124 126 125 125 124 124  84 123 120 121 120 121 124 122 123 124 123 
123 126 125 127 127 125 125 124 124 126 126 125 125 126 127 127 126 
126 127 128 129 126 125 126 125 124 126 125 127 126 128 128 127 126 
127 127 126 127 127 127 128 128 130 127 129 127 127 127 128 127 129 
130 129 128 131 130 128 129 130 129 129 127 128 127 129 131 128 130 
129 128 129 128 128 126 124 106  93 114 114 104 111 114 109 103 106 
112 111 104 100  93  89  94  95  92  93  97 107 105 105 103  99 103 
107  91  83 107 125 127 131 131 131 131 133 132 132 132 132 133 134 
135 134 133 131 133 130 117  78  60  83  96 103 104 102  94  93  95 
 91  89  88  88  92  89  87  84  87  85  75  70  93 113 126 131 134 
133 132 132 132 131 133 132 128 107 110  94  76  77  77  83  89  87 
 91  85  85  89  88  92 101 107 100  94  82  73  75  76  75  80  95 
 78  62  86  95  96 119 125 130 129 131 133 132 132 132 132 133 132 
131 133 133 133 135 134 134 134 132 132 132 131 132 132 132 132 130 
130 133 130 132 130 131 130 130 129 131 130 131 130 130 131 131 130 
132 131 130 131 130 132 132 129 130 128 129 129 128 128 127 128 129 
129 130 128 130 133 133 131 130 130 128 126 129 126 128 129 130 128 
129 130 129 129 127 128 128 128 129 127 128 128 129 126 128 127 126 
127 124 124 127 127 128 127 127 127 127 126 124 124 126 124 126 124 
124 124 124  87 121 118 122 122 121 124 122 123 124 124 124 125 125 
127 125 124 125 123 126 124 126 125 126 127 126 128 127 126 126 127 
127 124 126 125 125 126 126 125 125 127 126 128 129 127 127 127 126 
126 125 128 126 129 128 126 127 126 127 126 127 127 127 126 125 127 
131 129 129 127 129 129 130 128 129 128 130 130 126 130 129 129 129 
127 128 127 123 101  92 117 111 101 108 109 110 105  95  90  83  83 
 92  95  95  95  92  88  81  82  99 106 106 107  98 100 108  84  82 
105 123 129 129 130 129 132 132 133 131 132 133 132 133 133 133 130 
132 131 125  92  66  77  89  93  78  84 107  96  91  88  84  79  81 
 86  87  91  88  90  88  86  81  73  81 100 116 126 131 131 133 132 
132 131 131 132 127 120 105  95  73  76  78  81  82  83  82  83  87 
 88  87  89  91  91  91  90  86  82  83  80  71  64  78  74  63  89 
 92 101 119 131 129 130 134 130 131 133 134 132 132 131 132 132 132 
133 134 134 132 133 132 132 132 130 132 129 129 131 130 132 134 129 
132 129 128 128 130 128 131 128 129 128 128 130 128 128 129 128 128 
132 132 132 130 129 129 129 129 128 126 129 130 128 131 128 128 129 
130 130 130 131 130 128 129 128 130 127 127 128 127 127 129 129 126 
129 127 127 126 130 129 128 128 129 128 125 126 124 125 125 125 125 
126 124 125 126 127 127 124 125 126 123 125 123 124 125 124 125 122 
 86 121 117 119 120 120 121 124 122 124 122 124 123 126 124 124 124 
122 124 126 125 125 124 122 124 126 124 126 124 124 125 124 126 125 
125 125 123 123 125 125 125 127 127 127 125 126 126 129 124 124 127 
128 125 126 126 126 125 127 126 126 124 126 126 125 127 126 129 129 
128 129 128 127 128 129 128 128 130 128 129 127 126 129 128 127 128 
121 103 101 116 107 111 114 108 111 112  97  97  96  97  93  90  80 
 74  79  91  98 107 108 103  89  87  92  97 111  90  76 107 121 127 
129 131 132 132 132 131 132 133 134 132 132 130 130 129 129 127 105 
 71  63  77  89  90  87  82  87  91  85  83  76  71  74  70  77  81 
 85  91  91  86  80  76  67  84 103 118 125 131 131 129 131 130 129 
131 130 127 111 103  93  77  80  76  79  78  77  82  88  93  92  90 
 90  87  85  82  67  71  79  78  76  79  84  72  75  85  90 115 125 
131 127 127 127 131 132 131 133 132 133 131 133 133 133 132 130 132 
133 131 132 129 128 132 129 130 131 130 130 129 131 129 129 130 130 
128 129 128 128 129 130 127 129 127 129 129 129 129 130 128 130 130 
128 128 128 131 129 130 129 129 130 130 130 129 127 128 130 128 130 
128 130 128 127 129 127 127 128 127 126 126 127 126 127 127 126 128 
130 129 129 127 126 128 128 127 127 127 126 126 126 126 128 125 125 
127 126 123 124 125 125 123 124 124 125 124 123 124 123  85 124 118 
119 122 123 121 123 123 125 121 124 124 125 124 124 125 125 125 125 
125 126 123 123 123 123 126 126 124 126 125 125 124 125 125 126 124 
124 126 126 125 128 128 127 127 127 127 128 127 128 128 127 127 128 
128 127 126 128 126 125 123 125 127 128 128 126 128 128 128 129 129 
129 130 132 130 130 129 129 130 130 128 130 128 128 129 122 103 100 
122 117 110 116 116 114 118 101  97  98  84  80  84  92 105 114 118 
115 108 100  96 100 103 101 105 121  87  76 108 124 130 132 130 134 
131 130 132 134 132 131 130 135 133 133 134 132 120  85  58  75  87 
 91  93  84  77  82  79  77  79  79  78  75  74  81  80  86  83  92 
 93  85  77  65  68 102 110 124 133 132 133 134 131 135 132 132 130 
123 108 104  88  87  80  79  80  84  84  86  89  94  95  96  93  92 
 87  80  79  80  73  75  79  74  67  82  85 107 124 132 134 132 132 
132 131 134 132 131 133 133 132 134 132 134 134 133 132 134 132 133 
132 131 133 132 132 133 130 131 125 130 129 131 133 131 131 129 128 
130 130 130 130 130 128 130 129 130 129 131 130 130 129 128 127 131 
131 129 130 130 129 130 129 130 129 127 129 130 128 130 129 130 130 
131 131 130 130 129 129 128 127 127 126 127 127 127 127 128 127 128 
129 128 128 128 125 125 125 125 125 125 126 126 127 126 127 128 127 
127 126 124 124 125 122 123 124 125 127 125  86 122 119 120 120 122 
122 122 121 122 123 124 124 124 123 125 125 124 126 127 124 124 124 
122 123 126 124 124 127 127 126 127 126 127 125 127 126 125 127 127 
127 126 128 126 125 126 127 126 125 126 128 127 128 128 128 127 126 
128 127 127 127 127 126 128 128 127 128 129 130 130 130 132 130 130 
128 130 129 129 128 131 127 128 130 129 127 122 104  88 110 114 103 
107 113 110 112 105  89  89 102 118 120 120 118 116 104  99  95  96 
100 104 105  99 109 111  74  80 114 126 131 133 135 133 132 133 130 
130 131 131 133 135 133 134 131 126 108  69  65  86  86  84  87  82 
 75  72  78  85  88  88  89  85  82  83  80  75  69  77  90  80  74 
 72  74 102 111 118 128 131 134 132 134 134 131 131 131 130 118 100 
 83  85  84  82  80  81  83  87  90  93  97  96  92  89  90  92  84 
 78  73  69  66  68  81  86  99 121 131 132 134 136 131 134 132 134 
132 129 132 132 133 134 132 133 132 131 130 133 131 133 131 132 132 
133 132 132 130 131 129 131 130 130 131 132 130 131 128 130 130 132 
130 130 129 128 129 129 129 130 129 130 130 129 130 129 130 132 130 
131 130 131 129 129 127 128 129 128 127 128 127 130 127 128 128 127 
126 129 125 126 126 127 126 126 127 126 129 131 128 129 127 126 126 
127 125 126 128 127 127 127 126 126 127 125 126 127 126 126 126 126 
124 125 125 125 126 126 126 123  88 122 120 122 122 123 125 124 122 
124 122 123 125 122 123 122 125 125 125 126 126 124 123 124 124 126 
123 125 126 126 127 126 126 126 125 128 127 124 126 126 126 127 127 
127 128 127 126 128 127 128 128 126 128 125 127 128 127 128 128 129 
128 125 125 126 127 127 127 128 129 128 129 131 130 131 130 131 129 
131 129 128 127 128 129 130 127 124 109  82  96 116 105 103 111 108 
110 104  90 114 122 114 110 108 102  98  94  91  89  95  99 103 104 
105 117 105  68  92 116 121 130 132 128 130 130 131 131 132 132 134 
130 131 133 133 126 126  97  59  69  81  74  82  93  82  76  75  77 
 81  86  89  78  79  82  79  81  82  83  86  86  72  67  70  72  85 
108 117 127 130 135 136 132 132 133 132 133 132 126 109  95  92  84 
 83  80  83  86  88  86  86  88  84  83  81  83  83  88  84  80  76 
 71  80  77  91 117 128 132 133 135 135 133 133 133 132 131 131 132 
130 131 130 131 132 131 130 132 133 132 132 131 133 133 134 131 131 
130 130 130 133 130 130 131 130 131 130 129 133 129 130 129 129 127 
129 128 131 130 128 130 131 129 130 129 130 129 130 129 131 131 130 
129 130 127 127 128 128 129 129 128 129 127 129 129 129 128 127 127 
128 127 127 127 127 128 128 127 130 126 128 127 128 126 128 124 125 
125 124 123 124 125 126 125 125 126 126 126 126 125 126 124 125 126 
125 126 124 123 121  86 123 122 124 125 124 124 124 123 124 125 123 
123 124 125 127 126 126 124 124 125 124 124 125 126 127 127 127 126 
126 126 129 126 128 125 127 127 125 127 127 124 123 126 128 126 126 
126 126 125 127 127 126 128 126 129 130 128 127 128 128 128 126 127 
127 128 129 127 127 130 130 130 131 131 129 131 132 130 129 129 129 
128 131 129 130 128 126 117  93  96 118 108 111 117 113 108 104  99 
107 109 105  94  88  93  96  91  95  97  95  98 103 105 110 116  89 
 68  98 120 126 130 130 131 133 132 132 132 133 132 131 135 134 131 
135 130 132  92  59  82  95  79  91  93  81  76  73  74  96 112  90 
 81 101 106  88 108 103  90  93  80  79  78  94  82  72 106 109 124 
130 132 132 132 134 133 133 130 131 129 128 111  91  81  77  81  81 
 85  89  90  90  91  91  93  93  90  87  82  82  86  73  72  76  91 
116 128 131 132 133 135 133 135 134 132 132 132 133 133 131 133 134 
132 131 132 132 132 134 134 132 131 133 133 134 133 131 132 132 130 
132 130 131 132 131 131 129 131 131 129 130 129 130 130 130 128 129 
131 130 129 130 129 128 129 131 130 131 130 132 131 130 129 130 127 
127 128 129 130 130 128 130 130 129 129 128 127 126 128 128 126 126 
126 127 128 127 129 130 128 128 127 128 127 127 125 127 126 127 125 
126 125 126 124 126 128 127 126 126 126 127 128 127 128 127 126 124 
124 123  85 122 121 122 122 122 123 122 119 122 121 122 123 123 125 
123 125 126 125 125 124 125 127 126 125 126 126 125 127 125 124 126 
124 127 125 125 126 126 127 126 126 127 125 125 125 126 124 126 126 
128 126 126 128 127 128 126 126 127 127 125 127 127 128 127 126 129 
129 128 127 128 130 130 127 128 130 128 129 129 131 129 127 130 128 
130 128 127 121  98  87 108 111 113 109 110 112 111 106 105 101  96 
 96  99  97  94  95  97  93  97 101 101 106 110 105  76  73 111 125 
128 131 131 132 132 132 132 131 133 134 133 132 135 131 132 124 117 
 79  63  84  84  74  80  78  67  65  59  82 127  85  50  54  68 115 
114  98  84  72  76  77  80  66  75  90  68 103 112 117 127 132 134 
134 135 132 132 130 130 128 130 122 109  86  76  75  79  86  83  82 
 87  88  85  88  87  83  84  81  83  74  67  69  93 118 127 132 133 
135 132 132 136 134 134 131 133 130 131 132 132 132 132 130 133 131 
131 131 131 130 132 130 131 131 131 132 130 132 131 131 132 132 132 
131 132 130 130 130 131 130 128 131 129 128 130 129 131 130 130 133 
130 129 130 129 129 130 131 129 129 130 130 129 130 129 129 129 129 
130 128 129 131 128 126 129 127 127 127 126 127 128 127 128 128 128 
128 129 129 127 128 127 128 128 127 124 125 124 125 126 127 126 125 
125 127 127 127 126 127 126 127 125 125 125 126 125 126 125 125  87 
122 120 122 120 122 124 123 123 124 125 126 125 125 125 125 124 128 
125 125 126 126 125 127 125 125 125 126 126 125 128 125 125 127 125 
125 126 126 127 127 127 126 126 126 125 127 128 128 129 130 128 128 
128 128 130 129 126 129 128 126 128 127 127 129 127 129 129 129 129 
128 130 129 128 128 129 129 131 129 130 130 128 129 128 129 127 129 
127 111  84  96 113 118 105 101 114 114 105 102 101 101 104 110 109 
104 101  99  86  98 100 103 108 109  95  70  89 117 129 131 132 132 
130 134 134 132 131 133 133 133 133 136 133 129 124 117  77  67  65 
 64  65  69  71  68  59  57 127 131  79 104 121 114 114 132 100  85 
 75  79  87 103  87  83  91  66  98 108 112 130 132 132 131 133 132 
131 135 132 133 130 128 125 116  95  78  73  72  77  81  88  91  84 
 86  86  82  83  68  61  57  72 105 122 129 133 129 132 135 133 132 
135 134 134 133 135 132 133 133 132 130 128 132 131 132 134 130 131 
132 130 132 132 132 132 132 131 132 131 129 131 129 131 131 129 131 
130 130 131 130 128 130 129 129 130 130 130 130 130 131 129 130 128 
126 131 131 128 129 129 130 131 129 129 127 129 129 129 129 129 129 
129 128 129 129 128 129 128 126 126 128 125 127 127 125 127 127 127 
128 128 128 127 128 126 124 125 125 126 127 127 126 126 125 127 126 
126 125 125 126 127 127 127 127 127 125 126 123 122  89 124 118 122 
123 124 121 122 122 122 121 124 124 125 125 124 125 126 124 125 124 
123 124 126 122 123 124 124 124 127 126 126 128 127 125 127 127 125 
125 126 127 126 128 129 129 127 126 127 126 127 127 129 126 125 128 
127 130 130 127 127 130 128 125 129 130 129 127 128 130 130 130 128 
129 131 130 130 132 129 129 129 128 129 128 129 127 127 126 121  96 
 83 105 107 101 102 116 116 108 102 101 100 106 108 107 105  94  96 
 99 102 103 106 111 102  66  71 107 123 127 128 129 131 132 132 131 
133 133 132 132 134 131 132 132 127 121 120  73  64  69  67  66  68 
 66  66  60  73 144  97  84 120 126 124 116 140  98  66  71  73  72 
 80  66  62  83  69  87 107 112 127 133 134 133 132 134 132 132 134 
134 131 130 130 128 123 111  93  74  64  61  60  64  67  67  64  52 
 52  57  68  97 121 130 132 132 131 132 130 132 134 134 134 134 132 
133 134 133 134 132 131 134 132 132 132 133 131 132 131 133 133 132 
133 132 133 132 131 131 132 131 131 129 130 129 129 130 131 130 132 
129 129 130 132 129 131 128 131 131 130 130 129 131 127 128 130 130 
129 130 128 129 129 130 129 127 129 128 127 128 128 128 130 128 129 
128 126 125 126 128 126 127 124 127 127 125 126 127 126 126 126 125 
125 129 127 126 127 128 127 126 125 125 125 126 126 126 127 126 125 
123 124 124 123 124 122 123 124 124 123  84 121 118 120 122 122 122 
123 122 121 122 121 124 124 122 123 123 123 123 124 124 125 124 125 
124 125 124 125 125 125 125 125 124 124 127 124 125 124 124 125 125 
125 126 124 127 125 126 125 124 125 128 124 128 126 127 129 126 127 
125 128 127 125 128 125 126 127 126 125 128 128 127 129 128 127 128 
127 129 129 131 130 129 129 129 130 128 125 126 124 111  88  88 105 
105 113 117 111 103 102 108 106 103  98  96  97 101  97  98  98  97 
108 103  74  66  96 122 129 128 130 129 130 130 131 130 133 130 131 
132 131 128 127 131 128 118 118  78  62  66  61  60  65  66  66  62 
 79 129  94  98 122 127 126 120 133  85  49  65  65  64  63  61  62 
 61  58  94 102 112 124 133 132 133 134 132 133 133 132 133 133 130 
129 130 131 129 128 119 110  91  77  63  60  61  67  79  98 118 128 
132 133 132 129 128 131 131 130 132 134 131 134 132 132 132 132 132 
133 132 130 132 131 132 132 130 132 130 131 131 132 129 130 132 131 
131 132 130 130 129 129 128 131 129 131 129 131 130 127 127 130 128 
130 129 129 129 133 131 128 129 131 130 129 127 129 128 128 129 129 
127 127 126 127 129 129 128 128 127 128 125 127 127 129 125 127 128 
126 126 125 127 127 126 128 128 127 125 125 126 125 126 125 125 127 
127 126 128 125 126 125 124 126 126 126 125 124 125 125 126 124 123 
123 124 124 124 124 123 121  88 125 119 121 122 123 123 123 123 124 
125 124 122 124 123 124 124 126 124 124 125 125 124 125 123 124 126 
126 125 125 124 125 125 125 126 125 124 126 125 126 126 127 128 128 
128 127 128 129 126 126 127 127 129 127 128 129 128 131 128 130 129 
127 127 127 128 130 126 128 129 126 129 127 127 128 129 128 128 128 
129 129 128 129 128 127 126 125 125 124 121 109  89  91 104 110 117 
112 105 109 112 114 114 114 107 103 104 107  99 102 107 101  76  59 
 90 116 126 129 129 130 133 130 132 132 130 132 131 133 132 131 130 
134 128 130 118 126  83  54  70  81  84  81  76  66  61  70 102 105 
107 123 130 130 123 115  65  61  72  66  65  65  63  65  67  73  96 
 98 111 128 131 135 132 132 131 133 132 132 133 132 132 131 132 133 
131 129 132 134 133 135 135 138 140 139 135 136 132 134 131 131 132 
131 130 131 132 133 132 134 131 133 133 133 132 134 132 133 131 131 
132 132 129 131 131 133 132 131 131 130 132 133 133 133 132 134 131 
132 129 130 130 132 129 131 130 132 129 131 130 129 129 131 130 130 
128 131 129 130 129 131 130 130 127 128 128 130 130 129 127 127 128 
128 128 127 128 129 130 129 126 128 126 127 127 129 129 127 127 127 
127 128 129 129 127 125 126 127 127 128 128 127 127 128 127 127 127 
127 128 125 127 126 126 127 125 125 123 124 125 125 123 124 123 123 
123 125 123 123  85 123 119 122 122 122 123 125 125 124 123 124 122 
124 122 124 123 126 126 127 124 124 126 126 123 124 127 126 125 124 
124 124 124 125 124 125 125 127 125 125 126 127 127 127 127 127 126 
125 126 127 128 129 130 129 129 128 128 130 128 127 127 126 127 129 
124 125 126 127 126 126 129 128 127 128 129 129 129 129 129 129 129 
130 128 128 128 127 128 128 128 123 107  87  85  96 105 113 103 104 
113 108 110 110 109 104  98  99 106 112  98  74  58  89 118 127 131 
132 130 131 133 131 131 132 131 132 133 134 132 132 132 131 131 131 
118 123  96  65  96  96  82 100  97  74  68  71  80  93 101 118 128 
123 109  82  78  98  83  78  84  83  81  87  67  64  90  99 114 125 
132 133 132 133 132 134 132 132 130 131 132 130 132 131 132 132 129 
131 131 133 131 129 130 131 133 133 133 133 131 132 132 132 133 133 
131 134 133 134 132 134 134 135 132 135 133 133 131 131 133 132 131 
131 133 132 133 133 130 132 132 132 132 132 131 132 131 133 130 131 
131 131 130 132 132 130 131 131 130 130 131 130 129 130 131 132 129 
130 130 130 129 129 127 128 128 129 129 130 129 128 128 129 131 129 
129 127 128 127 127 128 128 129 128 128 129 127 128 128 127 128 126 
126 128 128 126 127 126 127 126 125 126 125 126 126 126 126 126 125 
125 126 123 125 124 126 125 125 125 124 122 125 124 124 124 124 123 
122  81 121 118 122 122 121 122 124 124 121 120 124 122 123 122 123 
123 124 123 126 125 123 127 127 126 125 125 125 126 125 126 125 126 
126 125 125 125 124 124 124 125 125 127 129 128 128 127 128 126 128 
127 127 128 127 129 127 126 128 129 127 130 128 127 127 127 126 129 
129 128 130 129 129 127 129 127 127 127 128 128 127 127 129 127 129 
128 127 127 127 129 127 126 108  87  85  89  95 101 109 113 108 109 
115 111 111 106 107 105  88  63  56  88 119 127 129 132 129 130 131 
131 131 130 132 133 132 133 133 132 132 132 132 130 130 116 114 100 
 71  76  84  85  93 100  90  79  74  75  71  73  84  97  80  71  76 
 95  79  53  58  67  60  54  84  82  82 105 102 116 125 134 132 131 
134 132 131 131 134 132 130 132 132 130 127 131 130 131 131 133 133 
133 132 134 131 133 133 132 133 134 136 134 133 132 132 132 133 131 
132 132 133 131 130 133 134 133 132 133 131 133 132 131 131 128 129 
133 132 131 131 133 131 131 131 132 131 130 131 129 129 132 132 130 
128 130 132 130 130 131 131 132 130 130 129 129 131 131 131 130 128 
131 131 129 130 128 127 126 128 129 128 129 130 130 129 130 128 128 
126 124 124 124 126 127 126 128 126 126 128 126 128 128 127 127 126 
125 126 126 125 126 123 127 127 126 126 126 125 124 124 123 124 126 
126 125 125 125 124 124 123 122 126 125 124 125 124 124 123  83 123 
119 122 124 122 123 124 122 123 125 125 122 123 122 122 123 124 122 
124 127 124 125 125 126 126 126 127 127 126 126 126 125 126 127 126 
126 123 126 126 128 129 129 129 127 128 128 126 129 129 128 128 128 
126 129 130 126 126 128 127 128 127 127 127 129 129 128 129 129 129 
129 128 128 130 128 129 129 128 129 129 127 129 128 131 129 131 131 
129 125 126 128 126 116  97  78  74  88  92  97 104 108 108 103  95 
 92  81  68  49  67 105 123 129 133 132 130 133 132 130 131 131 130 
132 133 131 132 132 132 133 132 133 133 132 127 122 123  77  67  69 
 66  86 100  88  73  78  74  87  94  77  90 111 109  94  93  88  82 
101  87  68  73 121  97  82  98  97 121 128 133 133 132 134 133 135 
134 132 133 135 135 133 132 129 133 134 133 136 132 133 134 133 133 
132 134 134 134 135 134 134 133 132 133 133 133 134 134 132 132 131 
132 134 133 134 134 133 133 131 133 133 130 132 133 130 130 134 131 
132 131 132 135 133 133 130 130 130 130 129 130 128 130 131 130 127 
131 132 131 131 132 130 132 132 131 132 132 131 130 129 130 129 129 
129 129 130 129 130 131 131 130 130 129 129 128 127 128 128 127 128 
126 127 129 128 128 128 127 129 128 128 127 127 128 127 126 127 127 
125 126 123 127 127 125 127 125 126 125 124 125 123 126 126 126 126 
127 124 125 124 124 127 124 125 125 124 126 125  83 125 121 122 124 
124 124 124 119 122 123 123 123 124 125 124 123 127 124 127 124 125 
125 125 124 124 126 127 127 126 125 126 124 125 125 125 125 124 126 
126 127 126 126 127 128 126 126 126 126 127 127 127 128 127 127 127 
126 127 127 128 127 128 127 128 127 129 128 128 128 127 128 129 128 
129 127 130 130 128 129 131 129 130 129 131 129 131 131 130 128 128 
129 130 129 125 108  91  73  71  67  68  67  67  65  61  42  46  66 
 97 123 130 130 130 130 132 130 132 129 131 134 131 131 133 131 131 
131 130 132 132 131 132 132 133 129 114 116  88  68  73  75  83  90 
 81  74  79  86  87  92 106 122 109  90  84  91  90  78  81  77  71 
 91  90  62  96  89  99 120 127 131 133 131 134 131 131 132 132 132 
131 130 134 133 132 132 128 132 135 132 134 132 132 132 134 132 132 
130 133 131 131 132 132 132 132 132 131 132 130 133 132 130 131 133 
135 132 132 133 134 134 133 131 132 131 131 131 133 132 131 132 132 
131 131 132 132 132 131 128 130 132 131 129 128 129 130 131 131 129 
128 131 129 128 130 130 132 132 131 130 131 130 130 128 129 129 129 
128 129 129 129 130 130 127 128 128 128 126 126 124 127 125 126 127 
127 128 127 125 128 127 127 125 125 126 126 125 125 124 124 123 123 
123 123 123 126 125 125 126 126 126 124 122 125 124 126 125 123 123 
124 122 124 123 124 125 124 123 122  81 123 119 121 123 124 123 124 
124 125 124 124 124 124 125 125 124 127 125 128 122 125 125 125 123 
124 124 124 124 125 125 125 123 124 124 124 124 125 124 124 124 126 
127 127 127 127 127 127 124 127 127 127 128 128 126 126 128 129 129 
131 128 129 129 128 125 128 132 131 130 128 126 128 127 130 129 128 
129 129 131 128 129 129 128 130 130 130 129 130 125 130 127 128 128 
127 127 126 119 113 100  89  82  80  81  92 106 121 131 134 130 130 
130 128 129 132 131 131 131 132 130 132 131 132 131 132 132 130 132 
130 131 133 134 133 127 119 112  95  71  72  74  82  87  93  89  84 
 83  89  89  97  98  89  91  86  77  71  65  68  63  65  65  58  79 
102  90 116 128 130 131 131 131 133 131 132 133 132 132 132 130 131 
131 131 131 131 131 130 132 134 133 133 131 131 132 133 133 135 134 
135 135 133 132 132 133 132 132 132 132 131 130 131 133 135 131 133 
132 133 133 133 133 131 133 132 133 132 129 131 132 132 131 130 130 
131 133 133 130 132 131 130 131 131 129 129 128 131 130 129 131 132 
130 130 133 132 131 129 129 129 127 128 127 129 130 128 128 129 130 
130 129 129 130 128 127 128 127 128 125 126 127 128 128 126 129 127 
127 128 127 128 127 127 125 126 125 126 126 127 126 127 126 126 126 
126 127 126 124 126 125 126 124 127 125 125 124 123 124 125 122 123 
125 124 125 124 125 123  83 121 117 121 124 124 122 124 123 124 121 
123 122 122 123 124 125 126 125 125 126 124 125 124 124 125 125 125 
125 126 126 125 123 125 126 124 123 124 126 126 126 126 126 126 126 
125 125 125 125 126 124 125 126 126 124 127 126 126 126 128 127 128 
129 129 129 129 129 127 128 128 127 128 127 130 128 129 129 127 130 
131 127 129 129 129 131 130 129 128 128 129 129 129 130 126 129 129 
126 126 130 132 132 130 132 134 132 131 130 128 129 129 128 129 128 
130 132 130 133 131 131 130 130 132 129 132 131 129 133 130 130 134 
131 130 130 124 108  95  76  70  76  80  91  93  98  91  80  77  86 
 93  95  90  83  80  73  71  78  78  75  76  74  70  91  91  96 122 
128 130 130 132 131 133 131 133 133 132 131 133 131 132 132 134 131 
130 132 131 130 133 131 132 133 131 133 131 132 133 132 134 135 132 
132 132 132 133 130 132 131 132 131 132 131 132 132 133 131 130 131 
133 133 130 133 131 133 131 131 132 130 130 130 128 131 129 130 130 
131 130 129 130 132 131 129 130 128 128 129 129 127 127 128 131 131 
130 132 129 130 129 127 129 128 129 128 128 128 128 128 129 129 128 
129 125 128 129 128 127 126 126 126 125 129 125 127 129 127 127 127 
127 127 126 125 127 124 125 127 126 124 124 125 125 125 126 123 126 
125 125 125 126 125 127 126 126 126 125 125 124 123 122 126 122 125 
122 124 120  83 122 118 119 122 120 121 120 121 121 121 121 124 124 
123 122 122 123 123 124 121 123 123 121 123 122 122 124 125 123 123 
124 123 122 121 119 121 120 122 124 124 121 121 123 122 124 124 125 
122 123 123 123 123 124 123 125 126 126 126 127 125 128 127 128 127 
130 126 128 128 129 129 129 125 127 128 127 128 128 128 128 125 127 
128 127 127 127 128 128 127 126 126 126 127 129 127 127 125 127 127 
128 126 128 128 128 128 128 126 126 128 129 129 129 129 130 128 130 
130 130 131 132 130 129 127 129 129 129 129 129 127 125 130 130 129 
125 117  96  82  73  73  78  80  84 103  94  85  79  84  85  90  92 
 86  75  69  80  87  81  75  71  64  78  86  86 112 119 130 129 133 
134 133 132 131 129 131 134 133 133 132 132 133 131 132 132 130 130 
132 131 132 131 131 131 131 131 132 132 132 130 132 131 132 132 132 
131 130 131 131 130 131 131 131 131 130 133 128 131 132 132 131 130 
129 131 131 131 130 129 128 131 128 131 131 131 128 129 129 130 131 
132 129 128 128 129 127 130 129 129 130 130 129 128 126 129 130 128 
127 128 128 128 128 128 127 127 128 130 125 125 126 127 127 126 128 
127 126 128 130 128 129 127 127 127 125 125 125 126 125 127 127 127 
125 123 124 122 124 125 125 124 124 125 124 124 125 124 121 124 124 
123 126 125 126 122 124 124 124 124 124 124 123 126 123 123 119 119 
 83 122 119 121 123 121 122 121 121 123 123 122 122 122 124 125 121 
122 123 125 124 125 124 123 123 126 126 128 125 125 123 124 123 127 
123 125 128 132 130 132 128 130 127 128 128 127 126 122 125 125 126 
129 129 128 127 125 127 127 127 127 127 128 127 126 124 127 127 129 
127 129 130 128 126 127 126 128 128 128 128 128 130 129 129 128 128 
129 130 127 126 132 130 129 130 130 129 129 127 128 128 130 130 130 
130 131 129 130 129 129 131 131 130 130 130 132 133 133 131 131 131 
134 127 131 130 131 130 130 131 128 130 129 131 131 130 128 125 110 
 88  84  76  81  86  94 102  97  89  82  77  86 100 102  94  87  94 
105  89  87  84  81  77  87  78 103 120 128 134 130 132 135 132 133 
131 131 131 134 132 132 134 134 133 133 134 132 133 132 131 133 131 
133 132 131 132 131 133 133 133 132 134 133 133 133 133 132 132 134 
132 130 133 131 132 132 132 134 131 132 132 130 130 130 130 131 130 
131 131 131 130 133 129 131 130 130 131 132 128 129 130 131 132 132 
129 129 131 131 129 129 131 131 130 128 129 130 129 130 128 129 128 
128 128 130 128 130 129 129 128 128 127 129 128 127 128 127 125 125 
125 127 129 127 127 126 125 127 124 127 126 129 128 128 128 127 127 
128 126 126 123 126 126 124 126 126 125 128 125 127 124 124 127 129 
126 126 124 124 125 125 123 125 126 127 125 126 123 122  82 122 121 
122 122 121 123 123 120 122 121 121 123 122 121 120 123 123 122 123 
122 123 123 124 125 126 123 125 125 125 125 124 126 130 131 128 116 
 95  71  49  38  37  37  46  66  85 102 117 122 125 124 125 124 126 
128 125 125 125 127 125 127 127 128 127 129 126 126 129 126 126 129 
129 128 129 129 131 129 129 129 129 127 128 128 130 130 127 128 130 
130 128 128 129 129 128 129 131 127 128 128 129 132 130 129 131 130 
131 131 131 131 132 132 132 132 131 128 129 130 131 131 131 131 130 
130 131 131 131 131 132 132 131 130 133 133 130 130 126 107  93  81 
 77  81  87  96  95  93  98 100 109 111 105 100  96  97  96  92  89 
 85  80  88  77  93 119 124 128 130 130 131 134 131 132 132 132 132 
133 133 134 133 132 134 133 133 134 132 133 129 130 131 132 133 133 
132 132 132 132 132 131 132 131 132 132 128 131 129 131 132 130 131 
129 131 132 132 132 132 131 132 131 129 132 133 133 131 131 130 130 
129 133 128 130 130 130 130 129 130 131 133 131 130 129 127 129 128 
129 128 129 130 130 131 130 130 129 128 129 129 129 129 129 130 131 
129 128 128 128 128 130 127 128 127 127 128 128 129 128 127 127 128 
128 125 125 127 126 126 126 127 124 127 126 126 126 126 127 124 126 
124 124 125 125 124 125 124 127 125 126 125 125 125 125 124 125 123 
125 123 125 125 125 125 123 122 123 123 121  82 121 120 122 122 121 
121 121 120 122 124 123 123 122 124 123 124 125 124 124 124 125 124 
125 123 124 125 125 124 124 125 127 132 126  99  59  32  37  45  46 
 52  57  60  54  53  46  44  52  79 103 117 122 126 127 126 126 125 
125 127 125 127 126 128 127 126 125 126 128 127 128 128 126 126 127 
127 128 128 128 128 128 127 128 128 130 129 128 129 127 128 127 128 
127 128 127 128 129 128 129 129 130 132 131 131 131 128 129 130 130 
130 129 129 130 128 131 131 132 128 127 131 132 131 132 130 131 131 
131 132 131 131 133 131 132 133 132 131 130 120 103  89  80  82  82 
 87  92  96 101 106 108 105  95  95 102  99 101 101  91  81  86  77 
 91 117 126 128 128 130 131 133 133 130 132 132 132 134 132 132 130 
131 133 133 133 132 132 129 128 130 129 130 130 133 132 131 132 133 
133 133 132 131 130 132 133 132 131 130 131 131 130 131 128 130 131 
133 132 132 131 133 133 131 133 132 131 130 130 129 129 128 130 128 
130 128 129 131 130 130 132 133 131 130 129 130 132 129 129 130 130 
129 128 129 129 129 129 129 129 130 130 130 130 129 129 128 127 128 
128 126 127 125 127 128 128 130 127 129 128 128 129 126 126 127 127 
126 126 126 127 127 126 128 127 126 126 124 125 126 125 122 123 124 
123 123 125 125 125 126 123 125 125 124 127 124 127 127 124 124 122 
125 124 123 123 124 123 123 121  86 123 120 123 122 122 124 124 126 
125 124 123 124 124 125 121 124 125 124 124 124 126 124 124 125 124 
124 125 123 124 127 127 111  63  35  44  57  63  59  62  60  63  74 
 64  62  65  60  60  51  60  82 109 124 124 123 125 125 126 127 127 
128 127 127 126 125 127 129 130 129 129 128 128 128 129 128 129 129 
131 127 127 128 127 126 129 129 132 136 135 132 133 134 133 127 126 
129 126 128 129 129 131 132 132 131 130 130 129 130 130 131 129 128 
129 129 128 129 130 130 132 130 129 131 134 134 132 132 131 133 132 
134 136 131 131 131 133 134 134 127 123 106  90  79  85  88  95  96 
 97 100 100  91  88  96 104 111 112  98  80  68  68  95 117 129 131 
130 131 136 133 133 132 132 134 133 132 133 131 133 132 131 134 134 
133 131 133 133 132 131 133 131 131 132 130 132 133 132 132 132 131 
131 131 131 131 131 132 132 132 132 131 131 130 132 132 133 133 134 
133 133 133 130 131 131 132 131 131 130 130 130 131 131 132 130 131 
132 131 131 132 130 131 132 130 130 129 132 131 129 130 129 129 129 
129 128 130 130 130 129 130 129 129 129 130 128 129 130 129 128 128 
127 129 128 130 130 128 130 129 129 128 127 129 127 126 127 125 127 
127 128 126 129 126 126 126 127 125 126 126 126 125 123 125 125 127 
125 125 126 125 127 126 126 127 128 126 126 125 124 124 125 124 125 
125 125 123 123 123  86 123 121 124 122 120 121 123 120 121 124 124 
123 123 124 123 124 125 122 121 121 124 123 123 123 123 122 122 126 
127 124  92  45  44  53  61  58  55  60  58  56  58  53  53  59  64 
 70  67  60  56  54  72 101 118 122 125 125 126 125 125 125 126 127 
128 127 128 128 129 128 128 127 130 126 130 127 128 126 129 128 129 
129 133 135 136 130 123 111 103 101 102 106 113 116 126 130 129 127 
129 127 129 129 129 129 129 129 128 128 127 129 127 128 129 130 130 
128 129 129 130 130 130 129 130 132 130 132 132 131 132 133 134 132 
133 132 132 130 130 130 133 123 110  87  79  77  88  95  99 101 101 
108 108 112 112  97  75  66  60  72 106 128 134 132 135 133 133 132 
130 134 133 133 133 131 131 131 131 133 132 132 133 133 130 131 135 
132 132 129 132 130 130 131 132 132 132 131 131 131 132 132 131 130 
129 129 131 131 130 131 130 129 130 131 131 132 132 133 133 133 133 
129 131 131 131 130 129 130 131 131 130 129 129 130 132 131 129 130 
131 128 129 129 128 131 131 132 130 130 131 130 130 129 129 128 130 
129 130 128 130 128 128 130 131 130 129 128 128 128 129 127 129 127 
130 128 130 130 128 129 130 128 128 127 125 126 128 127 128 128 128 
126 127 125 128 126 127 129 127 125 128 123 124 124 126 123 123 123 
126 127 126 124 127 126 126 125 124 126 126 126 125 124 123 123 123 
123 123  83 120 120 124 122 121 120 122 124 123 124 123 123 124 123 
122 122 123 123 123 123 124 123 125 124 124 125 125 125 121  83  43 
 45  57  53  54  49  55  64  59  56  57  57  66  61  61  68  60  60 
 62  54  54  69  95 115 123 124 127 126 127 126 126 126 126 126 129 
126 127 128 130 129 128 126 129 129 130 128 129 131 132 134 131 114 
 79  48  45  46  44  44  51  54  52  59  76  88 108 121 128 127 128 
129 129 130 129 130 130 131 130 131 131 130 130 129 131 129 131 130 
129 132 132 131 133 130 129 131 130 133 132 130 132 132 132 131 132 
132 130 131 133 130 129 121 103  81  73  70  77  87  90  97  93  81 
 63  46  53  67 101 120 134 134 132 133 134 135 134 132 133 135 134 
130 132 133 133 132 131 134 133 132 133 132 132 132 133 132 130 132 
132 132 131 132 134 132 134 133 133 132 133 132 133 131 130 133 132 
132 132 134 134 133 132 129 130 131 130 131 130 132 134 130 132 134 
133 131 131 131 131 131 132 131 130 129 131 131 132 129 132 130 130 
129 128 129 130 130 131 130 130 130 129 128 129 130 131 131 131 130 
132 130 130 128 129 129 129 128 129 125 128 129 129 127 128 127 130 
130 130 130 128 129 128 127 127 127 128 126 127 126 127 128 127 128 
128 125 127 126 128 127 127 125 127 125 126 126 126 125 127 127 125 
124 126 128 128 126 126 124 125 124 123 123 122 124 124 124 123  89 
123 120 122 121 121 121 122 122 122 125 124 125 125 122 124 123 121 
121 123 122 123 122 124 121 121 123 125 120  86  45  45  62  60  52 
 49  46  51  57  51  53  55  59  64  61  71  69  60  65  67  61  58 
 56  72  97 116 124 127 125 125 127 127 127 126 126 128 125 128 128 
127 127 128 127 128 127 129 131 127 133 130 106  69  46  57  78  91 
 89  89  92  94  92  83  78  66  61  72  89 109 120 124 128 126 129 
129 129 130 130 128 129 130 130 129 131 130 130 131 130 131 130 131 
131 130 130 131 133 128 129 132 130 128 130 132 130 129 131 131 130 
131 131 134 131 131 124 113  96  72  61  56  55  51  55  70  92 111 
130 136 132 131 130 132 133 135 132 132 135 133 133 131 133 133 133 
131 133 131 134 133 132 131 133 133 133 133 132 133 131 132 133 132 
133 129 132 135 133 133 131 132 131 133 131 132 130 132 131 131 132 
130 129 128 131 130 130 130 132 132 132 133 131 132 132 131 131 132 
131 129 129 132 130 129 129 129 130 129 129 130 129 130 129 130 129 
128 128 129 129 129 129 128 128 130 129 129 131 129 131 129 131 131 
129 130 127 129 129 130 128 129 128 127 129 129 129 128 130 131 128 
127 128 127 127 128 126 127 127 124 125 123 126 126 126 126 127 129 
125 126 128 125 126 126 125 123 123 125 124 127 124 123 126 126 126 
126 125 125 125 125 125 124 124 123 124 122 122 122  83 119 119 120 
120 120 119 122 121 122 122 122 124 123 122 124 120 122 122 123 122 
122 122 120 122 121 123 123  89  46  45  55  56  48  43  45  48  55 
 55  57  61  51  56  51  64  62  55  53  52  51  54  54  55  48  73 
101 116 122 123 124 125 124 123 122 125 124 126 127 130 126 126 126 
126 125 127 128 126 128 121  92  56  62  93 101  99  94  95  89  89 
 90  96  98  94  94  91  84  72  74  94 112 122 126 125 128 129 128 
127 128 130 129 127 128 129 129 130 130 130 129 132 131 130 129 130 
130 131 130 131 134 130 132 130 130 131 131 131 131 130 130 130 130 
131 131 130 133 134 136 132 133 132 131 133 133 134 132 132 132 131 
133 131 132 130 131 129 132 131 131 129 130 130 132 132 132 133 134 
131 132 130 129 132 133 131 133 132 134 132 132 131 130 130 129 130 
130 131 131 131 132 131 132 130 130 129 130 130 132 131 131 131 132 
129 131 133 132 130 130 129 133 133 133 134 132 132 131 128 129 130 
128 129 130 129 129 129 126 128 128 129 129 129 130 129 129 128 129 
128 128 128 128 128 128 127 129 129 130 127 125 126 130 127 125 130 
130 127 127 129 128 125 126 124 125 125 128 125 127 128 126 126 127 
128 127 127 126 124 126 124 125 125 123 127 126 127 126 124 125 124 
126 125 125 125 124 125 125 124 124 122 123 123 125 124 124 125 126 
122 123 124 125 124 123 123 124 121 120  86 120 117 119 120 121 120 
123 121 123 124 123 124 123 122 122 122 124 123 125 122 121 123 125 
122 126 126 112  68  43  54  59  52  53  51  56  56  58  53  54  50 
 63  64  63  59  48  58  56  55  59  55  64  62  56  60  85 107 120 
125 127 128 126 126 125 125 127 127 127 127 127 126 127 127 133 129 
130 133 119  90  64  81  92  87  88  93 100  99  84  80  97 103 100 
 93  92  97  96  89  78  79  96 111 123 127 132 128 129 130 130 130 
129 129 129 130 132 130 131 129 132 133 133 129 131 129 128 129 131 
131 131 129 131 131 132 132 131 131 130 129 131 128 131 130 131 131 
131 130 133 131 131 133 134 129 130 132 130 128 129 130 131 132 132 
131 134 134 133 130 132 133 133 131 133 131 134 134 131 134 133 133 
133 133 134 131 132 132 132 132 133 132 130 133 132 131 130 130 132 
132 133 130 132 131 131 130 130 131 132 132 130 130 129 133 133 134 
131 131 132 130 131 132 133 133 131 131 130 130 131 132 131 131 131 
130 130 132 130 129 129 130 129 129 132 129 131 130 127 128 127 128 
127 130 129 127 129 129 130 129 128 129 129 131 130 129 129 128 128 
130 126 124 129 124 127 130 128 128 128 128 128 127 128 127 128 127 
127 124 125 124 126 123 126 125 127 125 127 126 127 126 126 127 127 
125 126 127 125 125 128 124 123 122 125 125 126 124 125 123 124 123 
124 123 123 124 124 123 122  85 122 119 120 118 120 122 123 122 123 
124 124 121 122 122 123 123 125 124 124 123 123 122 123 121 126 117 
 84  47  49  56  56  53  56  51  51  51  49  47  48  50  51  56  62 
 59  62  62  57  58  53  50  57  58  45  53  66  96 115 122 126 123 
125 125 126 126 128 127 128 128 129 127 126 127 129 129 131 115  86 
 65  80  87  85  85  87  96  98 102  90  86  99 109 106  99 105 104 
 96  86  83  76  78  95 110 122 127 128 129 131 130 132 130 131 130 
130 133 132 131 129 130 131 131 128 132 132 131 129 129 131 132 132 
134 133 132 132 130 131 131 128 132 131 132 128 130 130 128 129 130 
130 133 130 130 131 130 130 132 131 131 131 131 132 132 132 132 133 
133 130 128 131 132 129 128 132 130 132 134 131 133 132 134 131 134 
130 133 133 132 132 134 133 131 133 133 131 131 131 132 132 134 131 
132 130 129 131 131 131 130 132 131 131 132 132 133 133 132 133 133 
131 130 131 132 131 130 132 131 132 132 129 131 129 130 130 130 130 
129 130 131 130 130 130 130 129 129 129 131 130 128 130 127 128 130 
127 128 129 128 128 128 128 127 128 130 127 125 128 128 126 128 128 
129 127 127 127 126 127 127 126 128 126 126 125 127 126 126 123 127 
124 127 126 124 127 126 125 126 125 126 124 124 125 126 124 125 125 
126 125 126 124 124 123 125 125 127 124 125 124 125 123 123 123 123 
122 122 122 122  86 124 121 122 119 121 122 123 122 121 121 124 123 
124 121 121 122 121 121 124 125 124 122 122 124 120 105  66  45  53 
 56  53  52  55  56  52  50  48  50  51  53  51  53  57  64  71  64 
 59  54  59  57  54  53  49  51  58  83 108 119 124 126 127 128 127 
124 126 124 126 126 128 125 125 126 127 127 125  94  59  76  80  79 
 88  83  82  86  86  95 102 102  97  94  96  95 106 115 102  92  97 
 91  80  86 102 114 123 125 128 128 129 130 128 129 130 131 132 132 
129 129 128 128 127 130 131 130 132 129 129 130 131 131 131 130 130 
130 129 130 130 130 130 129 127 127 131 130 129 129 132 129 130 133 
130 130 133 129 129 130 129 130 131 129 132 133 132 132 133 132 131 
132 131 129 131 133 132 132 131 132 132 134 134 132 132 131 132 131 
130 131 132 133 132 131 132 131 131 131 131 131 134 133 133 132 131 
132 133 132 131 132 131 131 131 131 132 132 133 132 130 131 132 131 
132 131 131 132 130 131 131 130 132 131 130 130 130 130 129 128 132 
128 130 131 130 131 131 128 129 128 128 128 128 128 128 129 129 130 
130 129 128 128 128 127 130 127 125 128 128 125 130 127 128 127 128 
128 127 129 128 127 128 127 126 127 125 125 126 125 127 127 126 127 
125 125 125 124 124 124 125 124 124 125 124 124 126 126 126 126 127 
126 124 125 124 125 126 125 126 125 124 124 123 122 123 124 125 124 
122  88 122 118 122 120 121 122 125 123 123 124 125 123 124 123 123 
122 124 123 123 122 123 123 122 120 119  89  51  45  54  52  52  55 
 52  52  48  45  52  54  51  55  59  55  63  66  59  56  57  62  62 
 49  49  52  51  53  55  72 101 116 125 125 126 126 127 125 126 125 
126 126 128 128 129 127 130 128 113  74  74  79  79  80  77  82  97 
 96  97 103 102 105 101  92  93  96  93  97  84  82  94  99  85  81 
 96 107 115 124 129 131 131 129 128 129 132 131 131 132 130 131 129 
130 130 131 132 130 132 131 133 132 131 131 132 131 132 131 131 129 
129 130 131 132 131 129 132 132 131 133 132 132 132 132 132 130 130 
129 129 130 131 132 134 132 135 131 132 132 134 133 132 133 133 131 
132 132 132 133 131 132 133 131 133 131 132 132 133 133 132 133 133 
133 133 132 133 132 131 132 131 130 131 131 131 133 133 132 133 132 
132 133 133 133 133 132 133 130 133 131 131 132 132 130 131 130 132 
132 131 132 133 130 132 133 130 132 131 129 130 127 130 130 131 132 
130 129 131 130 131 130 130 129 130 131 131 129 128 129 129 129 129 
129 130 130 131 129 128 127 126 129 128 126 127 128 127 129 129 126 
127 127 127 127 127 128 127 127 126 128 129 126 127 127 127 125 126 
125 126 125 125 126 125 126 125 125 126 126 125 125 125 125 125 125 
124 124 125 125 125 126 125 122 124 124 124 122 123 124 122  85 119 
118 121 119 119 119 121 122 123 124 124 123 125 125 125 122 123 124 
125 122 122 122 124 119 114  74  41  46  50  47  55  54  53  52  52 
 48  53  60  60  53  51  50  50  58  57  49  42  50  54  54  50  49 
 56  59  54  66  91 111 120 126 125 127 126 126 127 126 126 127 129 
128 128 124 127 115  79  61  78  83  80  72  78  87  98  81  71  80 
 80  97 104  92  91  89  83  79  75  71  91  99  93  81  85 104 109 
120 127 130 131 129 131 130 130 130 129 131 131 130 129 129 131 131 
131 130 131 131 132 130 128 129 130 130 130 130 130 128 128 131 133 
130 132 131 132 131 129 131 131 131 129 129 130 130 128 127 131 130 
131 130 131 131 132 130 131 131 133 131 130 131 132 132 129 132 130 
131 133 130 132 131 133 132 131 133 130 133 131 131 133 132 131 133 
131 130 130 130 132 131 131 131 129 131 130 130 131 131 131 132 133 
131 131 132 134 131 133 130 131 130 129 131 131 129 131 131 131 129 
129 129 131 132 129 130 130 129 130 131 132 129 131 131 129 129 130 
130 130 128 126 130 128 127 129 129 128 129 129 128 129 128 127 128 
129 128 126 125 127 128 126 128 129 126 127 127 126 128 127 125 127 
126 127 127 128 126 125 125 127 123 126 124 124 124 124 126 127 126 
126 125 125 125 125 126 125 124 125 124 122 123 124 123 123 124 125 
124 125 126 126 123 125 124 124 123 123 124 121  87 120 121 122 121 
121 120 121 121 123 125 124 123 123 123 123 123 124 123 124 123 125 
123 122 120 107  64  43  49  55  51  53  49  50  54  47  48  68  61 
 39  43  56  65  62  59  62  54  55  50  47  46  47  48  50  57  56 
 59  82 110 121 126 124 127 129 127 127 127 127 127 128 126 127 125 
124  97  57  67  75  76  80  82  85  97  87  65  93 112  92 105 112 
 95  95  88  83  81  82  84  91  95  95  88  75  96 107 115 125 129 
130 131 132 132 131 132 131 131 131 129 130 130 132 130 130 132 132 
131 130 130 132 129 130 130 128 129 130 129 130 129 132 129 130 130 
131 130 131 130 130 131 130 129 129 132 131 129 131 130 131 130 133 
132 131 131 134 132 130 129 130 132 131 132 133 130 131 131 131 133 
131 131 133 131 132 132 130 132 132 131 134 131 130 133 132 131 131 
131 134 131 131 132 132 133 135 131 131 131 129 130 131 131 132 131 
131 129 130 129 130 131 131 129 131 132 133 130 131 130 132 133 134 
133 130 130 131 130 130 131 132 127 130 130 129 130 129 128 128 129 
129 129 126 128 128 128 128 130 129 128 129 128 129 128 128 128 127 
128 129 126 129 128 127 128 128 127 128 127 126 126 127 127 127 126 
127 127 127 127 127 127 127 127 127 125 127 125 126 126 127 127 126 
126 125 125 127 127 125 124 126 124 124 123 123 125 125 124 125 126 
127 122 125 125 125 124 123 123 122  88 118 120 120 120 120 120 121 
122 121 122 122 124 123 124 124 124 122 119 122 123 124 121 120 117 
102  58  44  52  51  55  58  54  53  53  48  66  79  49  70 101 116 
118 100  73  69  61  50  45  41  46  49  46  44  50  54  55  74 104 
116 126 124 126 125 127 125 126 127 126 126 125 128 122 119  79  56 
 70  69  73  74  72  89  94  76  78 108 114  93  83  85  75  86  91 
 84  78  82  84  76  77  85  92  80  86 108 110 122 127 129 129 128 
131 132 130 129 130 130 128 131 130 130 131 130 132 130 130 130 130 
130 130 132 133 130 132 133 130 129 129 131 130 129 130 131 129 129 
133 128 131 131 131 132 132 131 130 127 128 130 130 131 129 131 130 
132 132 132 134 131 131 132 130 129 132 132 130 132 132 134 132 131 
130 131 131 133 132 134 131 133 130 132 130 132 133 132 130 133 129 
132 132 131 131 134 132 131 132 130 132 133 133 132 131 129 129 129 
130 130 131 132 130 132 131 131 129 132 130 133 130 132 133 131 130 
130 129 128 129 129 130 130 129 130 129 128 128 130 129 128 129 128 
128 128 127 128 130 128 128 127 127 128 130 129 127 129 130 128 127 
130 126 125 127 125 127 128 124 125 128 127 127 127 126 125 127 129 
126 127 126 127 125 124 125 124 126 126 125 124 125 124 125 125 125 
126 126 124 122 124 124 126 123 123 124 124 124 124 125 125 123 124 
122 124 125 123 123 122  84 120 119 122 122 118 120 118 119 121 120 
122 121 122 122 122 120 123 122 122 122 122 120 119 116  89  54  43 
 51  51  49  53  51  48  49  48  62  60  59  92 113 118 120 113  92 
 68  54  42  47  43  40  47  45  46  51  51  48  67 100 115 120 122 
124 125 125 125 126 125 125 125 126 126 124 114  70  61  67  69  70 
 69  82  98  83  74  89 112  96  78  69  67  64  75  75  70  71  77 
 77  72  72  70  73  76  70 101 106 108 123 125 128 127 128 128 129 
130 129 130 131 129 128 129 128 126 129 127 130 128 131 129 133 134 
136 135 133 132 127 129 129 132 128 129 125 126 132 129 128 127 129 
130 126 126 133 129 131 129 130 131 128 128 127 130 130 129 130 131 
130 130 130 133 130 130 132 130 131 129 128 131 131 130 131 130 131 
131 131 131 131 131 131 133 130 130 133 131 130 129 131 132 131 133 
132 130 131 130 131 130 130 130 131 131 130 131 128 130 129 129 130 
131 129 129 129 128 127 130 128 130 131 129 130 129 129 129 128 125 
126 129 129 128 129 127 129 129 129 129 130 129 129 127 128 126 127 
127 128 127 127 129 126 127 127 127 126 127 128 127 126 126 125 126 
125 126 125 127 126 124 125 126 128 126 126 126 126 127 127 128 127 
126 125 124 125 125 124 124 124 124 125 125 123 124 124 123 124 125 
126 125 124 125 123 122 123 121 120 123 122 125 124 123 124 122 121 
122 120 119  87 122 120 122 122 121 122 121 119 122 120 122 122 122 
122 121 122 124 121 124 123 124 121 122 114  90  51  48  53  55  56 
 54  49  54  57  54  71  64  72 105 116 124 124 121 104  73  57  53 
 50  56  49  49  48  47  52  55  48  65 100 116 123 125 125 126 124 
126 126 127 126 126 125 124 118 105  56  65  72  71  64  77  98  91 
 72  71  92 104  78  64  69  85  86  80  69  69  70  73  70  72  70 
 71  82  93  75 101 116 110 124 127 129 129 131 131 129 132 130 130 
129 130 129 128 126 132 131 129 130 134 136 138 133 120  91  64  42 
 36  31  35  36  47  69  94 116 126 127 127 127 130 128 131 133 132 
127 133 130 132 131 129 128 130 128 127 131 135 131 131 130 134 130 
132 127 131 131 129 132 130 129 133 131 134 133 132 128 129 131 132 
130 130 130 131 129 130 131 128 131 132 130 132 130 133 132 133 130 
134 132 130 130 131 130 132 130 132 130 133 131 130 130 131 131 132 
130 130 130 131 130 130 128 130 131 132 131 129 129 129 126 129 129 
127 130 129 130 128 128 129 131 129 127 129 128 127 126 129 128 129 
127 129 129 130 128 130 129 130 129 129 128 126 125 128 125 127 126 
125 124 127 127 126 129 127 128 130 126 127 126 128 126 125 127 127 
126 125 123 125 124 126 124 126 124 125 123 124 125 125 125 127 125 
124 123 124 124 123 122 124 121 122 124 123 125 124 123 124 122 122 
 84 120 120 122 123 123 120 118 118 121 118 121 122 122 122 119 122 
124 121 124 124 123 120 121 117  89  54  55  57  56  54  51  50  50 
 54  50  62  59  75 108 121 119 122 125 105  71  60  56  50  53  52 
 57  60  52  52  55  51  67 100 117 124 128 125 126 126 128 127 126 
124 125 125 121 121  86  61  73  73  72  75  99  92  66  55  74 100 
 89  66  69  85  96  80  69  75  89  87  73  70  74  77  86  96 110 
 82  88 112 103 119 126 128 128 130 130 129 132 131 131 130 131 132 
130 130 132 130 128 134 133 124  96  55  29  23  27  31  33  36  38 
 36  35  38  42  47  67  94 119 123 127 129 132 130 132 135 133 131 
131 129 130 130 131 130 130 129 132 131 130 131 132 130 133 131 130 
132 132 131 132 133 132 131 131 131 130 130 132 132 131 131 133 130 
130 130 130 131 129 130 131 129 130 130 133 132 132 131 131 133 131 
127 132 132 129 129 132 130 131 130 129 129 132 130 132 132 130 130 
129 129 130 130 129 130 130 129 129 127 130 129 129 128 130 129 127 
129 130 129 131 130 132 129 127 129 129 129 129 130 127 128 129 128 
128 127 130 127 128 127 127 127 126 125 125 125 126 127 126 128 127 
127 127 125 127 127 125 127 128 127 127 126 126 126 126 127 124 127 
128 125 126 124 125 124 124 124 125 126 126 126 128 126 124 124 126 
125 124 123 125 123 124 125 126 125 126 127 126 124 122  85 122 119 
121 122 123 121 121 119 122 121 122 122 121 123 122 122 124 122 123 
125 124 123 124 117  92  57  55  55  53  57  54  51  54  51  53  60 
 57  72 104 115 120 121 124  99  62  53  49  39  51  59  60  61  54 
 55  57  47  66 104 119 126 126 126 126 127 125 123 126 125 125 125 
123 114  84  60  70  70  66  91  89  68  56  61  97  95  64  64  82 
 96  86  70  60  77  89  83  70  66  70  68  69  79  85  71  81 105 
101 116 126 129 130 131 131 128 129 130 130 129 128 129 128 128 129 
131 134 127  97  57  30  27  37  42  46  45  48  47  46  45  44  43 
 41  38  41  51  65  99 119 127 130 132 130 129 129 128 129 130 129 
130 128 131 131 130 130 129 133 131 132 129 130 131 132 133 132 132 
131 131 131 129 128 131 129 130 130 129 131 132 132 131 132 131 130 
131 132 130 131 129 128 131 130 129 129 129 133 129 129 129 131 130 
130 130 133 129 129 129 129 129 130 129 130 133 130 130 131 129 131 
129 130 128 130 131 129 128 128 128 128 127 130 129 128 128 128 128 
130 131 130 129 127 127 128 128 128 128 127 130 126 130 127 126 128 
127 128 126 126 126 127 126 125 128 127 128 126 128 127 125 127 126 
126 126 126 126 125 125 127 127 126 126 125 125 127 124 126 125 126 
125 124 124 123 123 122 125 124 124 123 124 123 125 127 125 123 123 
123 125 127 125 127 126 127 125 123 123 123  83 121 118 121 124 122 
122 121 120 122 122 123 122 121 122 122 123 126 123 122 122 121 121 
122 119  97  66  56  55  55  56  57  51  54  54  57  56  54  61  87 
110 122 125 114  72  41  40  45  51  70  70  60  60  57  59  56  48 
 71 105 118 125 127 127 129 127 127 125 125 126 127 126 120 109  77 
 69  70  66  89  93  68  56  61  87 100  78  59  69  97  89  67  62 
 68  88  84  72  63  65  66  65  68  70  71  74  81  94  99 113 124 
126 128 128 129 130 130 132 132 131 130 128 128 130 133 133 118  66 
 31  29  35  41  46  47  49  49  49  51  50  46  45  47  44  47  45 
 41  43  57  86 113 127 130 132 130 130 129 131 128 131 132 131 132 
131 131 131 128 131 130 133 132 132 131 131 133 131 133 130 132 133 
131 131 129 131 130 131 131 130 132 132 131 132 133 133 132 132 130 
131 130 130 131 128 130 132 133 130 135 131 132 130 132 133 131 134 
131 131 131 131 130 129 130 129 130 129 132 133 130 129 129 129 131 
130 130 130 127 128 127 128 127 129 129 128 130 129 129 131 131 130 
130 128 129 129 128 128 129 129 130 127 127 128 125 127 127 129 128 
126 126 126 127 127 128 127 129 128 127 128 127 127 127 129 129 128 
127 129 126 126 127 128 125 126 127 126 125 126 124 126 126 124 126 
126 125 124 125 124 125 122 124 124 126 125 125 125 126 124 126 126 
123 126 125 127 125 124 124 122  85 123 119 122 124 122 123 121 119 
121 118 122 122 123 121 121 119 121 120 121 122 123 123 123 118 104 
 66  55  57  55  57  57  47  48  57  56  53  54  51  56  76  98  93 
 62  37  43  50  52  67  75  65  61  60  56  59  56  49  77 108 118 
124 125 126 127 125 126 126 127 127 127 126 121 102  77  68  71  84 
101  76  59  54  80  96  78  62  65  90  98  66  58  66  81  84  71 
 64  66  59  63  60  61  64  61  71  80  93  98 113 124 128 131 129 
129 129 130 130 130 130 132 129 129 130 132 116  73  36  33  42  44 
 47  50  47  48  49  51  50  52  52  49  48  46  47  47  45  42  45 
 54  81 111 123 126 130 131 129 129 130 130 132 130 132 134 130 131 
131 131 132 132 132 132 131 131 130 129 134 131 129 131 128 131 131 
130 129 130 131 131 130 130 132 131 130 131 131 130 131 133 130 130 
131 131 131 131 131 131 130 132 132 130 130 131 129 131 129 129 128 
128 129 129 128 130 128 129 131 130 131 129 130 132 130 130 129 128 
130 130 127 127 127 128 128 128 130 129 127 130 128 129 129 129 129 
130 128 130 127 130 130 127 127 128 128 129 127 128 126 126 127 125 
126 128 127 127 126 127 128 130 126 127 124 124 125 126 126 124 126 
129 126 127 126 128 125 125 126 127 124 126 124 123 124 126 124 125 
125 125 125 125 126 125 125 124 124 125 125 123 125 124 124 125 124 
125 124 124 124 122  83 122 119 122 122 123 123 122 122 124 123 125 
123 124 121 122 123 125 122 122 123 122 121 120 117 108  74  52  56 
 57  54  55  54  58  63  59  58  65  59  48  39  38  28  32  43  52 
 55  62  74  64  54  59  60  56  59  50  50  87 110 121 122 124 125 
128 125 127 128 126 126 126 127 121  99  82  71  75  87  83  58  52 
 74  98  87  67  63  83  99  78  58  65  88  89  72  67  67  76  74 
 73  63  67  70  70  72  94 103  98 117 123 126 127 128 128 130 131 
132 130 131 133 132 133 134 122  74  36  32  45  48  47  47  53  49 
 51  47  45  46  48  51  54  49  48  48  45  45  44  43  46  54  79 
111 124 127 131 129 131 131 129 130 132 132 131 132 134 132 133 131 
131 130 131 133 131 130 132 130 131 132 130 132 130 132 129 131 132 
130 130 129 130 132 131 130 130 131 130 129 132 129 130 132 134 133 
131 130 130 129 129 130 131 129 131 128 130 128 131 130 130 131 131 
128 131 129 130 128 128 132 131 129 129 128 129 129 130 129 131 128 
130 131 130 129 129 131 128 127 129 130 128 127 130 127 129 129 129 
128 127 130 130 128 131 130 130 127 127 126 126 128 127 128 128 127 
127 125 127 127 126 129 126 128 126 128 128 126 127 124 126 125 127 
125 127 126 125 125 126 125 126 123 123 123 124 123 124 123 125 125 
126 126 125 125 126 124 123 124 122 123 124 124 124 124 125 123 123 
123 120  82 121 119 121 119 123 123 123 119 120 122 122 124 124 122 
122 123 123 122 121 122 119 121 122 120 114  85  57  61  59  56  60 
 56  59  65  58  51  73  74  62  53  52  55  55  58  60  58  74  68 
 55  57  62  60  52  56  49  56  94 113 122 124 127 125 126 127 127 
128 127 126 124 125 120 104 101  72  69  76  76  67  70  86  84  64 
 57  81 100  85  70  68  85  99  75  63  68  74  91  88  76  62  69 
 75  70  67 101 107  93 116 121 125 126 128 128 128 130 131 128 131 
130 130 133 123  80  36  34  44  45  45  50  47  47  50  48  43  49 
 50  48  44  42  43  46  51  52  51  48  46  45  46  58  83 114 126 
129 128 129 132 131 132 130 131 132 130 128 129 130 131 130 133 130 
130 133 131 132 129 130 129 131 130 131 131 132 129 128 130 132 130 
129 130 131 130 129 130 130 129 130 128 131 130 130 130 131 129 131 
131 129 129 131 130 130 127 128 129 132 129 129 131 131 131 130 127 
128 127 130 131 129 129 128 128 131 129 129 129 129 132 130 130 130 
130 126 128 128 130 128 128 128 129 126 125 128 126 129 129 126 130 
129 127 128 127 127 125 128 128 127 128 130 128 127 128 127 127 125 
125 128 127 126 127 125 126 126 127 129 126 128 126 128 125 126 125 
126 124 125 125 123 124 124 124 124 124 126 125 126 125 124 125 124 
123 125 124 121 123 123 123 123 123 122 123 124 121 120 123 123  78 
120 117 120 120 120 121 121 120 122 122 121 122 121 122 123 121 122 
121 120 123 122 122 123 120 115 100  67  51  56  57  56  54  50  57 
 56  55  67  62  55  55  53  58  60  55  56  63  62  56  53  53  60 
 55  56  55  45  73 105 120 125 125 125 124 126 127 128 127 129 127 
125 126 117 105 105  80  71  69  66  69  81  82  60  54  76  98  78 
 67  66  77  90  75  62  65  77 101  91  72  58  61  72  75  68  67 
113  99  91 118 124 125 126 127 125 126 128 126 127 129 128 129 123 
 93  40  31  43  42  46  45  45  45  44  47  46  44  49  52  45  44 
 46  47  43  43  49  51  49  43  43  40  45  66  94 115 122 127 129 
128 131 127 127 126 128 129 129 131 131 130 129 130 131 128 130 131 
128 129 128 129 132 130 129 130 128 130 129 128 129 130 129 130 131 
129 129 129 129 128 129 127 128 130 130 131 130 129 130 129 130 129 
128 126 129 128 128 132 128 131 129 131 130 130 129 127 128 128 130 
127 129 129 129 127 128 130 128 131 129 129 128 129 128 130 125 128 
128 127 126 129 126 127 127 127 127 126 127 127 128 127 127 128 129 
125 126 126 125 127 126 128 128 127 127 126 127 125 126 127 125 125 
128 127 127 125 126 126 125 125 125 125 125 124 123 125 125 124 125 
125 125 125 125 122 125 124 123 124 124 123 124 126 124 123 121 125 
124 123 121 123 122 122 123 122 121 123 123 121 121  81 122 118 121 
121 121 120 120 120 120 119 123 123 124 122 122 121 124 121 123 125 
125 123 122 118 120 112  85  61  58  58  55  53  58  62  59  55  60 
 60  55  57  59  56  55  59  62  61  60  53  60  62  59  56  60  50 
 57  89 112 123 125 126 127 126 127 126 128 125 125 125 123 126 123 
102 101  79  67  71  66  62  61  62  62  77 106  86  68  90  95  98 
 87  71  85  86  92 100  82  63  72  74  81  73  65  75 117  92  94 
119 121 125 128 129 128 126 129 131 129 131 131 129 115  63  38  43 
 49  46  45  44  47  45  47  49  50  45  43  44  45  44  49  46  44 
 46  47  47  50  47  49  44  44  49  75 103 120 126 131 129 128 128 
128 129 129 129 131 129 128 128 131 129 130 127 129 131 131 134 131 
130 131 131 132 132 132 132 132 131 132 130 132 132 133 131 133 131 
130 130 131 130 128 132 132 128 130 128 129 129 129 130 130 128 128 
127 129 131 129 128 128 129 127 129 129 128 128 128 130 127 129 128 
131 130 129 129 129 130 132 129 130 130 130 130 129 130 128 129 129 
128 128 128 129 129 127 128 130 128 130 129 131 129 128 125 128 127 
127 127 128 127 127 127 129 128 128 128 128 128 128 126 128 127 126 
124 125 126 124 125 127 127 126 126 125 127 126 124 125 124 126 125 
126 122 123 125 125 124 129 125 128 125 125 124 126 124 124 124 124 
124 124 123 126 124 123 123 123 121 121  80 120 117 121 122 122 121 
121 120 121 122 121 121 120 121 119 121 122 120 123 123 124 123 123 
120 121 118 102  70  57  58  60  53  54  58  58  54  59  63  66  62 
 58  59  58  57  57  59  55  58  62  53  52  59  52  45  75 107 121 
126 126 128 128 126 127 127 127 125 126 126 125 127 125 110 103  94 
 71  72  71  71  72  73  79 103  92  61  85 117 117  92  72  87  99 
 97 100  84  66  69  82  78  79  71  66  95 120  85 108 122 126 129 
129 129 128 126 128 130 129 130 130 124  91  47  39  44  45  44  46 
 46  46  45  47  46  50  51  48  48  50  51  50  49  49  49  49  47 
 51  48  52  49  42  47  61  92 117 125 131 131 130 129 127 129 128 
129 132 130 128 129 131 129 129 129 130 130 130 131 129 130 131 132 
133 132 133 133 133 132 131 127 131 130 131 129 131 130 132 132 132 
130 130 131 130 129 130 128 129 131 129 130 130 131 131 129 131 131 
130 128 130 130 129 128 130 128 127 128 128 128 128 129 131 126 130 
130 131 132 127 131 131 129 128 128 131 131 129 126 128 126 128 127 
128 128 127 128 130 128 129 127 128 127 127 127 128 126 127 126 127 
127 128 127 130 128 128 129 128 128 129 127 127 126 127 126 125 125 
124 126 127 124 125 127 128 129 127 126 127 126 128 126 126 125 124 
125 125 125 126 128 125 125 124 125 125 124 125 121 122 125 126 122 
125 123 124 124 126 124 121  80 120 118 121 121 120 121 121 120 119 
122 122 123 121 124 124 121 121 121 124 123 121 121 123 123 121 120 
113  93  64  55  56  59  62  57  55  50  56  66  67  68  68  69  64 
 58  56  56  55  59  64  63  67  54  40  58  99 116 123 125 125 127 
126 125 126 129 127 125 126 125 126 126 124 114 102  98  79  73  73 
 76  77  81  91 100  82  80 114 121  91  64  81 104  96  91  79  70 
 78  82  78  72  71  72  67 104 103  79 111 121 126 127 126 127 127 
126 126 127 128 128 127 112  65  37  43  44  44  49  50  45  44  43 
 43  44  49  50  47  48  52  52  54  49  47  45  47  47  47  48  50 
 46  44  43  53  79 105 121 126 127 131 129 127 130 129 128 130 130 
128 130 128 128 129 128 130 129 131 131 130 132 132 131 131 131 132 
133 132 131 128 129 131 130 129 129 129 130 133 130 130 128 131 129 
128 130 128 128 128 130 130 129 129 129 129 130 130 130 130 130 130 
129 128 127 129 128 128 129 128 128 127 126 131 131 130 130 128 128 
129 129 128 129 129 128 128 127 126 125 127 127 128 128 127 128 128 
128 129 129 129 128 126 128 128 126 127 125 126 127 126 126 125 124 
128 127 126 127 125 125 126 127 128 127 127 126 124 124 123 124 126 
125 126 126 125 127 128 125 126 126 127 125 124 124 123 124 127 123 
128 124 126 123 124 122 126 124 123 122 122 122 122 123 124 122 124 
124 125 124 120  81 119 120 121 121 121 124 122 120 123 123 125 119 
123 123 123 121 121 122 124 123 121 122 123 120 123 122 120 111  84 
 60  53  61  65  68  62  56  61  54  52  54  54  50  49  55  55  57 
 66  63  63  68  61  43  53  91 114 123 124 124 125 126 127 126 127 
128 130 127 127 126 127 126 127 122 104  96  85  74  78  79  83  84 
 87  86  79  96 116 102  59  74 109 116 104  80  70  89 100  85  82 
 75  73  73  81 115  89  97 119 125 125 129 128 128 129 127 128 129 
128 128 125  94  50  39  43  46  46  48  50  50  47  43  46  44  46 
 48  50  49  46  52  50  48  50  46  46  47  46  50  48  44  44  41 
 46  69  96 117 126 128 133 129 130 132 131 131 132 130 129 132 129 
129 131 128 130 129 131 132 132 134 132 132 131 132 132 133 131 132 
129 128 130 131 131 131 130 129 130 131 131 130 131 131 132 131 131 
130 130 130 131 130 131 129 130 129 130 131 132 131 129 129 128 129 
131 127 129 129 128 130 131 130 128 128 129 130 130 132 131 130 129 
129 129 129 129 128 129 127 128 127 128 127 126 128 129 128 127 127 
127 128 126 128 127 127 128 127 127 128 128 129 126 126 128 130 129 
127 125 127 126 126 128 128 126 126 125 127 125 126 126 126 129 127 
126 128 127 126 127 126 126 125 125 125 124 124 126 125 126 126 126 
126 125 125 125 122 124 124 121 121 122 123 123 123 125 123 122 123 
121  83 121 120 120 121 122 123 121 122 122 120 123 120 122 120 120 
122 123 123 123 122 121 123 121 119 121 122 120 119 107  82  59  51 
 60  73  76  64  60  58  60  68  68  57  56  56  59  62  66  69  67 
 54  39  48  88 113 121 124 125 124 126 126 126 127 127 126 128 128 
129 128 128 126 126 122 113  92  90  77  76  78  82  81  85  76  71 
 81  91  73  67  99 121 111  82  65  83  95  91  86  77  73  74  72 
 99 101  82 109 122 126 127 129 129 127 129 128 129 129 130 129 121 
 81  44  43  46  43  41  46  50  46  45  40  44  44  46  48  50  49 
 52  48  49  48  48  47  47  45  50  47  49  47  50  45  48  60  87 
111 124 127 130 130 129 130 130 128 131 130 130 132 130 130 130 127 
131 129 131 131 131 131 129 131 131 131 132 131 130 130 129 128 130 
129 130 128 130 130 131 131 132 131 131 130 131 132 131 129 129 129 
129 128 130 129 129 129 131 129 130 129 130 130 129 130 131 128 131 
130 129 129 130 130 131 128 130 130 129 130 130 131 131 131 131 129 
129 128 129 129 129 126 127 127 127 126 128 129 129 129 128 128 128 
129 129 128 129 126 126 125 126 128 127 125 125 125 125 126 125 127 
124 125 126 126 126 125 124 126 125 125 125 126 127 124 125 127 127 
127 127 124 125 123 125 125 124 124 126 124 125 123 125 124 124 123 
124 123 125 121 122 123 122 121 123 124 124 123 123 124 121  82 121 
118 120 121 122 121 121 121 123 122 122 122 122 123 124 121 123 123 
123 123 124 123 120 123 123 123 122 119 119 106  84  61  57  57  63 
 60  60  64  61  60  57  47  56  66  65  68  64  61  53  37  52  91 
114 124 125 121 123 125 126 125 124 125 125 127 127 128 129 127 128 
127 126 124 121 105  95  81  79  79  80  82  91  86  98  99  68  61 
 87 113 116  87  62  83 104  95  94  91  78  82  84  97 114  88  97 
116 127 127 130 129 128 127 128 127 128 126 131 128 115  73  45  44 
 46  44  43  40  45  42  42  44  45  43  45  48  55  53  54  49  46 
 45  47  42  43  45  48  49  49  49  52  42  48  56  75 105 121 126 
129 132 130 130 131 129 132 131 131 132 131 130 130 128 131 129 129 
128 129 130 132 131 132 132 131 130 130 130 131 129 130 130 130 128 
130 131 132 130 131 133 134 132 129 133 130 129 129 130 130 129 129 
129 130 129 130 129 131 130 130 130 129 126 129 129 131 130 128 128 
127 128 128 130 131 126 129 128 129 127 129 129 130 129 128 128 128 
128 128 128 128 128 128 126 128 128 130 130 130 130 129 130 130 127 
128 126 128 126 124 126 126 125 126 125 127 128 128 128 126 127 127 
127 128 126 124 125 125 128 126 125 125 126 128 127 127 126 127 124 
125 125 126 123 124 124 124 125 125 123 123 123 125 125 126 125 125 
123 122 122 125 122 123 122 121 122 124 124 122  81 122 118 120 120 
122 120 123 123 124 122 124 122 122 120 121 122 123 121 122 119 120 
120 119 121 123 123 123 124 122 118 111  90  64  52  51  57  63  62 
 59  57  54  43  54  70  62  61  53  41  37  71 102 120 124 124 126 
123 125 126 126 126 125 126 126 125 127 127 127 128 127 127 127 124 
123 112  95  86  84  85  79  77  81  95  96  92  85  98 115 121  97 
 65  80 100  94  92  92  88  84  82  85 108  85  79 115 122 127 128 
126 129 130 128 130 128 130 128 129 127 110  65  47  43  47  45  41 
 38  41  40  47  45  42  44  49  48  53  52  54  48  45  45  44  41 
 46  44  43  48  48  49  47  42  47  52  67 102 118 126 129 129 130 
130 130 130 131 130 129 132 129 130 128 128 131 129 131 131 130 128 
131 132 131 130 129 129 129 128 129 130 128 129 130 131 131 129 128 
130 131 132 130 133 130 130 130 131 130 130 129 129 128 129 130 129 
129 130 131 131 128 130 130 128 130 129 128 128 127 128 128 129 130 
128 128 127 128 129 128 128 129 127 127 130 128 129 129 127 126 127 
123 126 125 126 129 129 128 128 127 129 126 129 129 126 126 126 127 
127 124 127 125 125 129 126 126 127 127 125 127 125 128 126 126 124 
125 125 124 125 126 127 128 128 128 126 129 126 127 126 124 123 123 
121 123 125 124 125 125 126 125 124 125 125 124 126 125 123 122 122 
120 122 122 120 121 121 123 121 122  82 116 116 118 120 119 119 120 
121 121 121 120 122 121 120 123 121 122 120 121 120 122 121 121 121 
121 123 123 122 121 121 119 115 105  83  60  51  51  52  53  51  49 
 50  55  50  40  35  38  61  93 116 125 125 124 124 125 124 125 126 
124 124 125 125 126 124 127 127 125 125 125 126 125 124 120 118 112 
 90  89  83  80  78  77  81  93  97  99 106 115  96  71  70  93 100 
 93  93  88  85  84  91 102  81  72 103 118 126 128 125 129 129 129 
128 128 126 126 123 124 123  96  59  47  45  41  45  44  37  37  35 
 35  38  41  46  43  44  46  52  46  39  42  44  40  43  45  44  41 
 40  46  45  43  42  45  51  66  98 116 124 127 129 127 128 128 129 
130 130 131 127 128 128 127 128 129 129 132 131 132 129 130 130 131 
128 130 128 131 130 129 127 128 129 128 129 128 129 130 128 130 131 
130 130 130 127 128 127 128 129 128 130 128 127 126 127 128 130 129 
130 128 130 130 129 130 128 127 129 128 126 127 126 124 126 126 128 
125 126 126 127 127 127 125 127 127 128 127 128 124 125 127 126 127 
126 125 126 126 127 125 128 126 127 126 126 127 127 127 126 126 127 
126 124 126 126 125 126 128 127 126 125 124 127 127 128 124 125 125 
125 125 124 124 124 124 124 125 126 125 124 124 123 127 124 124 124 
125 121 123 124 124 125 124 124 125 122 122 122 123 123 124 123 122 
123 121 120 122 121 119  85 120 119 119 118 118 119 119 119 119 120 
118 120 121 121 117 120 122 121 121 121 121 121 122 121 125 123 125 
125 122 122 121 120 121 117 108  95  73  53  42  38  37  31  32  41 
 55  80 102 116 124 125 125 127 128 127 127 125 126 125 125 126 127 
127 127 126 127 127 128 127 127 125 126 124 128 126 122 106  87  82 
 84  87  93  87  85  91 102 106  97  72  76  77  94 108  90  84  90 
 90  89  93  87  73 103 118 124 123 128 128 128 130 129 128 129 127 
129 129 128 123  96  57  48  39  45  48  47  41  42  38  42  38  41 
 41  45  48  50  46  42  43  45  44  41  45  47  47  44  41  52  47 
 45  42  50  53  65  97 116 124 128 129 129 129 130 131 131 129 131 
130 131 131 130 130 131 132 132 130 131 130 130 127 130 129 132 130 
132 131 129 128 130 130 131 130 131 130 129 130 132 131 131 131 131 
128 129 126 129 129 130 131 129 130 129 128 130 129 128 129 129 129 
127 127 129 129 128 130 129 129 130 128 129 125 128 127 127 126 127 
127 129 129 129 128 128 127 127 128 127 127 127 126 127 126 125 126 
128 127 128 128 129 128 127 127 128 126 127 127 126 124 125 124 125 
126 126 126 128 128 127 126 126 126 127 127 127 127 125 124 127 126 
126 126 127 126 124 124 126 127 125 125 123 124 124 121 123 124 124 
123 125 126 128 123 124 123 123 124 124 123 123 121 121 122 122 121 
121 121 120  87 119 114 116 118 117 116 114 114 119 118 117 119 121 
121 121 120 122 120 121 122 123 122 122 122 124 123 123 124 123 123 
123 123 123 121 122 123 120 118 119 113 112 113 117 122 123 125 127 
126 126 124 124 125 126 127 126 127 126 127 123 126 123 125 124 127 
127 127 128 127 126 126 127 128 127 125 123 121 111  88  77  84  97 
 97  90  90  93  85  90  99  98  99  97  93  93 104 100  90  90  71 
 75 104 117 126 125 126 127 127 127 128 127 129 127 128 132 129 126 
122  91  59  54  44  45  45  48  44  45  42  40  42  45  44  43  39 
 43  46  46  48  45  44  47  49  49  45  40  43  49  47  43  42  49 
 58  62  95 117 121 127 129 127 130 129 128 131 129 130 130 130 130 
129 130 129 129 129 129 129 131 134 129 130 129 130 130 132 131 129 
129 131 130 130 130 131 131 130 130 131 130 131 131 130 129 129 129 
130 129 128 130 130 129 130 130 129 128 130 129 128 129 130 128 128 
128 128 129 127 127 126 127 125 128 128 128 129 128 126 127 130 129 
130 129 129 128 128 127 126 126 127 127 127 126 127 127 129 127 129 
127 129 127 128 127 128 125 126 127 126 125 126 126 126 126 126 126 
126 125 125 126 126 126 126 126 127 127 125 125 125 124 125 125 126 
124 125 124 125 124 124 125 123 125 125 124 125 123 124 125 126 125 
124 123 122 123 122 121 120 121 122 123 123 123 123 122 122 122 121 
 87 120 117 120 119 116 117 115 117 118 118 119 119 119 122 121 122 
124 121 121 123 123 123 122 122 122 123 122 121 122 123 123 123 124 
121 120 121 122 123 124 121 122 123 121 121 123 122 121 123 124 124 
125 125 124 125 125 124 124 124 124 127 126 127 127 125 126 128 126 
128 126 126 125 126 128 124 125 128 124 114  93  76  76  82 103 110 
111 103 100  95 100 104 105 106 107  98  82  69  60  82 111 121 128 
127 128 126 127 127 127 130 128 127 128 127 129 124 126 123  92  61 
 59  43  39  39  43  44  44  45  45  46  48  48  47  47  44  44  45 
 46  47  45  47  49  48  46  45  50  50  48  48  42  54  66  67  94 
116 124 128 129 129 128 129 128 132 130 129 129 129 130 129 128 130 
131 130 129 130 129 129 128 130 130 130 130 129 130 130 128 130 131 
132 132 130 130 130 130 131 130 131 131 129 131 130 127 130 127 129 
130 128 129 129 128 129 130 130 128 128 128 128 128 127 127 128 129 
128 128 128 129 130 127 127 129 128 129 129 127 128 129 130 131 129 
128 128 128 127 126 127 128 127 126 126 127 128 127 128 127 127 127 
129 127 126 126 127 126 125 126 125 124 125 125 125 126 126 126 126 
125 125 125 125 127 125 126 124 125 126 125 124 123 125 125 125 124 
124 122 123 124 125 125 124 123 124 123 125 124 123 123 123 120 121 
124 124 123 122 123 123 120 122 122 122 121 121 121 117  85 120 118 
120 118 116 121 122 119 121 121 124 120 121 121 119 121 124 122 124 
122 123 121 122 122 124 123 123 122 121 124 121 122 123 123 124 124 
125 123 122 122 125 123 124 125 122 125 127 125 125 123 125 124 124 
124 127 126 126 125 126 126 125 125 126 127 127 127 125 127 127 128 
127 126 127 128 128 128 126 126 122 106  86  75  74  77  91 102 108 
117 121 111 103  94  77  63  59  70  99 120 125 128 128 130 128 125 
127 128 129 131 130 127 129 128 127 128 126 124  94  66  66  49  46 
 43  41  39  37  38  42  46  49  49  50  51  51  47  46  51  48  45 
 45  49  51  49  41  45  47  45  48  39  58  65  64  99 118 125 128 
129 129 129 131 130 132 128 129 132 130 132 131 130 129 128 130 129 
129 129 131 129 131 130 129 130 131 130 130 128 130 130 129 130 128 
129 131 130 131 131 130 131 130 132 130 129 132 128 130 131 129 130 
130 132 131 131 130 129 129 129 128 129 129 129 130 129 130 129 129 
130 128 129 129 128 129 128 128 127 128 129 130 131 128 128 128 127 
129 126 127 127 127 126 126 129 130 129 129 127 128 128 127 127 127 
127 126 125 125 127 126 125 127 126 126 126 126 127 127 124 125 126 
126 127 124 126 125 126 125 124 125 125 124 124 126 126 125 125 124 
123 124 125 123 124 123 123 123 124 124 121 124 126 125 124 123 122 
123 123 122 119 124 122 124 122 122 122 120  85 120 117 119 119 119 
121 120 122 122 120 120 122 122 122 121 121 122 123 123 122 121 122 
122 121 124 120 120 122 123 125 124 123 125 123 123 122 124 125 125 
122 124 124 124 126 126 125 123 124 125 123 125 125 126 123 124 123 
124 125 125 125 124 126 127 127 127 126 126 127 128 128 129 127 125 
124 125 127 125 126 125 123 119 106  88  72  65  60  58  54  47  49 
 56  54  57  83 110 120 129 124 128 128 128 128 127 126 128 127 128 
126 129 128 128 127 128 128 125 124 105  80  86  54  46  45  43  43 
 43  42  46  47  47  44  47  51  49  45  47  46  48  43  45  48  49 
 46  45  51  49  45  43  45  72  70  68 104 120 125 127 129 128 130 
130 128 128 128 130 130 127 129 129 130 130 128 128 128 130 129 129 
128 130 130 127 128 130 129 129 128 130 129 128 128 128 126 127 129 
129 130 129 131 131 133 130 130 131 129 130 130 129 129 130 131 130 
128 129 128 127 127 129 127 130 128 128 126 128 129 129 127 129 127 
127 129 127 127 128 128 129 129 130 130 128 127 127 126 130 126 126 
125 127 128 128 126 129 129 128 125 127 128 126 126 128 128 125 127 
125 127 127 124 126 125 126 125 125 126 125 125 128 126 127 127 127 
128 127 124 125 125 123 122 125 125 124 124 125 125 124 124 126 124 
123 126 124 124 125 124 124 123 124 123 123 124 125 124 124 123 121 
120 124 122 124 121 120 120 121  83 119 119 119 119 118 119 120 121 
119 120 121 120 120 121 121 123 123 121 123 121 121 123 122 122 123 
121 118 122 124 123 124 124 125 123 124 123 124 123 122 122 121 124 
125 124 125 124 126 126 126 125 127 126 127 125 123 126 125 125 125 
126 127 124 125 127 127 127 128 127 127 126 126 126 127 125 129 126 
127 126 124 127 126 128 129 121 116 109 100  96  98 101 103 114 126 
129 129 126 125 124 128 127 127 129 128 127 129 125 125 126 129 126 
127 126 128 126 125 124 110  82  85  63  46  44  41  48  50  43  45 
 45  46  50  48  44  42  46  47  43  45  43  48  50  48  47  50  53 
 49  42  38  47  76  62  72 110 120 129 128 129 129 127 128 129 129 
129 130 129 127 130 130 129 129 128 130 130 130 130 131 126 130 132 
130 129 130 127 129 128 130 131 129 130 131 128 129 129 129 130 130 
130 131 131 130 128 131 129 132 132 129 132 129 127 129 130 129 127 
129 128 130 128 131 129 129 128 128 128 129 128 130 129 130 127 129 
125 126 127 129 129 130 128 127 127 126 128 131 126 127 125 127 128 
126 127 128 129 129 126 127 128 127 127 129 129 127 128 125 126 127 
125 126 125 127 127 127 128 125 126 128 126 127 127 128 128 127 124 
124 125 124 125 125 122 122 122 123 124 124 124 125 124 124 124 125 
124 124 124 124 124 124 123 123 123 123 123 123 123 124 124 125 124 
125 124 123 121 121  86 119 118 120 121 119 119 120 119 118 121 119 
121 121 122 122 123 123 122 123 122 121 123 121 121 123 121 121 122 
123 125 123 124 124 123 124 123 122 123 124 120 123 122 122 124 124 
125 126 126 125 125 127 125 125 125 125 124 123 127 124 127 126 126 
126 127 127 128 126 126 127 128 128 128 126 126 128 127 124 124 126 
125 124 125 126 128 125 127 130 129 129 129 129 127 127 127 125 125 
127 124 125 125 126 128 127 128 128 127 128 128 129 126 127 127 126 
126 125 124 118  83  88  75  45  45  41  47  50  46  43  46  50  52 
 49  49  48  48  48  46  48  48  47  50  43  52  60  50  49  47  41 
 56  77  54  83 114 123 127 124 126 125 127 128 128 128 129 128 129 
129 130 127 127 127 130 129 130 130 130 130 130 129 128 129 131 131 
127 129 129 128 130 126 127 126 124 128 128 128 128 129 127 128 127 
128 129 130 130 131 131 127 130 128 127 129 129 130 129 130 127 129 
128 128 128 129 130 128 127 128 128 130 127 124 127 127 127 126 126 
128 127 125 126 126 128 127 127 127 122 127 126 127 127 125 128 126 
126 126 127 125 128 127 126 126 127 127 127 125 127 128 125 126 125 
126 125 124 126 125 126 128 125 126 127 125 125 125 125 125 125 123 
122 123 123 125 123 123 125 124 125 123 126 125 125 125 125 123 123 
126 122 123 121 123 124 123 123 121 121 123 123 123 122 121 123 123 
121 120  83 118 117 118 117 120 118 118 117 119 117 118 119 120 120 
121 121 124 123 122 121 120 120 121 122 120 124 123 125 124 122 122 
123 125 124 126 123 122 122 121 122 124 122 121 122 123 125 125 124 
124 125 125 124 124 126 126 126 125 123 122 124 126 123 126 124 126 
125 127 127 126 127 128 126 125 127 128 129 126 128 127 125 125 126 
125 126 128 124 127 126 126 126 126 127 123 125 124 124 127 127 124 
125 125 125 127 126 126 127 127 127 127 126 125 125 125 125 127 125 
118 101  79  85  53  43  45  46  49  51  48  48  48  47  52  51  46 
 46  45  45  47  49  48  45  44  44  46  44  47  45  40  65  66  62 
 98 121 125 127 128 126 127 127 127 128 128 128 128 130 128 129 130 
129 128 128 128 130 129 128 129 130 130 129 130 130 128 128 129 129 
128 128 130 129 128 130 128 128 128 129 128 129 128 129 128 128 130 
129 130 131 128 130 128 129 127 129 128 128 128 128 128 125 127 128 
130 126 126 126 127 125 127 126 126 125 125 128 126 128 127 125 127 
126 126 127 128 127 127 127 127 126 127 127 125 126 125 124 125 125 
126 124 126 127 126 127 126 127 126 124 126 124 123 124 125 124 125 
123 124 123 125 124 126 126 127 125 124 123 125 122 123 125 124 122 
122 123 121 122 126 124 124 124 123 123 123 123 125 123 124 122 124 
123 123 122 123 121 120 122 122 123 123 122 121 120 122 121 120  85 
120 118 118 119 120 118 120 119 121 120 121 122 120 121 121 122 123 
124 123 124 121 121 123 124 124 124 123 121 122 121 124 123 124 123 
125 124 123 125 125 124 123 123 125 126 125 126 124 124 124 123 126 
125 127 127 126 125 127 129 127 127 125 124 126 126 128 127 128 129 
129 128 126 127 128 128 128 130 129 128 126 124 127 126 126 126 127 
127 128 127 128 127 129 128 126 125 124 126 127 126 126 129 128 127 
128 126 127 129 129 128 129 126 126 124 129 125 127 128 124 111  83 
 77  72  47  47  47  44  47  51  48  52  52  49  50  49  44  43  42 
 44  48  48  47  47  49  48  49  44  38  51  67  58  75 114 122 126 
128 128 125 127 128 129 129 130 131 131 131 129 129 128 127 129 131 
129 128 129 129 128 129 131 129 129 129 130 129 128 128 130 128 129 
132 130 129 130 128 129 129 129 128 130 130 129 129 131 130 131 130 
131 129 129 129 129 130 128 128 128 129 128 127 128 126 128 128 128 
128 127 126 128 127 127 126 126 126 125 127 127 125 127 128 128 127 
127 125 127 127 127 126 125 126 125 123 126 126 126 125 127 126 126 
126 127 128 125 126 128 126 126 124 124 124 126 126 126 124 123 124 
126 125 127 126 126 125 126 126 127 127 125 124 125 124 127 123 123 
124 126 123 124 125 124 123 126 123 121 123 124 122 123 123 123 122 
123 123 122 124 123 120 122 123 124 122 123 120 120  84 120 119 118 
119 119 119 120 120 121 123 122 122 119 122 122 122 122 120 121 123 
122 121 123 122 123 122 123 123 124 122 123 123 124 122 126 124 123 
123 124 124 125 124 124 124 122 124 126 126 125 125 126 127 126 128 
125 125 126 127 127 127 126 126 127 125 127 127 126 126 126 127 127 
125 125 126 127 125 127 128 125 124 126 127 125 125 127 126 126 127 
128 127 129 128 128 128 128 128 128 127 128 129 127 127 126 128 128 
129 129 129 129 127 128 126 130 128 128 128 127 121  96  75  72  57 
 45  42  43  45  46  47  52  51  50  49  47  46  45  47  46  47  48 
 46  46  47  47  47  44  50  62  58  56  95 118 125 125 127 128 129 
129 129 129 128 130 130 130 131 131 131 130 129 130 131 130 129 130 
131 131 131 129 129 133 131 129 128 130 129 126 128 128 128 129 133 
130 130 131 130 130 128 131 129 127 127 131 129 131 130 128 130 128 
128 129 129 127 128 129 130 129 129 131 129 129 129 127 129 129 127 
128 127 127 126 127 128 128 127 128 127 128 128 127 128 128 125 126 
128 129 129 125 126 125 123 126 127 124 124 125 126 126 127 127 128 
128 129 128 127 128 125 125 125 125 126 127 126 126 127 127 124 126 
126 126 124 125 124 126 126 127 125 125 127 126 123 126 124 125 123 
124 125 125 123 123 123 122 124 124 124 124 122 123 122 123 123 122 
123 123 121 124 122 124 122 122 120 120  85 118 117 119 118 118 119 
119 121 121 122 122 121 119 121 120 119 121 120 122 122 124 124 123 
123 123 123 124 124 123 123 122 120 121 122 123 125 123 123 124 123 
124 127 126 124 123 126 124 124 126 124 126 125 124 127 126 127 126 
124 125 125 126 125 124 121 123 126 126 126 123 124 124 125 125 125 
127 127 127 128 128 125 125 129 127 125 128 127 127 126 127 126 126 
128 127 130 130 129 129 127 128 127 126 128 128 128 127 126 127 128 
129 128 129 128 130 130 128 128 126 122 112  77  75  64  48  44  42 
 43  45  48  49  51  48  52  48  49  52  49  49  46  46  50  54  49 
 47  44  44  51  56  46  79 110 121 125 126 129 127 128 128 130 129 
128 129 128 129 129 129 128 128 129 129 129 130 128 127 130 130 127 
130 130 129 127 129 130 128 129 130 130 128 131 130 130 130 129 130 
130 130 128 131 128 126 126 128 128 128 130 130 130 130 126 128 128 
127 127 127 128 128 129 130 127 129 131 128 128 127 125 125 126 125 
128 127 127 125 125 127 126 127 125 124 126 126 125 126 126 127 128 
125 128 127 126 126 126 123 125 125 126 127 126 127 127 126 128 128 
127 126 123 126 127 126 126 126 125 126 125 125 124 125 125 125 124 
124 124 123 125 125 125 124 123 122 123 125 122 124 124 123 125 125 
125 125 124 121 124 124 124 122 120 122 122 123 123 122 122 122 122 
123 121 122 122 122 120 120  86 118 116 121 121 121 120 121 121 122 
122 123 123 122 122 120 121 123 122 121 122 122 124 122 121 123 123 
123 124 122 125 125 124 125 122 124 124 125 125 125 124 125 127 127 
125 125 126 123 123 125 124 126 127 126 127 126 125 126 125 128 126 
126 125 124 125 126 127 127 128 126 128 127 125 126 127 128 128 126 
128 129 127 129 128 130 128 129 129 129 127 128 129 128 130 129 129 
129 129 130 129 130 128 127 128 126 129 129 129 129 131 131 129 129 
128 126 128 130 128 127 124 120 105  72  65  54  49  49  45  44  46 
 47  48  47  47  47  50  48  44  46  44  48  59  56  47  45  46  51 
 58  51  64 105 121 125 130 129 129 129 130 128 129 130 130 131 129 
129 130 129 128 129 130 131 131 131 131 130 131 130 129 128 128 129 
128 126 127 128 127 128 128 129 131 131 130 130 130 131 131 131 129 
130 129 129 128 129 128 128 130 132 130 129 127 129 128 128 128 128 
128 128 128 130 129 130 131 129 129 129 127 128 128 127 130 129 128 
128 129 130 128 129 129 129 130 129 125 127 126 127 127 126 128 127 
127 126 126 126 127 127 126 127 127 128 129 128 128 127 128 128 127 
128 127 124 125 125 125 126 124 126 126 126 125 126 125 126 123 124 
125 123 124 122 122 123 122 124 122 124 125 124 125 125 124 122 123 
123 121 122 125 123 123 124 123 123 125 124 123 123 122 123 122 122 
125 124 122 120  86 121 119 121 120 120 121 123 120 120 119 121 122 
122 122 121 120 121 120 120 121 121 123 122 122 124 122 123 123 122 
123 122 121 122 122 123 124 125 126 125 125 127 124 125 123 124 123 
124 123 124 124 124 127 125 127 126 124 126 126 128 125 124 125 126 
125 125 126 126 127 126 127 124 126 124 125 126 127 127 128 126 127 
127 125 127 126 127 127 127 127 129 129 128 129 128 128 129 130 129 
129 128 126 128 129 128 127 130 130 128 128 129 128 128 128 129 127 
127 128 127 126 127 118  96  70  63  52  47  48  44  43  47  44  46 
 51  47  46  44  46  55  51  51  55  50  46  46  47  54  54  59  99 
119 128 129 127 130 130 129 126 128 128 128 128 129 128 128 130 131 
129 130 129 130 129 129 130 130 130 129 131 130 129 131 130 127 127 
128 129 126 127 129 127 128 129 128 128 129 128 128 131 130 130 129 
129 132 128 130 128 129 130 128 126 129 127 127 126 127 128 128 130 
131 127 129 129 129 129 129 127 129 127 127 127 128 127 127 125 126 
126 126 127 126 127 127 126 129 127 126 125 125 126 126 125 126 125 
126 125 127 125 126 128 127 127 129 128 125 126 127 125 125 126 125 
126 125 125 124 124 125 125 124 124 125 125 125 123 124 124 123 126 
123 126 126 124 126 123 124 124 124 125 125 123 124 122 123 125 122 
121 125 123 123 123 122 123 123 122 122 121 122 122 121 122 120 121 
118  80 119 118 120 120 121 123 123 120 121 120 121 121 121 123 123 
121 122 121 124 123 122 122 121 122 122 121 121 122 123 124 122 121 
122 123 127 124 126 125 125 127 127 126 127 123 123 125 125 123 125 
123 125 126 127 125 126 127 127 126 127 126 126 126 126 123 123 124 
125 126 126 127 125 126 128 126 126 128 128 127 128 128 128 126 126 
126 129 127 127 127 128 128 128 128 128 128 130 127 128 130 130 128 
128 126 127 126 129 128 127 126 128 127 129 128 128 127 128 127 126 
127 125 123 119  94  67  54  51  48  48  47  46  45  48  50  51  47 
 46  49  52  47  48  46  45  46  49  47  47  57  95 119 128 130 128 
129 129 128 129 128 127 126 128 128 130 128 129 130 132 130 131 131 
132 129 131 133 130 130 130 130 131 129 130 131 130 129 130 128 131 
130 128 130 130 128 130 127 129 127 128 131 130 130 130 128 130 131 
129 128 130 130 130 127 130 128 128 128 128 128 128 127 128 128 128 
128 128 129 129 128 130 129 129 129 128 127 126 127 127 128 127 127 
126 126 127 127 130 129 128 127 126 126 127 126 127 127 126 126 127 
127 127 126 128 129 128 128 127 128 126 126 126 126 125 126 125 126 
126 126 126 127 127 126 126 125 124 125 124 126 125 126 125 125 125 
124 125 124 124 124 125 124 124 124 125 123 122 122 124 124 124 124 
125 124 123 123 123 122 124 121 122 122 122 122 122 123 120  85 118 
116 119 119 118 122 121 120 122 122 121 122 120 122 122 121 122 121 
122 121 119 124 125 121 121 122 120 120 120 125 124 123 124 123 125 
123 124 124 125 126 127 126 124 126 123 124 124 123 124 124 124 126 
125 126 126 123 123 123 127 126 128 124 124 124 123 124 127 125 125 
127 127 126 128 126 127 126 127 125 127 125 129 126 126 127 127 128 
127 127 128 128 127 130 128 127 128 129 129 130 129 127 127 127 131 
126 128 126 129 129 129 127 129 127 126 127 127 128 127 127 128 125 
121 116  96  70  57  49  46  48  49  48  44  40  39  42  43  43  42 
 46  49  48  50  50  49  41  58  98 119 125 127 125 130 129 129 130 
128 129 126 128 129 130 130 127 128 128 130 129 132 132 133 129 129 
129 127 127 128 128 130 127 126 126 128 128 129 127 127 129 128 129 
129 128 127 127 131 127 128 130 129 128 128 128 129 129 128 130 129 
129 126 126 129 127 129 129 128 127 128 124 127 128 128 127 127 129 
128 126 127 128 127 129 126 129 127 129 127 128 126 128 128 127 128 
126 127 127 126 126 125 124 125 126 125 127 124 126 125 125 123 125 
127 127 127 127 126 127 125 127 126 126 125 125 123 125 125 125 125 
127 126 125 125 125 126 124 124 126 127 126 125 127 126 122 122 123 
125 124 125 125 124 121 122 122 122 122 123 122 121 121 122 120 119 
122 123 122 123 121 121 121 123 123 122 122 118  80 120 117 118 120 
121 122 121 118 118 120 120 120 119 119 121 120 120 118 120 120 121 
122 122 122 121 119 121 121 119 122 122 121 124 124 123 124 124 123 
123 122 124 122 121 123 122 123 122 122 121 124 125 126 125 126 126 
126 125 123 125 125 126 124 124 124 124 125 126 128 127 125 125 124 
125 125 127 129 127 127 127 126 126 128 127 127 128 125 127 124 126 
126 128 128 128 126 125 128 129 128 128 127 128 128 126 126 128 128 
128 130 126 129 128 130 127 128 128 125 126 126 127 126 123 121 121 
105  74  57  56  48  47  49  49  45  46  44  45  47  47  50  48  50 
 45  40  44  73 108 121 126 129 127 126 128 127 130 127 128 129 128 
129 129 126 128 129 128 130 127 132 130 129 129 130 130 130 129 127 
130 128 127 128 127 127 126 126 126 128 130 129 131 128 128 127 125 
128 129 127 128 127 129 129 128 128 129 129 129 129 128 129 128 125 
127 127 127 129 127 128 128 126 129 127 126 125 127 129 127 127 128 
126 128 128 127 128 127 125 124 127 127 126 126 125 126 123 126 127 
126 126 126 127 128 125 124 126 123 125 124 125 124 124 126 123 125 
124 125 125 127 126 124 124 124 125 125 127 125 125 123 126 125 123 
125 124 126 123 123 124 125 125 126 125 125 122 122 121 124 122 122 
123 124 124 125 121 122 122 122 122 121 121 120 121 118 122 121 120 
120 121 120 119 120 119 119 119 116  83 120 119 119 120 120 120 119 
119 122 121 123 124 123 123 120 118 121 123 123 123 123 123 123 122 
124 121 123 123 124 123 123 122 123 121 122 124 125 124 125 123 123 
122 123 124 123 127 124 123 123 125 124 122 125 124 126 123 124 124 
124 124 126 126 126 123 124 125 125 125 125 126 126 124 126 126 127 
128 127 127 127 124 125 127 126 125 126 125 126 124 127 127 127 128 
128 128 129 128 129 129 129 129 128 128 127 126 129 127 130 128 128 
128 129 128 128 129 130 128 129 128 126 126 129 127 125 126 118  95 
 67  55  54  48  45  47  51  49  49  43  42  43  41  37  37  60  92 
114 126 127 128 129 129 130 127 127 131 128 129 130 128 129 130 128 
129 127 130 129 129 130 127 128 129 130 130 131 130 129 130 130 129 
127 128 126 124 126 127 128 130 129 130 128 127 127 128 125 130 128 
128 128 129 129 131 128 129 128 130 130 130 130 128 128 131 128 128 
128 128 129 130 126 129 129 128 128 129 130 130 128 129 126 128 128 
128 129 127 128 126 125 126 127 127 127 127 124 126 126 126 126 126 
126 126 125 126 127 124 125 124 125 126 122 123 121 124 124 126 125 
124 125 129 127 125 123 125 125 126 123 123 124 124 126 126 125 126 
124 125 126 125 126 125 124 124 122 122 121 123 124 125 124 123 121 
124 124 124 125 123 122 120 119 121 123 120 120 119 120 123 120 121 
121 120 120 121 119 116  81 118 117 117 119 119 120 121 121 123 119 
123 122 121 122 121 122 122 122 121 122 122 121 121 119 122 121 120 
121 121 122 123 122 124 122 123 122 124 124 126 123 126 123 124 124 
124 124 124 124 125 122 123 122 126 125 126 124 125 126 125 124 125 
125 125 123 125 126 126 126 125 126 125 125 126 126 126 127 127 126 
125 127 127 127 126 127 128 127 126 125 127 128 127 128 127 128 129 
127 128 128 129 128 126 128 129 128 129 128 129 129 127 128 128 127 
126 127 128 128 129 127 130 128 128 127 125 126 125 125 117  98  75 
 57  52  46  45  43  43  40  41  45  53  74 100 116 127 129 129 127 
129 128 127 129 127 127 128 127 129 128 127 129 128 130 130 128 129 
129 128 130 128 127 129 128 129 129 129 129 129 127 129 128 128 126 
124 127 128 128 132 130 130 128 128 127 128 127 129 127 129 129 128 
128 130 128 129 129 130 127 127 129 128 128 129 128 129 127 128 129 
126 126 128 128 127 127 128 128 130 127 129 128 130 127 125 126 126 
127 127 128 127 126 127 125 128 128 126 126 127 125 125 127 126 125 
125 126 126 125 125 125 124 122 124 123 124 124 125 126 124 126 125 
123 126 124 127 124 125 127 126 126 125 124 124 125 124 125 125 126 
127 125 125 123 123 122 123 123 123 121 122 124 123 124 123 123 122 
125 124 125 123 120 121 122 121 121 121 121 123 120 121 122 121 121 
122 122 122  81 119 118 118 119 120 122 123 121 124 122 121 119 120 
120 120 123 123 122 122 122 122 121 122 121 120 121 122 124 123 123 
122 121 122 122 123 122 125 124 123 123 124 122 125 122 123 125 124 
124 125 123 123 123 124 124 123 124 124 125 124 125 124 124 124 124 
124 124 125 124 123 126 126 126 126 125 125 127 126 125 126 127 127 
127 128 127 126 125 127 125 126 125 126 127 127 128 127 127 127 126 
127 127 125 126 126 129 130 128 130 128 128 128 129 127 128 126 126 
128 128 129 129 127 126 127 129 128 125 126 125 125 126 121 112 103 
 99  92  91  90 105 117 125 127 129 129 127 127 127 126 128 129 127 
129 128 127 130 128 128 130 129 129 131 128 129 128 129 127 126 129 
128 127 129 128 128 129 129 129 129 127 127 128 126 123 126 125 128 
128 128 125 129 129 126 125 128 129 127 125 129 129 128 128 126 128 
128 128 129 126 127 129 128 127 128 127 127 128 127 127 125 125 126 
128 128 127 128 128 128 128 128 127 127 127 125 126 125 127 129 127 
128 126 126 126 128 127 128 126 127 127 126 127 127 125 125 126 127 
125 125 123 122 123 125 125 124 123 122 126 125 124 125 124 125 122 
127 125 125 124 125 123 122 124 124 124 125 125 124 126 125 125 123 
122 123 122 123 122 122 123 123 124 124 123 122 122 123 123 121 123 
123 121 121 122 121 122 121 119 119 121 121 121 122 121 121 121 122 
 78 119 117 118 117 117 119 119 123 124 123 125 124 121 120 120 121 
121 122 121 122 122 122 123 123 124 122 125 121 125 123 124 119 121 
122 122 122 124 124 123 123 122 123 124 125 122 125 124 125 125 125 
125 125 126 124 126 125 125 125 124 126 125 125 125 125 125 124 126 
125 125 127 127 127 127 128 128 128 127 128 130 128 128 127 128 128 
127 127 128 126 127 126 126 127 127 129 128 129 129 127 127 128 128 
129 128 129 130 130 129 129 129 128 129 127 127 129 127 129 129 128 
128 126 129 129 128 127 126 128 127 125 125 127 129 128 132 132 129 
132 130 129 129 126 125 124 128 128 129 128 128 126 126 128 129 127 
128 128 129 129 130 132 132 129 128 128 127 129 127 129 128 127 129 
128 129 130 130 130 130 129 127 128 128 128 130 127 128 127 130 127 
127 128 129 128 128 129 131 129 130 129 131 130 127 128 129 128 130 
128 130 131 130 131 128 130 129 128 127 130 127 126 125 126 127 125 
129 128 127 127 128 127 128 128 126 126 126 129 128 127 126 126 129 
126 129 129 127 127 129 127 126 127 124 124 125 126 127 125 125 125 
125 124 125 125 126 125 124 125 125 125 126 124 125 125 127 125 125 
126 127 124 124 125 124 125 125 125 125 124 125 123 124 123 123 123 
124 122 123 123 123 123 124 123 124 125 125 123 123 124 124 123 122 
122 122 122 121 120 118 122 122 123 125 125 123 121 121  82 119 117 
119 119 120 123 121 121 123 120 121 122 120 121 119 120 122 122 120 
119 120 120 121 120 123 123 121 123 124 122 121 122 121 122 122 123 
122 123 123 123 124 124 123 124 121 123 125 126 126 124 126 125 126 
125 127 124 126 126 123 125 124 124 125 123 125 126 126 126 126 126 
125 126 127 127 127 128 129 126 126 127 128 125 126 126 128 127 127 
125 126 126 128 128 127 129 127 128 129 127 127 127 128 129 128 126 
128 130 126 128 127 128 127 124 126 126 127 129 126 127 127 127 128 
127 129 128 126 125 127 126 126 126 126 125 125 125 127 127 129 127 
127 128 128 131 129 127 128 128 128 126 128 129 128 128 130 128 128 
129 129 129 130 130 130 126 128 128 129 128 129 126 128 128 129 129 
129 129 129 129 129 127 127 128 128 128 128 127 130 129 130 128 128 
128 128 128 132 129 129 129 130 129 128 127 129 127 129 128 129 129 
129 128 129 129 129 129 128 127 128 128 128 128 127 124 127 129 128 
128 128 125 128 126 127 127 127 127 129 126 127 126 126 127 128 126 
127 125 126 127 125 127 127 124 125 126 127 125 126 125 125 124 125 
124 126 126 126 125 127 125 126 126 126 124 124 125 128 124 123 123 
125 124 126 126 125 124 125 125 124 124 126 125 123 122 122 122 122 
122 122 122 124 121 122 122 121 120 123 124 124 124 124 124 123 123 
123 122 122 119 120 120 121 121 120 120 119  80 119 117 118 118 119 
121 122 122 123 121 123 123 122 123 123 121 121 120 121 122 123 123 
122 119 124 123 124 122 126 122 124 124 123 122 122 122 121 119 121 
124 124 124 125 123 124 124 125 124 125 121 124 125 124 125 123 123 
125 126 124 126 126 126 126 124 125 127 126 126 127 126 127 126 127 
127 126 127 128 126 125 126 128 127 126 126 127 125 127 125 127 126 
129 128 128 129 127 128 129 129 129 128 127 127 127 126 130 129 129 
129 129 127 129 127 129 129 127 127 129 127 127 128 130 128 127 128 
128 127 127 129 130 128 127 127 130 127 127 126 128 129 129 129 128 
129 128 128 130 130 128 127 127 127 128 127 127 129 130 129 129 130 
129 129 130 129 130 129 128 127 128 128 128 128 128 129 129 129 129 
128 130 129 127 127 128 128 127 125 128 128 129 129 129 129 128 129 
131 128 129 129 128 128 129 130 132 128 129 129 130 129 129 127 128 
130 131 128 128 128 128 129 129 129 128 128 127 128 127 126 126 125 
128 128 128 127 127 127 127 128 129 127 127 126 127 126 127 125 126 
125 124 127 126 126 126 127 127 125 125 123 123 123 126 124 123 124 
125 125 128 125 126 125 124 124 125 126 123 125 126 124 125 124 125 
123 122 122 123 123 124 124 126 126 125 124 124 123 122 121 122 120 
122 123 123 123 123 124 125 124 123 124 124 122 122 122 123 121 121 
119 120 120 121 120 120 120 120  83 119 119 120 121 120 120 121 119 
120 121 122 122 124 119 119 120 120 119 122 121 119 121 122 122 123 
123 124 121 124 122 123 122 124 122 122 121 123 122 124 121 124 124 
125 126 125 123 123 123 124 126 124 125 124 125 122 125 125 124 123 
126 125 123 125 122 122 126 125 126 126 123 126 124 125 126 125 126 
127 127 129 127 127 127 128 127 128 125 127 126 127 125 128 124 125 
128 126 127 127 126 128 128 127 127 127 125 127 127 127 128 126 124 
128 127 128 125 127 125 127 127 128 126 129 129 128 128 128 127 127 
128 128 124 126 127 127 125 127 127 128 125 126 129 126 127 126 128 
129 127 126 128 127 125 129 127 127 128 129 129 129 130 130 129 130 
127 128 128 128 127 129 130 128 128 128 130 131 130 129 130 128 131 
128 129 130 127 129 127 126 125 129 128 128 127 127 126 128 128 129 
127 128 129 128 127 130 126 127 126 127 127 129 127 128 126 126 128 
129 127 126 129 129 128 128 130 126 128 127 126 126 127 127 128 126 
127 128 128 127 127 129 128 127 128 127 124 128 124 125 126 125 127 
126 126 127 127 126 124 124 124 125 125 128 128 124 125 123 124 124 
123 127 125 125 125 124 124 124 123 124 124 126 121 123 124 123 121 
121 123 124 125 123 126 127 124 124 122 121 122 125 121 122 122 120 
122 122 124 121 120 122 123 124 123 123 120 120 120 121 119 119 119 
122 121 120 119 118  82 117 116 119 122 121 120 119 118 120 119 120 
121 122 120 122 122 121 123 124 121 121 118 121 121 120 121 122 124 
122 121 123 123 122 121 123 121 123 120 121 123 121 124 122 124 123 
122 123 123 123 125 124 123 124 124 125 124 125 122 122 124 123 124 
123 125 125 125 125 126 125 126 124 123 125 123 125 125 125 125 124 
127 126 125 126 127 126 126 125 128 126 125 126 126 126 125 125 125 
126 127 127 126 128 126 124 126 127 129 127 127 127 126 126 127 125 
127 125 126 127 125 126 129 130 128 129 127 127 126 127 127 126 128 
127 125 125 124 126 127 127 125 126 128 126 126 127 127 128 128 128 
128 127 127 129 127 126 127 128 129 128 127 129 129 128 127 127 128 
127 127 126 125 127 126 126 128 128 127 129 127 128 126 129 129 129 
128 129 127 128 126 127 126 128 128 128 126 127 128 128 127 128 128 
128 126 127 127 128 126 128 124 125 126 126 127 124 125 126 127 127 
126 126 127 127 128 129 126 126 126 125 124 126 126 127 127 127 126 
125 126 126 126 126 125 128 125 125 127 127 126 124 124 125 125 125 
126 125 124 126 125 126 126 125 124 124 123 122 123 124 123 122 122 
123 123 122 122 122 122 124 123 120 120 123 120 123 122 122 122 122 
123 122 123 123 123 122 123 123 121 121 121 121 122 122 122 120 121 
121 120 122 120 118 119 121 122 119 121 119 122 120 119 121 121 119 
118 118  85 119 117 119 119 120 120 120 119 121 120 121 121 122 121 
122 123 124 122 124 121 121 121 121 123 125 123 122 120 122 123 125 
123 124 124 125 122 124 122 122 123 122 124 124 123 125 123 123 121 
125 124 123 125 125 123 124 121 123 122 122 123 123 124 124 125 126 
127 128 127 125 126 125 124 126 123 126 124 127 125 126 126 128 126 
128 126 128 126 126 124 125 127 129 126 128 126 126 127 128 126 128 
124 126 127 129 127 127 127 127 127 127 126 126 128 126 126 125 127 
129 127 127 128 128 128 128 128 128 127 126 126 127 124 125 126 126 
128 129 127 130 129 128 128 128 129 129 125 127 127 128 129 129 128 
129 127 128 129 128 130 130 129 128 126 128 128 128 129 127 127 127 
127 127 127 128 128 129 129 128 128 129 128 129 129 130 130 130 127 
128 128 128 127 128 129 128 127 129 129 129 128 130 129 128 128 127 
129 129 126 130 127 128 127 128 127 127 126 126 128 129 129 130 128 
129 129 130 126 127 125 126 126 128 128 129 127 127 127 128 127 127 
128 127 126 128 125 127 126 125 125 126 125 126 126 126 126 127 125 
126 124 125 125 126 127 125 124 123 124 124 123 123 124 126 125 126 
124 123 124 124 123 121 122 123 122 123 120 121 121 123 125 126 123 
122 124 124 124 124 121 122 122 124 121 122 122 123 123 124 121 120 
121 123 122 124 124 123 123 120 119 121 122 122 121 121 120 119  82 
117 116 119 118 119 120 118 119 120 120 122 123 123 123 122 121 123 
121 121 121 121 121 121 121 124 124 125 122 124 124 122 123 124 123 
124 120 121 121 122 122 123 123 123 123 124 124 123 122 122 123 124 
124 123 124 125 121 123 124 125 124 123 123 122 125 126 126 127 126 
126 126 127 125 127 124 127 124 126 126 126 126 127 126 128 125 125 
125 127 127 128 128 127 127 128 126 126 126 127 127 126 125 127 130 
130 127 128 127 128 128 127 125 126 125 124 126 126 125 127 128 128 
128 128 128 129 128 128 128 127 127 128 129 127 126 130 128 128 128 
130 129 129 129 130 130 128 128 129 126 126 128 128 129 128 127 127 
127 127 129 128 129 130 128 129 127 128 130 129 129 128 127 129 129 
127 129 130 129 128 128 129 127 128 129 127 127 127 128 129 128 128 
128 129 130 129 128 129 129 128 126 127 126 126 127 129 126 128 128 
127 125 125 128 127 128 128 128 128 128 131 125 127 126 128 127 128 
125 126 127 126 126 127 124 126 125 124 125 125 128 128 126 127 126 
126 125 125 126 123 124 124 125 122 125 125 125 127 124 124 125 126 
124 125 126 125 124 124 125 124 122 122 123 124 123 124 123 123 124 
124 124 125 123 122 122 122 122 123 123 123 121 122 123 123 122 125 
124 124 122 125 123 123 122 124 123 122 122 122 122 123 122 124 123 
121 121 124 124 121 123 122 122 122 120 118 119 120  83 118 119 120 
120 119 121 119 117 118 118 120 121 119 122 120 119 121 121 121 123 
123 121 123 122 122 121 123 122 123 123 121 123 122 120 121 120 122 
122 123 122 121 122 123 123 122 125 124 123 126 124 122 124 125 124 
125 124 124 124 124 125 123 123 123 124 124 124 125 126 126 126 126 
124 125 125 126 125 124 125 124 125 127 126 126 124 125 127 126 124 
124 125 124 128 127 127 127 125 127 126 126 125 128 127 126 125 129 
127 128 126 125 125 126 124 124 125 126 126 127 127 125 125 127 127 
127 127 127 128 127 127 127 126 129 126 127 125 127 128 128 128 129 
128 129 128 128 128 129 128 128 127 126 128 127 127 125 126 128 129 
128 128 129 129 130 126 127 130 129 129 129 130 128 129 131 130 128 
128 129 127 128 127 129 130 127 128 129 128 128 127 126 127 128 129 
128 127 128 127 128 126 125 126 127 125 127 128 128 127 127 126 127 
127 129 126 128 128 125 127 126 126 126 126 128 130 130 129 129 126 
126 126 125 125 126 124 126 124 127 126 128 128 125 127 127 125 126 
126 124 124 125 124 125 125 126 126 126 124 123 124 125 126 125 124 
124 125 124 124 123 123 123 126 125 125 124 123 123 125 126 125 126 
123 124 124 124 120 121 123 123 122 122 126 126 123 124 123 122 121 
124 122 120 122 122 121 120 122 120 123 123 122 123 121 122 124 120 
124 122 122 121 121 120 121 118 118 117  85 119 116 117 118 119 120 
118 119 120 119 121 120 119 121 121 121 122 122 122 124 123 121 123 
122 122 122 123 123 122 122 121 124 124 123 123 122 125 124 123 122 
122 122 124 124 122 124 122 126 126 124 125 127 125 124 127 124 124 
125 123 123 122 124 124 124 124 124 124 125 125 125 126 124 126 126 
126 126 124 126 126 127 126 124 126 126 126 126 127 126 126 127 126 
127 125 126 126 125 126 126 128 128 128 127 127 126 129 126 128 127 
126 125 126 129 128 126 127 126 126 128 127 126 128 128 127 127 126 
127 126 127 129 128 129 127 129 128 128 129 128 128 129 128 127 128 
128 128 128 128 130 130 129 130 128 125 127 129 128 127 128 127 127 
127 130 128 129 131 129 128 127 127 127 128 128 126 127 128 127 128 
129 129 129 130 128 127 128 128 129 129 129 129 129 128 127 127 127 
128 129 128 126 127 129 129 128 128 127 128 130 127 128 128 129 129 
129 129 129 129 128 127 128 128 129 129 128 129 130 127 125 127 126 
125 125 125 125 125 124 125 127 126 126 126 125 125 126 125 126 125 
125 123 125 126 127 127 126 127 128 124 125 126 125 124 124 124 124 
125 125 124 124 125 125 125 124 124 124 125 126 124 125 124 126 126 
124 122 122 125 124 122 121 123 124 124 124 124 124 124 123 122 122 
123 124 124 122 122 120 122 120 122 122 121 120 121 120 121 121 121 
122 122 121 122 119 120 117  84 119 116 119 117 119 119 119 117 118 
118 122 118 119 120 121 120 122 120 122 123 122 122 123 122 123 124 
125 124 122 122 120 121 122 122 121 122 123 123 123 122 123 122 122 
121 121 122 122 123 124 125 126 126 126 126 124 122 124 125 122 122 
123 123 123 122 122 123 122 123 123 124 126 125 126 124 125 125 124 
124 125 123 124 124 124 124 125 125 124 124 125 124 126 126 127 126 
127 127 128 129 127 129 126 126 126 126 127 125 127 127 126 125 126 
127 128 127 127 126 125 124 125 126 126 126 126 128 127 127 126 127 
127 127 127 126 128 125 127 127 127 127 128 127 128 126 126 129 127 
127 128 129 128 127 127 126 127 127 127 126 127 128 127 128 131 128 
128 128 127 128 128 128 128 127 127 126 125 124 125 127 129 129 128 
128 129 129 129 127 128 127 128 127 127 127 126 127 128 128 128 127 
127 127 127 127 129 128 126 127 127 125 127 125 128 127 127 128 127 
130 127 128 129 126 129 127 128 125 125 126 126 125 123 125 124 125 
126 124 128 124 125 126 126 127 125 125 124 126 125 125 125 125 124 
124 126 125 125 124 127 123 126 124 125 123 124 124 126 126 126 124 
123 122 123 123 124 123 125 124 125 123 122 125 124 124 122 122 122 
122 124 123 124 124 125 123 123 123 123 122 122 122 123 122 125 122 
121 120 121 122 121 122 123 119 121 121 119 121 122 119 121 120 120 
120 119 119 117  82 119 118 121 118 117 116 118 117 119 118 120 121 
122 120 121 123 123 122 123 122 122 122 123 121 121 121 120 122 125 
123 123 124 124 124 124 125 125 124 124 119 122 121 121 122 121 121 
121 125 126 124 125 125 123 122 123 123 125 125 123 123 124 123 125 
121 122 124 124 125 125 124 126 125 127 124 125 126 125 124 124 123 
124 126 128 128 126 125 125 126 127 125 127 125 128 127 126 127 129 
127 126 126 128 126 126 126 127 127 127 126 126 127 127 127 128 127 
127 128 128 126 127 127 126 126 127 130 128 129 128 125 128 128 129 
127 127 127 125 125 128 128 128 127 128 127 128 128 128 130 129 128 
128 126 128 126 125 127 127 128 127 127 128 127 128 127 128 129 127 
127 125 127 127 128 127 126 127 128 125 128 129 130 129 129 130 129 
129 129 129 127 128 127 128 127 127 127 127 128 127 127 127 129 130 
129 127 130 129 128 131 129 128 126 126 128 129 128 127 125 125 128 
128 128 129 125 128 126 127 127 127 126 126 125 127 128 128 126 127 
126 125 126 128 127 126 125 127 125 126 126 127 124 126 124 125 125 
126 124 126 125 127 125 126 124 125 124 126 126 125 124 125 124 125 
125 125 123 124 124 125 124 123 123 124 125 124 121 123 125 125 124 
123 121 122 120 123 124 125 124 124 122 120 122 123 120 122 120 121 
122 119 120 123 122 122 120 123 122 123 120 124 123 122 121 121 120 
116  84 120 117 119 119 118 119 119 119 120 119 117 120 121 121 122 
124 121 123 122 122 125 122 123 121 122 122 122 122 124 122 122 124 
124 123 123 124 125 125 123 123 124 122 120 123 121 122 124 125 124 
124 125 124 124 125 123 123 124 123 123 123 122 119 122 121 121 123 
123 125 125 123 124 126 126 123 124 127 126 124 124 124 125 122 124 
122 125 124 125 125 125 125 128 125 126 126 125 126 126 125 124 127 
125 124 125 125 127 129 126 125 126 128 126 127 128 126 126 127 127 
125 128 129 128 128 128 129 127 128 129 128 127 128 128 128 127 126 
128 124 127 126 128 126 127 125 127 130 129 129 127 128 130 127 127 
127 127 128 126 127 127 129 126 128 127 126 126 127 127 128 128 128 
128 127 128 130 128 126 125 126 127 128 128 129 129 128 129 128 129 
127 128 126 127 126 125 127 127 128 128 127 125 128 129 128 129 128 
128 127 127 128 128 128 127 126 128 127 126 127 127 127 126 127 127 
126 127 126 126 126 129 126 127 126 127 126 126 124 126 124 125 126 
125 126 127 126 125 126 126 126 125 124 124 124 122 123 124 124 124 
124 123 123 125 124 126 124 126 125 126 123 124 123 122 124 124 122 
123 121 121 121 124 123 124 122 121 123 123 123 122 123 122 123 122 
122 123 123 124 121 123 122 123 121 121 119 122 122 120 123 122 122 
124 122 121 120 120 121 123 122 121 120 122 121 119 120 119  82 119 
115 117 118 119 120 119 116 117 117 117 118 120 118 120 118 119 121 
120 120 121 122 122 120 121 124 123 122 122 123 121 121 122 123 123 
123 123 123 123 121 121 120 120 123 122 121 122 121 124 124 124 124 
123 124 123 123 122 123 123 123 123 120 120 119 120 124 123 122 125 
125 126 124 125 122 122 125 123 122 123 126 124 124 124 125 126 124 
123 122 123 127 126 127 125 124 124 125 126 125 126 126 124 125 125 
123 123 122 121 125 125 126 127 125 127 126 127 126 124 127 125 125 
127 126 127 125 127 128 127 127 127 126 128 126 126 126 126 126 129 
127 126 129 128 127 126 127 127 127 127 126 124 126 125 125 126 126 
128 126 128 127 126 123 126 127 126 126 126 126 126 127 127 127 127 
126 127 127 127 127 126 127 128 129 127 125 127 126 126 127 128 128 
128 127 125 125 125 127 125 125 126 126 125 126 126 128 126 128 128 
126 127 126 125 129 126 127 126 127 126 125 125 124 126 127 126 126 
127 125 126 126 126 126 123 123 124 124 124 125 125 125 125 124 125 
126 124 124 125 125 124 123 125 122 121 123 124 124 123 122 123 123 
121 123 124 124 123 125 123 124 124 124 122 122 121 122 122 120 121 
122 122 122 125 122 122 122 121 124 123 121 123 120 120 122 124 123 
120 118 121 122 121 122 122 121 120 120 120 120 120 122 121 120 119 
119 119 121 122 119 121 119 121 121 117 117 116  85 121 117 119 120 
120 120 118 118 119 118 118 119 120 119 120 121 122 122 121 122 125 
119 121 120 121 122 124 122 120 121 122 121 123 123 124 124 125 124 
123 120 123 122 122 122 122 123 124 122 123 121 122 123 122 123 123 
122 124 125 124 123 124 123 122 121 123 122 124 124 124 125 123 123 
125 125 125 128 127 128 127 126 125 128 127 124 127 124 126 124 126 
128 126 128 127 125 124 124 128 126 127 126 124 125 125 123 125 125 
125 127 126 127 128 126 126 125 125 125 126 126 126 124 125 124 126 
124 126 127 126 124 128 128 128 129 127 127 126 126 128 127 127 127 
126 125 125 128 129 127 129 128 127 128 128 126 127 127 127 126 126 
126 128 126 128 128 128 129 129 128 127 126 127 127 127 126 127 126 
124 125 128 127 125 126 128 127 126 127 129 128 129 127 128 126 126 
125 127 128 129 128 128 129 127 127 128 129 127 128 128 128 129 129 
128 130 128 126 127 127 127 124 126 127 127 128 127 127 127 127 127 
127 127 128 126 126 126 124 127 124 124 127 126 123 128 125 126 127 
127 125 126 124 126 124 125 124 125 123 122 124 124 122 124 124 126 
125 125 123 124 122 126 122 124 125 125 125 122 123 125 121 123 121 
121 123 124 123 122 125 122 121 122 121 123 123 123 122 123 123 124 
123 123 122 121 120 121 122 122 122 119 119 121 120 122 120 123 121 
122 120 122 121 121 120 117 119 119  82 120 117 118 120 119 121 120 
120 120 121 121 120 119 119 118 121 123 121 121 122 123 121 123 121 
122 121 122 123 122 122 124 122 121 123 124 125 124 125 124 123 125 
122 123 122 122 122 122 122 125 123 123 123 122 123 122 123 125 125 
124 124 125 124 121 122 123 124 125 124 125 124 125 126 126 126 126 
126 124 127 125 125 126 125 126 124 126 124 126 125 126 127 127 124 
126 127 124 125 128 126 126 127 127 127 126 123 125 126 126 127 126 
125 125 126 129 125 129 125 125 125 124 125 125 125 126 124 124 125 
125 125 127 127 127 127 125 128 126 128 128 126 127 127 125 126 126 
128 128 123 127 127 128 128 127 126 128 128 128 128 127 126 127 126 
127 128 128 126 127 126 126 127 128 126 126 127 128 127 126 126 127 
126 126 127 128 125 125 127 128 128 125 128 128 129 128 127 127 129 
128 125 127 125 125 126 126 127 128 129 129 128 128 126 126 127 128 
126 125 124 125 126 128 128 126 129 127 128 130 127 128 129 126 127 
125 127 127 126 124 126 127 124 124 124 124 122 126 125 124 125 127 
124 126 125 126 123 124 123 124 124 122 124 123 124 127 124 126 126 
124 123 122 123 122 125 123 124 124 124 125 121 124 122 123 124 124 
123 122 121 122 123 124 120 120 121 122 119 121 121 122 122 122 121 
123 122 122 122 121 120 121 120 120 120 120 120 120 120 121 118 120 
119 119 120 119 118 117  83 120 118 119 122 121 122 119 121 120 119 
119 118 119 121 120 118 122 121 122 121 119 122 121 121 121 120 120 
122 120 122 122 121 121 122 125 123 124 123 124 123 124 120 124 124 
124 122 121 122 123 120 123 123 121 123 123 122 121 120 123 124 121 
120 121 121 122 124 124 122 123 122 124 126 125 124 126 123 124 125 
125 124 125 122 123 125 125 125 126 125 127 126 127 125 126 125 126 
127 127 125 125 127 127 125 123 125 125 124 124 125 125 125 125 126 
127 127 128 125 126 125 124 124 124 124 126 124 125 124 124 125 125 
124 126 126 124 128 127 127 127 126 128 126 124 127 127 125 127 126 
127 126 126 129 130 128 128 128 127 128 127 125 126 128 128 128 128 
125 127 127 128 126 128 126 126 126 126 126 126 126 127 126 128 127 
127 125 128 127 128 126 126 128 129 128 126 128 129 127 128 125 126 
125 125 127 126 124 126 128 127 126 126 127 127 128 127 126 126 126 
124 124 125 126 125 128 128 127 127 126 126 129 127 128 127 126 125 
124 126 124 124 124 124 123 125 125 126 125 125 126 125 124 125 124 
124 125 124 123 125 123 124 124 124 124 124 125 125 124 124 122 123 
124 123 123 126 123 124 123 122 121 122 122 123 123 123 122 122 121 
122 121 122 121 124 123 124 122 121 122 119 120 119 121 121 119 120 
121 120 120 120 120 120 120 122 122 121 121 122 120 120 120 120 119 
119 119 118  84 122 119 119 121 120 122 121 120 120 119 120 119 119 
121 119 120 120 121 121 122 122 122 122 123 124 123 124 123 121 123 
123 123 124 124 123 124 123 122 120 121 124 124 126 126 124 123 123 
123 125 121 122 121 123 125 122 122 125 126 125 124 124 125 124 124 
127 125 125 125 125 125 123 124 126 124 126 124 125 125 124 126 126 
127 124 126 125 125 127 126 125 126 128 125 126 126 125 126 126 125 
125 126 125 125 125 126 126 125 126 126 126 125 125 127 127 124 126 
124 127 125 126 126 126 126 127 126 127 127 126 125 129 127 129 129 
126 127 128 127 128 128 128 127 125 127 126 126 127 126 126 127 128 
128 127 127 128 129 127 128 128 126 127 127 128 128 129 128 130 128 
126 127 129 127 128 128 127 127 127 127 128 126 127 126 128 127 128 
128 128 127 127 126 127 128 127 126 128 127 129 126 126 124 125 126 
126 125 125 127 126 126 126 127 127 128 127 125 125 126 126 125 125 
126 126 126 127 127 127 126 125 127 125 125 125 126 128 125 126 124 
122 123 124 124 125 126 125 125 126 126 124 125 125 124 124 125 124 
124 125 125 126 124 125 125 125 126 126 125 125 124 125 123 125 126 
124 124 125 122 123 124 123 123 124 124 123 122 123 123 122 124 122 
123 125 122 123 122 122 124 121 122 121 119 120 121 122 121 120 121 
121 121 121 122 122 122 120 119 120 119 119 118 119 119 119 118 118 
 83 120 118 119 119 119 121 121 119 121 120 121 119 119 119 119 119 
121 119 121 124 125 122 122 122 123 122 124 121 123 123 122 122 122 
124 122 124 123 124 122 123 124 123 123 121 121 122 121 122 123 121 
123 121 122 122 122 123 123 125 125 125 123 124 124 122 125 125 124 
124 124 123 122 123 125 124 125 125 124 125 126 124 125 124 124 123 
122 122 123 125 126 125 126 125 126 126 126 125 125 125 125 125 124 
125 126 125 125 125 126 124 123 123 123 126 127 127 127 127 128 129 
128 126 128 128 127 126 126 125 126 125 128 126 127 126 126 126 126 
126 128 129 129 126 125 127 125 125 128 127 128 126 128 128 128 125 
126 127 126 127 127 127 127 127 127 128 126 125 127 127 126 126 128 
126 128 128 127 127 126 126 127 126 126 125 125 125 126 126 125 125 
125 127 126 128 127 126 126 128 128 127 128 125 127 125 127 126 124 
126 126 127 127 126 127 127 129 128 127 125 127 126 124 124 124 124 
125 126 127 125 126 127 126 127 125 125 126 126 125 125 124 123 125 
128 125 124 125 124 125 124 124 125 125 123 124 123 124 124 123 124 
123 122 123 123 125 123 124 125 124 122 123 123 122 125 125 124 123 
118 121 121 121 120 120 122 120 120 122 122 122 123 121 120 119 119 
121 118 120 121 121 122 121 120 122 120 121 122 121 121 120 120 122 
122 120 122 120 120 120 120 120 120 121 120 120 119 120  81 121 119 
122 120 119 119 118 119 121 120 120 118 119 120 122 120 123 120 121 
121 120 120 122 121 122 122 121 121 124 122 121 119 120 119 123 122 
124 124 125 125 125 123 122 122 123 123 122 122 124 123 124 120 123 
122 122 122 122 124 124 125 125 125 125 122 123 125 123 123 124 122 
124 125 125 123 124 124 123 124 126 126 127 124 126 125 125 126 126 
125 125 126 126 127 127 127 126 126 126 126 126 126 126 125 125 126 
126 124 124 124 125 127 127 124 125 127 126 125 127 125 126 125 128 
127 126 125 126 125 127 126 126 126 125 124 125 127 127 125 126 126 
127 128 127 127 126 127 129 126 127 126 129 127 126 128 128 126 125 
126 128 127 127 126 127 127 125 125 125 127 127 127 129 126 127 128 
127 126 126 125 125 126 128 128 126 126 127 126 128 126 129 128 130 
127 126 126 127 126 126 128 127 126 126 126 127 129 128 125 125 126 
126 124 127 127 125 125 126 127 125 126 125 126 125 125 126 125 126 
126 127 127 128 127 127 125 126 124 126 125 124 127 126 125 126 125 
127 125 124 123 122 124 123 123 125 125 127 126 124 125 124 124 127 
124 125 125 126 123 125 125 124 123 124 125 125 121 122 123 124 121 
122 121 122 123 122 124 126 122 123 122 122 121 122 121 122 121 122 
121 122 122 122 121 121 121 121 118 118 123 120 120 124 122 122 122 
121 118 119 120 120 119 120 117 118 119 119  82 119 114 118 119 121 
120 118 119 120 119 120 120 121 120 121 120 120 123 121 121 121 119 
121 121 121 124 122 124 122 121 122 121 122 123 122 124 121 122 122 
123 123 125 125 123 122 123 122 123 123 122 123 120 122 121 122 123 
122 123 122 121 121 122 125 122 122 121 122 123 123 122 123 123 125 
122 125 122 123 122 122 124 123 126 126 125 125 124 123 123 123 123 
124 126 124 125 127 126 127 126 126 125 126 125 125 125 126 125 125 
124 125 126 126 126 128 127 126 126 127 126 126 124 126 126 125 125 
124 124 125 125 126 126 125 126 125 125 128 127 127 127 128 127 126 
127 127 124 126 126 126 125 126 127 128 129 128 128 128 126 128 127 
129 128 127 127 124 127 126 128 127 124 129 128 128 128 127 127 127 
124 126 127 126 125 126 125 125 126 128 125 124 125 127 126 127 123 
124 127 125 125 125 122 124 125 122 125 126 124 124 125 126 126 126 
127 125 127 123 125 127 126 125 126 124 126 126 123 124 122 127 126 
127 125 126 126 126 128 125 126 126 125 125 125 124 125 126 124 123 
125 123 125 124 123 124 124 124 123 124 123 124 124 126 124 125 125 
125 124 123 122 122 122 122 124 122 125 123 124 123 120 122 119 122 
119 120 123 125 123 123 124 123 122 122 121 120 121 123 121 120 119 
120 117 120 119 120 119 118 122 120 120 122 122 119 123 119 119 120 
118 119 118 120 118 120 117 114  77 120 116 117 119 119 121 120 120 
121 121 118 119 120 118 118 117 118 122 122 122 121 121 122 121 120 
122 121 122 120 121 121 121 119 121 121 121 122 121 122 120 122 122 
121 123 124 122 122 122 123 120 120 121 120 122 123 119 121 121 123 
124 124 124 123 121 120 123 121 123 121 120 120 122 124 124 124 124 
125 125 125 123 124 123 123 126 123 123 125 123 124 124 123 124 124 
127 126 124 124 127 125 126 126 127 124 126 125 124 124 123 126 123 
125 124 126 126 126 123 125 123 123 125 126 126 125 126 126 124 124 
124 124 126 125 126 126 128 126 124 125 125 126 126 125 125 125 127 
126 126 123 127 126 125 128 126 127 126 125 125 126 126 126 125 127 
125 126 122 123 124 126 125 127 126 125 126 126 125 127 122 123 124 
126 126 127 128 126 128 128 124 125 125 126 126 127 123 124 126 124 
125 126 123 125 125 123 123 125 126 127 127 128 126 126 125 126 124 
124 124 124 125 126 126 125 125 123 124 124 126 125 125 125 125 126 
126 126 124 126 124 126 124 125 123 124 126 124 126 124 123 125 123 
123 123 123 124 125 125 124 124 123 122 125 123 123 126 123 122 124 
123 123 125 124 125 123 126 124 122 122 120 122 120 120 118 121 120 
117 122 120 122 122 121 121 121 121 121 123 121 121 120 120 118 121 
121 120 120 119 119 119 119 120 121 122 122 120 119 119 119 119 118 
116 118 118 117 117  80 121 115 119 120 121 120 121 118 119 119 119 
118 120 119 121 119 123 122 120 120 121 119 124 121 121 124 124 125 
124 124 123 121 119 120 121 121 122 122 122 123 125 123 123 123 124 
122 122 120 123 120 122 121 120 120 120 121 123 122 121 121 121 121 
123 121 122 125 124 125 125 123 121 122 124 123 123 123 124 124 125 
124 124 121 123 124 125 123 125 123 123 124 123 125 124 126 126 125 
126 127 126 126 126 127 125 125 125 126 126 125 125 125 127 126 125 
123 125 124 127 126 124 122 125 125 125 125 126 126 126 124 125 125 
125 124 125 127 124 124 128 128 128 125 125 125 125 125 127 126 125 
128 126 126 126 125 126 127 125 124 125 126 126 127 127 125 125 124 
125 125 125 125 127 126 126 128 127 127 128 123 124 128 128 126 127 
127 128 124 127 126 127 127 127 127 128 125 125 127 126 127 126 126 
128 125 126 126 127 125 126 126 125 123 127 127 127 127 126 125 126 
124 126 125 125 126 127 126 126 124 127 129 127 126 126 126 126 125 
126 123 124 125 126 124 122 126 126 127 126 125 124 124 124 125 125 
124 124 125 126 124 123 123 126 122 121 124 123 122 125 122 124 121 
121 125 124 124 125 125 125 123 125 123 122 120 121 119 119 122 120 
122 123 122 121 121 123 121 123 122 122 120 119 119 121 118 121 119 
119 119 119 120 122 121 122 123 122 120 120 118 119 120 120 120 119 
119 116  78 119 114 118 118 119 119 121 119 120 118 120 120 121 120 
121 121 121 121 122 121 123 121 119 121 121 124 122 122 122 122 121 
121 122 121 121 121 122 123 123 121 122 122 122 122 123 122 123 124 
126 122 122 121 121 121 121 120 122 124 124 125 124 123 123 122 123 
123 122 123 124 123 122 122 122 122 123 122 123 124 124 124 125 126 
125 125 124 124 123 123 123 123 123 125 124 125 126 124 127 127 126 
126 126 127 124 124 125 127 125 126 124 126 127 127 127 125 125 127 
127 125 126 123 125 125 126 126 128 129 127 125 126 126 125 124 127 
125 123 124 126 126 129 125 126 126 130 127 126 128 125 126 127 127 
128 126 127 128 127 126 127 127 125 126 125 126 126 126 127 127 126 
126 127 126 127 128 127 126 127 123 126 127 128 127 126 127 127 124 
127 126 126 128 126 127 126 126 127 127 125 127 125 127 127 127 126 
125 125 124 126 126 125 127 129 128 127 127 125 124 126 125 126 125 
125 126 125 126 126 127 126 128 127 126 126 127 126 124 126 125 126 
125 125 125 123 124 127 125 126 124 124 124 126 125 124 124 124 124 
123 124 121 122 123 121 122 121 122 123 121 123 123 123 125 123 123 
123 123 122 122 121 121 121 122 122 121 122 122 121 121 122 122 122 
124 121 123 121 122 121 120 121 122 122 122 118 121 117 119 119 120 
120 122 120 121 120 120 119 119 117 119 118 118 121 119 117 116  76 
117 114 116 118 119 121 121 118 118 119 121 119 119 120 119 120 122 
123 123 123 121 119 119 121 121 122 121 119 120 121 121 121 121 120 
120 119 119 119 118 122 122 122 120 122 121 122 121 121 123 121 121 
121 120 121 120 120 121 121 123 123 123 122 122 120 121 121 123 123 
122 123 122 122 122 121 123 123 123 124 124 123 125 123 124 124 124 
123 124 122 122 123 124 127 126 124 124 125 126 126 125 125 124 126 
124 122 123 125 125 128 126 127 126 125 125 127 125 126 125 126 126 
125 125 124 126 126 127 127 124 123 126 124 125 125 126 127 125 125 
127 124 125 123 125 125 125 126 126 126 127 127 126 128 128 124 125 
127 127 127 127 127 125 125 125 127 127 126 127 127 127 126 128 127 
128 128 126 126 126 127 128 127 126 127 128 126 126 123 125 124 125 
126 124 125 126 123 126 127 126 127 126 127 127 126 125 125 126 126 
126 125 124 124 124 125 127 126 126 127 128 126 125 126 124 129 125 
125 126 126 125 123 123 127 126 125 127 123 125 124 126 126 124 124 
123 125 126 125 125 126 124 125 125 122 124 122 124 124 122 123 126 
122 123 123 123 122 122 124 122 123 125 124 125 125 125 123 123 121 
122 123 123 122 122 123 122 120 124 121 121 121 121 121 120 120 121 
119 121 122 121 121 121 120 120 120 122 118 118 119 119 119 121 119 
120 119 120 119 118 117 118 117 119 119 117 116 113  79 117 116 117 
117 116 120 121 121 121 119 120 118 121 122 121 122 122 120 121 122 
121 121 121 122 122 122 123 122 122 120 120 124 124 121 122 123 122 
122 122 120 122 122 120 120 120 123 124 119 123 122 123 124 122 122 
123 123 124 122 124 121 120 122 124 121 122 123 125 126 125 125 124 
124 125 125 125 122 122 123 124 124 125 122 124 126 125 124 125 124 
126 127 126 126 126 127 128 125 125 124 125 125 124 124 124 123 125 
125 125 126 125 127 127 126 125 127 126 127 126 128 127 128 127 126 
128 126 126 127 125 127 127 128 126 126 127 125 126 123 124 125 125 
125 126 126 124 126 126 127 129 128 127 127 127 126 127 127 128 127 
125 127 128 126 127 128 128 127 129 128 130 127 129 127 127 127 125 
126 126 127 128 125 124 126 127 126 127 124 127 126 127 127 125 127 
128 125 125 126 127 125 125 125 128 125 125 126 127 127 126 126 127 
126 128 128 128 125 125 125 124 125 127 125 129 126 128 124 126 126 
125 125 125 126 126 126 125 125 125 124 126 125 125 125 124 124 125 
125 125 124 125 124 123 125 123 122 124 125 123 125 121 122 122 123 
124 122 122 124 123 125 126 125 124 125 125 122 122 123 124 124 123 
123 124 124 123 122 124 122 125 123 121 120 121 120 121 120 122 122 
121 119 120 122 121 120 119 118 119 120 120 119 121 120 120 120 120 
119 118 118 120 120 121 118 116 118 116  84 120 118 120 119 120 121 
120 119 120 119 120 118 121 119 118 120 124 120 123 121 120 120 123 
122 122 121 122 121 120 118 119 120 122 122 120 121 121 121 121 122 
123 120 122 121 122 123 122 121 122 118 119 121 123 121 123 123 125 
122 125 123 121 122 123 123 124 123 123 122 122 124 123 124 125 124 
124 122 122 123 124 123 124 123 122 125 122 124 124 123 124 125 125 
125 126 127 127 124 126 124 125 124 126 123 123 122 124 123 124 123 
123 123 124 125 127 125 125 125 127 126 127 125 125 126 125 125 125 
126 126 125 125 123 124 127 126 127 127 126 125 126 127 126 125 126 
126 126 125 127 127 125 126 125 125 125 127 125 125 125 123 124 125 
125 126 126 127 126 128 126 128 127 128 126 126 125 125 127 127 124 
126 125 125 124 126 126 127 125 127 126 126 125 125 127 126 125 125 
124 125 123 125 124 126 125 125 126 125 125 127 127 129 125 128 126 
126 126 128 127 125 124 126 125 125 124 125 125 124 124 126 124 125 
127 126 126 127 125 126 125 125 124 125 125 124 123 123 125 123 123 
123 124 123 122 125 122 122 124 124 125 125 124 124 122 124 121 122 
124 124 123 123 125 125 123 124 123 121 123 123 123 122 122 122 122 
120 120 123 121 122 121 122 123 121 120 122 121 121 119 120 120 121 
118 120 121 121 120 121 119 120 120 121 119 119 118 118 120 119 118 
120 117 117 118 117 117 116  81 119 117 119 118 120 121 120 120 120 
120 121 120 122 120 119 121 122 119 125 121 121 121 117 120 122 120 
120 119 119 118 120 120 123 123 120 120 121 120 119 120 121 120 123 
121 122 122 120 119 122 122 123 123 125 121 124 122 122 120 121 122 
122 122 123 123 124 123 124 123 124 124 124 123 122 122 123 122 122 
122 122 121 124 124 126 125 125 125 125 124 124 125 127 125 126 125 
123 123 126 124 124 124 125 123 122 123 125 125 127 125 126 125 125 
124 124 126 127 124 127 127 127 125 125 127 123 125 125 125 126 126 
125 124 123 124 125 124 124 125 127 126 125 123 126 127 125 126 128 
126 127 126 126 126 124 123 126 125 126 127 126 127 125 125 128 126 
127 127 127 124 125 124 126 125 127 126 125 128 127 127 126 128 126 
124 127 125 126 126 126 125 126 125 126 127 125 124 126 126 128 128 
129 128 126 126 127 128 127 128 128 126 126 127 127 125 125 125 126 
127 125 126 126 125 125 125 125 126 124 125 125 123 124 124 123 125 
123 122 124 125 124 125 124 123 123 124 123 123 123 122 124 123 124 
121 122 125 124 124 124 126 125 124 127 125 126 125 124 123 124 121 
123 124 123 124 123 120 122 123 123 123 121 122 123 123 123 120 120 
121 122 122 122 122 122 121 121 121 121 121 121 122 120 119 120 119 
119 117 119 118 121 121 121 119 119 118 119 121 120 119 118 118 121 
118 118 118 114  85 119 117 119 119 118 119 118 118 117 118 116 119 
119 120 122 118 123 119 121 120 119 119 120 119 122 120 120 120 121 
119 119 121 120 121 120 120 120 119 121 121 121 121 122 120 120 122 
121 122 122 121 119 120 122 120 122 120 122 124 122 122 121 120 121 
119 119 121 124 122 124 122 123 122 121 121 123 122 121 121 123 123 
124 124 124 124 123 125 123 125 124 124 127 125 126 125 125 122 123 
122 123 127 123 126 125 125 126 124 125 123 125 125 124 125 125 125 
125 124 125 124 124 124 124 127 122 124 125 125 126 124 127 126 126 
126 126 126 125 124 125 124 127 125 127 127 126 126 126 125 126 125 
125 123 122 124 128 128 126 125 125 127 125 124 127 124 124 126 126 
126 128 124 125 124 125 125 123 124 123 125 126 127 127 126 127 128 
127 127 125 125 126 123 124 124 123 123 125 125 127 124 123 127 127 
126 127 127 127 126 127 125 127 126 124 125 128 126 123 125 124 123 
123 124 127 123 124 125 125 124 126 124 124 124 125 125 123 126 125 
125 124 126 124 124 125 125 125 124 124 124 124 123 123 124 124 124 
124 125 124 124 124 124 125 123 123 123 122 122 122 121 119 122 123 
123 125 123 125 123 123 124 122 120 120 121 122 121 120 121 119 119 
121 123 124 121 119 119 121 119 119 121 121 120 120 119 120 119 119 
118 119 117 118 117 119 119 118 117 117 119 119 118 118 118 119 117 
116  81 117 115 118 118 117 118 119 119 117 118 119 118 119 119 120 
119 120 120 119 120 119 121 119 120 119 120 120 120 120 119 119 121 
122 121 120 121 121 120 121 120 119 119 120 120 120 118 120 120 120 
119 121 122 120 122 122 120 120 120 120 122 121 122 122 122 121 123 
123 124 122 121 120 120 120 121 122 124 120 123 122 122 123 121 122 
124 121 122 123 121 123 121 124 126 125 122 122 121 123 122 123 123 
124 124 123 124 124 123 125 124 123 123 122 124 125 124 127 125 126 
126 124 123 125 125 124 124 123 126 126 125 124 125 125 125 125 122 
123 124 125 126 125 124 126 124 125 125 123 125 125 125 126 126 127 
125 126 127 125 125 126 126 125 123 125 125 126 125 126 125 124 125 
126 126 124 124 128 125 129 126 124 127 126 123 126 126 127 127 127 
126 125 125 126 124 125 125 125 124 124 128 126 125 125 124 126 126 
125 125 126 124 126 124 124 124 123 123 123 122 123 123 124 123 123 
123 125 124 124 127 123 124 124 124 124 123 123 125 125 122 123 122 
121 124 123 123 124 122 124 124 123 122 123 124 124 122 121 123 122 
121 121 120 122 120 119 122 122 123 121 120 122 123 123 123 122 123 
124 123 122 123 123 124 120 121 121 120 120 120 122 120 119 119 121 
119 118 117 118 118 117 119 119 117 118 119 117 118 115 115 118 118 
117 119 118 118 116 117 117 116 115 117 118 118 118 118 118  86 122 
118 120 120 120 119 118 116 117 121 122 122 121 121 120 121 121 119 
120 121 120 120 119 121 121 121 121 121 121 122 122 121 122 122 120 
121 122 122 124 121 123 123 124 121 123 120 122 118 121 121 122 123 
123 124 123 121 121 121 120 122 123 119 121 120 122 122 121 123 123 
123 122 121 121 122 121 122 122 123 123 123 125 125 126 127 127 124 
122 121 125 123 124 123 123 123 125 124 126 124 126 125 126 126 127 
126 127 126 126 126 125 126 124 124 126 125 127 124 125 125 124 123 
126 124 125 127 125 125 126 124 127 126 128 126 124 126 126 124 124 
124 124 125 127 124 124 123 124 125 125 125 125 124 124 125 126 125 
125 126 127 125 125 127 128 126 128 125 127 127 128 125 128 126 127 
126 128 127 127 126 126 126 125 128 128 125 126 126 126 127 127 127 
127 126 126 124 126 127 126 126 125 125 126 125 126 127 126 126 127 
126 127 126 126 126 126 125 125 124 124 124 125 124 124 125 126 125 
126 124 125 127 125 123 126 125 123 123 124 123 125 126 125 125 122 
121 126 123 123 121 124 123 123 121 123 123 124 124 123 124 125 123 
125 123 123 124 123 123 123 121 121 122 121 122 125 122 122 123 123 
122 121 121 121 122 121 122 122 122 124 121 122 121 121 118 118 120 
119 120 122 120 118 118 121 119 120 119 119 118 118 117 118 119 119 
119 119 120 118 119 121 117 119 118 116 120 117  81 118 115 116 117 
119 118 117 119 120 120 120 123 121 121 120 119 122 121 121 118 119 
121 121 119 120 121 121 120 120 120 121 120 122 121 121 120 122 121 
123 121 122 123 122 121 122 121 121 119 122 121 122 121 122 124 123 
120 123 120 122 122 121 120 122 123 122 121 122 121 122 124 125 121 
123 121 120 121 121 123 121 122 123 122 125 124 123 124 124 122 125 
123 124 123 123 124 124 121 123 123 125 124 126 126 126 126 126 126 
125 125 125 127 125 124 126 125 127 124 124 124 124 124 127 124 126 
126 126 126 127 127 128 126 128 126 124 127 127 125 126 124 124 125 
126 126 125 125 127 125 126 126 127 126 126 124 124 124 126 125 126 
127 126 125 126 125 128 128 128 127 127 126 127 125 128 126 124 125 
126 127 125 125 124 125 126 127 127 125 126 126 125 125 126 126 125 
124 125 126 125 126 126 127 127 125 126 127 126 126 126 126 127 126 
127 127 127 127 126 126 125 123 124 125 125 125 125 125 127 123 126 
126 124 124 126 124 125 125 124 121 126 123 122 121 122 124 124 121 
124 123 123 121 124 121 123 121 123 120 122 123 125 124 124 122 125 
124 124 122 124 122 123 123 122 122 123 122 122 122 124 122 121 122 
124 121 121 122 122 123 121 123 121 122 120 119 121 119 118 119 119 
121 118 120 120 120 120 118 121 118 119 117 120 119 119 120 120 121 
120 116 117 120 117 117 120 118 117  81 118 116 117 118 120 119 118 
118 120 119 120 122 120 121 120 121 121 120 122 120 119 119 121 120 
120 120 121 122 122 121 121 121 122 122 121 121 121 120 121 124 121 
121 120 122 122 121 121 120 122 121 123 122 121 120 119 122 123 123 
123 121 122 119 122 121 123 122 122 123 124 123 123 120 124 121 121 
122 120 124 123 124 124 124 125 124 121 124 125 124 125 123 124 123 
122 123 123 124 124 124 124 125 125 125 124 125 124 124 125 124 124 
125 125 124 125 124 125 126 124 124 124 125 125 123 125 123 124 126 
126 126 124 122 125 124 124 126 126 123 124 125 126 126 126 125 124 
126 128 124 126 125 125 126 127 124 126 125 125 127 124 125 126 126 
126 127 127 128 126 127 125 125 125 127 126 124 125 126 125 125 127 
126 126 126 124 125 126 125 123 122 124 125 125 124 127 125 125 125 
124 126 126 126 125 125 126 129 127 126 125 126 127 125 124 126 126 
125 125 126 126 124 125 124 125 124 124 124 126 125 124 124 124 123 
124 124 124 124 126 125 125 124 123 124 123 121 124 124 122 122 123 
121 120 121 123 124 123 123 122 123 123 123 126 124 126 123 124 121 
120 123 122 122 121 123 121 120 120 121 122 122 121 121 121 119 120 
121 122 122 120 120 120 120 119 117 119 120 120 119 118 119 120 119 
119 118 119 118 117 115 115 116 120 118 120 119 117 118 119 119 119 
117 119 120 117 117 117  84 118 116 117 119 120 120 119 118 121 118 
120 121 121 119 118 120 123 120 120 120 120 121 121 120 120 120 120 
120 121 122 123 121 122 120 122 121 123 120 121 121 121 121 121 121 
122 121 123 121 122 123 122 123 121 123 123 123 123 123 123 121 122 
121 122 121 123 123 122 124 125 124 123 124 124 123 123 124 122 123 
124 121 124 126 125 124 125 127 124 125 125 122 121 122 122 123 123 
123 125 125 125 126 126 126 126 126 126 126 128 126 126 125 125 124 
125 124 125 125 123 125 125 125 125 125 126 125 124 125 125 126 126 
125 126 125 124 125 125 123 125 125 127 127 127 126 125 126 128 125 
127 126 126 126 127 125 126 126 127 126 124 127 126 125 127 127 126 
128 126 128 126 126 125 126 127 127 126 126 126 126 126 126 128 125 
125 126 125 123 125 124 125 123 126 124 125 127 126 126 125 126 125 
125 126 125 126 128 127 126 126 127 129 124 123 124 125 124 124 124 
124 123 123 122 123 124 125 126 127 124 125 126 125 126 124 125 125 
125 126 122 125 123 124 123 124 123 124 125 124 124 122 122 124 120 
123 123 125 123 124 124 124 128 126 124 125 122 121 121 124 122 121 
123 119 121 122 120 120 123 123 123 122 122 121 118 120 121 121 120 
118 120 119 121 120 118 120 120 121 121 119 118 120 120 120 119 120 
120 119 118 118 120 121 119 120 121 116 117 118 119 120 119 119 120 
119 119 118  84 118 115 117 116 116 116 116 119 121 118 119 120 119 
118 118 120 121 119 121 121 120 120 120 118 119 120 120 119 120 121 
122 120 121 121 121 121 122 121 122 119 122 123 121 119 118 120 123 
121 123 121 121 120 122 122 122 122 122 122 122 121 121 122 121 121 
121 122 123 122 121 123 124 123 121 120 122 123 121 121 120 122 123 
123 123 122 124 124 123 123 124 122 121 124 125 125 124 125 125 124 
124 123 124 124 125 124 125 124 125 123 125 123 123 124 126 125 125 
125 123 126 126 124 125 124 125 125 125 125 125 123 127 125 125 123 
122 125 124 125 125 123 124 125 126 126 125 125 128 126 126 125 125 
125 124 124 127 124 125 127 126 127 127 126 127 126 126 127 128 129 
127 124 126 126 125 124 124 127 124 124 128 124 124 126 126 124 126 
125 127 125 126 123 124 123 124 124 124 123 125 124 125 123 125 126 
127 127 126 127 125 125 126 125 125 124 124 123 123 123 123 123 124 
125 126 125 125 124 124 123 126 126 124 126 124 124 124 125 126 124 
122 123 125 125 122 123 123 122 123 122 123 122 123 122 123 121 123 
122 123 123 123 122 124 125 123 122 123 123 122 123 123 123 122 121 
122 121 121 122 123 122 122 121 121 120 121 118 118 119 118 121 118 
120 119 120 122 120 121 121 119 121 120 120 118 118 117 116 120 119 
119 119 121 117 118 118 117 116 117 116 114 117 116 117 118 114 117 
 83 118 118 121 118 118 118 118 118 119 119 120 121 120 119 119 117 
121 120 119 119 119 119 119 120 120 118 119 121 122 121 120 120 122 
121 123 120 122 119 121 119 121 121 119 122 120 120 121 120 123 122 
123 120 123 121 119 122 121 124 121 120 121 119 120 121 125 124 122 
123 122 121 121 122 123 123 124 122 122 123 123 123 123 123 125 124 
122 122 124 123 124 125 125 124 124 125 125 125 125 124 125 125 126 
125 125 126 126 124 125 124 127 127 128 125 127 126 125 125 123 126 
126 125 126 124 125 125 125 125 125 122 126 125 125 126 124 124 123 
125 124 124 125 125 126 126 125 127 127 126 126 125 125 126 126 126 
127 126 127 127 127 127 126 126 126 126 126 127 128 126 124 123 124 
126 125 124 124 126 127 124 126 126 124 125 124 125 125 126 126 125 
125 122 126 125 125 125 126 125 127 126 127 125 125 124 125 125 126 
127 126 126 126 124 125 125 125 125 125 123 123 122 124 126 127 126 
126 124 125 126 126 126 127 125 125 126 124 122 124 124 125 123 123 
123 124 124 124 125 125 125 126 124 123 121 121 119 123 120 122 120 
120 121 123 124 123 121 122 121 122 123 124 121 123 122 121 123 121 
120 121 120 120 121 120 121 120 118 119 119 122 120 120 119 119 121 
121 122 120 120 121 119 118 121 121 121 120 119 119 120 118 116 119 
119 119 119 118 118 118 117 119 117 118 117 117 118 116  86 117 115 
117 116 118 118 116 120 119 120 119 121 120 119 119 118 120 118 117 
120 119 119 118 120 121 120 120 119 120 119 120 120 122 120 120 118 
120 117 120 119 120 119 119 121 120 119 122 122 123 123 121 120 121 
122 121 119 120 120 120 122 121 121 121 121 121 121 122 121 121 120 
122 123 122 125 123 120 124 121 121 123 124 123 122 123 122 122 123 
123 123 124 124 124 122 123 125 125 124 126 125 125 124 125 126 124 
123 125 126 125 125 125 126 125 127 125 124 125 123 125 125 125 125 
124 127 123 125 124 124 126 125 125 123 125 124 124 128 125 124 124 
124 124 125 125 126 126 124 125 126 126 125 125 126 125 126 126 125 
127 126 124 125 125 125 126 125 126 125 125 125 125 124 127 125 125 
126 123 123 123 125 127 124 126 125 126 126 127 123 123 127 124 125 
124 124 124 125 126 125 125 126 126 125 124 125 124 124 125 124 125 
127 124 125 125 125 125 125 124 125 125 126 124 125 123 124 123 125 
125 127 124 125 125 127 126 124 123 124 124 124 123 123 122 123 123 
122 125 124 124 124 124 125 123 122 121 121 121 121 123 122 122 123 
123 123 122 123 122 123 120 121 121 121 120 121 123 122 122 122 120 
121 119 118 119 119 120 121 121 121 119 119 119 121 119 120 119 120 
121 121 120 119 119 116 120 116 119 117 117 117 117 119 116 117 117 
118 117 118 117 114 117 117 115 117 115 116 