P2
# CREATOR: XV Version 3.00  Rev: 3/30/93
202 138
255
163 163 162 163 163 164 163 164 161 163 162 165 164 164 164 164 162 
163 163 164 165 166 167 166 164 165 164 165 166 166 164 165 165 166 
166 165 166 166 166 167 164 165 167 167 167 167 168 167 167 168 168 
167 165 165 166 166 166 166 167 167 165 168 168 168 168 167 167 168 
168 168 169 169 168 169 168 168 169 169 168 169 169 169 168 168 170 
169 167 168 167 168 169 168 168 168 167 168 168 169 168 169 170 169 
170 168 168 169 168 168 169 170 170 169 168 169 167 168 168 169 167 
169 168 169 169 167 168 168 167 168 169 169 168 167 168 168 168 167 
168 169 169 169 167 167 168 167 165 168 165 167 167 167 169 168 168 
168 165 165 166 168 168 167 167 168 167 166 166 165 164 166 164 166 
167 164 165 167 167 166 164 163 165 165 164 164 165 165 163 164 166 
166 163 164 164 163 165 165 163 165 164 166 164 162 161 163 163 162 
162 165 163 163 163 164 164 166 164 165 162 163 163 163 164 165 164 
165 165 165 165 165 166 166 164 164 165 166 166 168 165 165 166 166 
164 165 166 165 166 168 168 167 167 168 168 168 166 167 169 168 168 
166 168 169 167 166 166 167 168 168 167 169 168 168 169 169 168 168 
168 170 167 168 168 168 169 168 169 170 168 169 168 167 170 170 167 
168 169 169 168 171 171 171 167 167 168 169 169 169 170 169 169 168 
169 169 168 168 169 170 170 169 168 169 169 170 170 170 167 168 168 
169 169 168 168 168 166 168 168 170 168 169 168 169 169 168 167 170 
169 168 168 168 168 168 168 170 168 169 169 167 167 165 165 165 167 
169 166 167 169 166 165 167 166 166 167 165 165 168 166 168 164 168 
165 167 166 167 165 166 166 166 164 164 164 165 163 163 164 163 163 
163 165 164 165 165 163 164 161 163 165 165 162 164 163 161 163 163 
162 162 164 165 161 163 163 163 163 163 164 164 164 165 165 164 164 
163 164 164 164 164 165 165 166 166 164 165 163 165 164 165 164 166 
166 165 165 168 166 168 167 170 167 168 166 166 167 167 167 163 166 
166 167 167 167 165 167 166 166 169 167 166 168 169 170 170 169 169 
168 168 166 168 169 169 169 168 167 169 169 168 168 171 168 169 168 
170 167 170 168 169 169 168 167 169 169 169 170 168 168 170 168 169 
169 168 168 169 170 170 168 169 168 168 170 168 168 168 168 168 168 
168 168 168 168 171 171 171 167 171 168 170 168 167 167 170 167 167 
168 167 166 167 168 168 167 168 168 168 167 169 166 167 168 167 167 
166 167 167 165 167 167 165 165 165 164 165 166 164 167 166 165 166 
165 166 166 167 165 165 165 164 163 164 166 165 164 165 164 163 166 
164 164 165 163 164 163 164 164 163 163 165 162 164 162 164 162 162 
163 163 162 163 162 164 161 163 164 164 164 163 164 164 166 165 164 
165 164 164 164 164 164 166 166 165 166 164 165 166 164 165 165 167 
166 165 166 165 165 167 167 166 165 167 167 167 166 167 166 164 167 
165 166 168 165 166 167 167 166 168 169 169 167 168 168 169 166 165 
167 166 165 166 167 167 167 165 168 169 166 167 167 167 168 167 167 
170 168 168 168 168 167 167 167 168 168 169 169 168 167 168 169 166 
167 168 168 168 166 166 168 166 168 169 167 168 168 166 168 168 169 
168 167 169 168 168 168 168 167 168 167 167 166 167 167 169 167 166 
167 167 166 163 168 167 168 168 168 167 166 166 167 166 164 166 164 
165 166 165 167 167 166 165 167 166 166 166 163 166 165 164 164 165 
164 164 165 164 163 163 165 163 164 165 164 163 163 162 163 163 162 
162 163 163 161 163 161 163 163 163 161 163 161 162 161 162 162 164 
161 162 163 165 163 164 164 162 163 165 165 164 163 163 165 164 165 
167 166 167 165 167 166 166 164 166 166 165 165 166 167 166 167 167 
167 167 165 166 168 168 167 168 167 167 167 168 167 168 167 167 168 
168 167 168 168 167 166 167 166 167 167 169 168 169 166 169 168 168 
168 168 167 169 168 173 170 169 167 169 169 170 167 168 168 169 168 
169 170 170 167 168 170 170 169 168 168 168 167 169 169 168 168 169 
169 170 168 169 168 168 168 167 166 167 167 168 168 169 168 169 169 
170 167 169 168 170 169 170 169 167 167 169 168 169 168 168 167 167 
168 168 168 167 167 169 170 168 168 167 167 167 167 168 166 166 167 
166 167 167 167 167 167 165 164 168 166 166 166 166 165 165 165 166 
166 165 163 162 164 164 163 165 165 165 163 164 163 163 162 163 164 
164 163 164 163 163 164 165 162 163 161 161 163 163 162 163 163 163 
162 162 162 163 164 164 164 165 163 164 164 164 164 163 165 168 165 
167 165 167 165 165 167 166 168 165 166 166 166 166 166 168 166 168 
167 167 167 167 166 168 165 167 166 166 165 167 167 169 168 168 168 
169 168 168 167 168 167 169 167 169 169 170 169 170 167 168 169 168 
167 168 169 169 168 170 169 168 170 168 168 168 169 168 170 170 170 
170 168 169 170 170 170 170 170 170 169 170 169 169 169 169 168 169 
168 170 168 170 170 168 169 169 167 169 169 170 169 169 169 168 169 
169 167 171 167 168 170 169 167 170 169 168 168 169 168 166 169 170 
167 169 169 169 169 169 167 168 167 167 167 168 165 166 166 167 167 
167 167 168 167 166 167 168 165 164 167 166 166 166 165 167 164 165 
164 164 165 165 167 166 163 166 163 163 163 165 165 166 164 164 163 
165 165 164 164 164 161 162 161 161 163 162 162 162 163 164 163 163 
162 163 164 164 164 165 164 165 163 163 164 163 164 165 164 165 167 
166 166 166 166 166 165 165 168 165 166 167 166 167 164 168 167 168 
166 166 167 167 164 166 167 167 166 166 167 168 167 168 168 168 167 
168 167 168 167 168 166 167 168 169 167 168 165 169 170 169 170 170 
171 171 170 169 168 168 169 168 168 168 168 168 170 169 169 170 169 
168 168 169 170 171 170 169 169 169 168 169 169 168 168 169 168 169 
168 170 169 168 169 168 167 169 170 170 169 167 168 168 170 169 167 
169 166 166 169 169 168 168 167 169 169 167 167 168 167 169 166 170 
168 168 168 167 166 168 168 168 167 168 167 168 165 168 167 167 166 
167 166 167 166 166 166 165 169 165 166 167 166 166 164 164 163 163 
165 165 164 166 163 164 164 165 163 163 163 164 163 165 163 163 165 
165 161 164 161 162 164 164 163 163 164 165 163 165 165 166 164 164 
163 164 165 167 167 165 163 165 165 165 165 165 165 166 166 165 166 
168 166 168 166 166 167 166 166 166 168 168 167 168 168 169 168 169 
167 167 167 168 167 167 167 168 168 168 169 169 169 169 169 169 168 
168 167 167 168 169 169 168 167 169 170 178 174 168 165 164 165 161 
158 152 158 169 168 169 167 170 169 170 169 170 170 171 168 169 169 
169 170 170 170 169 169 169 169 169 170 168 169 171 168 168 169 169 
169 168 170 168 169 170 169 168 169 169 168 169 170 169 169 169 168 
168 169 168 169 169 169 170 169 167 169 169 169 169 169 169 168 169 
170 168 167 168 168 169 167 167 168 168 167 168 167 168 167 168 166 
167 166 166 168 167 167 165 165 166 165 167 165 167 163 164 165 166 
165 166 165 167 167 165 164 165 165 166 164 166 166 165 168 167 164 
164 162 162 164 163 162 163 163 165 163 164 163 164 162 164 162 163 
165 165 165 164 164 166 164 164 164 164 164 165 164 165 164 165 166 
167 166 166 166 167 166 167 167 166 168 166 168 166 167 167 167 167 
168 168 168 168 169 167 166 166 169 167 169 167 169 167 167 168 167 
168 168 169 168 168 169 170 169 171 132  95  84  81  72  68  59  50 
111 159 166 165 167 169 168 169 168 169 168 169 168 170 170 169 170 
170 170 170 168 168 169 168 170 167 168 169 167 166 168 167 168 167 
168 167 168 170 169 168 168 169 167 167 168 167 169 167 169 169 169 
169 169 169 168 166 168 168 170 168 169 167 168 168 168 168 169 168 
167 167 166 168 165 165 166 164 166 166 165 167 167 167 166 166 167 
167 166 166 165 167 165 165 163 165 165 167 164 163 164 164 163 165 
165 164 162 162 164 163 165 165 163 163 164 164 166 163 162 164 163 
164 163 164 163 164 163 164 163 165 164 165 165 166 165 166 166 166 
166 166 166 165 166 167 166 166 166 166 165 168 166 166 166 168 165 
167 167 165 167 167 164 165 168 166 168 166 167 166 165 167 169 169 
169 168 168 168 167 167 169 167 169 168 169 169 167 169 169 169 168 
168 167 169 169 169 170 166  98  38  37  39  38  38  32  29 101 165 
166 167 168 168 167 169 169 169 169 170 169 170 169 168 169 169 169 
170 169 170 169 169 171 170 170 169 169 169 169 168 167 167 167 168 
166 169 169 170 169 168 167 168 169 169 168 168 170 168 169 170 170 
169 168 167 171 168 168 170 168 167 168 169 169 168 168 168 168 169 
168 169 168 168 167 165 166 167 167 167 167 167 167 166 165 167 166 
167 166 168 166 168 166 168 164 166 164 164 164 165 165 165 165 166 
165 165 165 166 162 165 165 165 165 164 165 164 161 162 161 163 162 
163 163 164 161 163 163 164 163 163 163 164 165 166 165 166 163 163 
165 164 165 165 164 164 167 165 164 166 165 165 166 167 167 166 167 
165 166 165 166 167 167 167 168 167 167 166 166 168 168 168 168 168 
167 168 168 169 167 167 168 167 165 167 167 169 167 168 167 169 167 
169 169 167 169 168 107  45  49  47  44  44  42  37 102 163 164 166 
167 167 169 168 167 168 170 168 167 169 169 169 170 169 169 169 168 
170 168 169 169 170 169 169 168 170 168 169 169 169 168 171 168 169 
166 168 169 167 168 168 168 172 170 170 170 168 168 169 166 170 170 
167 169 167 167 168 167 169 168 168 168 168 167 168 165 167 166 168 
168 168 166 165 165 166 167 167 166 166 167 166 165 166 166 163 167 
167 165 166 164 167 166 167 166 164 163 164 162 164 165 166 162 163 
164 165 163 163 162 161 163 162 163 162 163 164 161 162 162 163 162 
163 162 163 162 162 163 162 163 162 163 162 163 164 163 161 162 162 
164 163 163 161 167 165 163 166 166 166 165 163 163 164 162 163 165 
164 165 166 168 167 167 166 165 166 165 165 166 167 167 166 166 167 
165 164 168 166 167 164 166 166 168 167 165 165 166 167 167 168 169 
169 167 166 110  48  49  47  45  47  45  34  93 159 164 165 165 167 
169 167 167 167 167 168 167 170 169 166 168 168 168 168 169 168 167 
168 169 169 167 168 170 168 168 169 167 169 168 169 168 167 169 169 
169 169 169 170 167 166 167 166 167 168 167 167 166 166 167 167 168 
168 167 166 165 165 166 167 167 166 165 165 167 166 168 167 163 165 
166 167 166 165 165 165 166 166 165 164 166 167 165 166 165 165 168 
166 165 165 166 166 164 165 165 163 165 163 164 163 164 165 165 164 
166 165 164 164 163 163 163 163 163 161 161 164 163 163 163 165 164 
163 161 165 165 163 166 165 164 164 164 167 164 165 166 165 165 164 
163 168 167 167 166 166 166 167 162 168 167 166 167 166 166 167 166 
168 168 166 167 168 168 166 165 167 166 168 166 167 168 168 166 167 
167 169 168 169 168 166 167 169 169 168 169 168 169 169 167 170 166 
168 117  53  48  49  47  50  44  35  89 160 166 167 167 169 169 167 
168 168 169 169 167 170 170 168 169 169 169 170 169 170 169 169 168 
170 170 172 169 169 169 170 169 170 168 169 169 169 169 169 168 169 
168 168 165 170 170 168 168 168 170 169 168 169 168 166 167 169 169 
168 167 169 168 168 167 168 168 167 167 167 166 168 167 168 167 165 
166 169 169 167 167 168 167 166 166 166 165 165 166 165 168 165 166 
167 166 167 166 165 164 164 164 164 165 165 165 165 164 164 163 164 
163 162 162 163 164 165 162 164 161 163 161 162 164 165 164 164 165 
164 163 164 164 165 164 165 165 165 164 163 165 167 164 164 164 168 
170 169 152 156 165 165 165 165 165 167 166 168 167 168 166 169 167 
168 167 169 168 167 168 168 167 169 167 167 168 168 168 170 168 170 
168 170 169 168 168 169 168 169 171 169 170 169 167 169 167 171 121 
 53  47  49  47  50  45  37  84 158 166 167 167 169 167 167 168 168 
170 170 168 168 167 168 168 168 168 169 167 168 169 169 168 169 168 
170 169 170 170 169 169 169 168 171 170 170 170 171 171 171 170 171 
168 169 167 170 171 169 169 170 168 170 169 169 170 170 169 169 166 
168 168 169 170 170 170 170 167 168 166 167 168 169 168 167 167 169 
167 167 167 166 166 168 167 168 167 165 168 167 168 166 165 168 166 
167 167 166 167 166 163 166 166 167 165 165 164 166 164 164 163 162 
163 163 163 163 164 165 162 165 162 162 163 165 164 163 164 164 164 
163 162 165 166 164 163 166 165 163 165 165 165 164 165 170 173 128 
 68 109 152 162 164 167 166 166 166 167 167 167 166 167 167 168 169 
167 169 168 168 168 167 168 168 166 169 168 166 168 169 169 169 167 
169 168 168 170 169 170 170 168 170 171 168 168 167 170 124  53  47 
 49  47  47  45  37  81 155 166 167 167 169 168 169 169 168 169 168 
170 169 167 169 168 169 169 168 170 169 168 170 170 170 169 169 168 
170 169 168 169 169 168 171 169 168 167 168 167 168 168 169 169 171 
171 171 170 169 169 171 167 168 167 168 169 169 170 169 167 167 168 
169 170 167 168 167 167 168 167 168 168 168 167 167 165 167 167 166 
168 166 168 167 168 168 168 167 166 165 163 165 164 167 165 165 165 
165 165 165 164 165 164 165 164 165 163 164 163 163 162 163 163 163 
162 163 162 163 163 164 163 165 163 163 163 164 164 165 165 166 166 
164 164 166 164 167 167 167 168 167 167 166 170 175 143  54  27  52 
100 143 161 164 166 168 168 166 168 168 167 169 167 168 168 168 169 
169 167 169 168 169 168 168 170 169 168 169 168 170 170 169 169 168 
167 170 169 170 169 169 170 170 169 170 168 171 132  58  47  49  47 
 47  46  37  76 153 169 168 168 169 168 169 169 168 169 168 169 170 
170 171 169 170 171 171 169 170 169 170 169 169 169 171 169 170 170 
170 171 171 170 170 170 171 171 171 170 171 171 169 168 170 170 169 
169 169 167 169 169 170 169 169 168 170 171 168 167 168 169 170 169 
169 171 170 168 167 168 168 166 167 167 169 166 167 168 168 168 166 
168 167 168 167 167 167 167 167 165 166 165 164 166 167 166 166 165 
166 166 167 166 167 164 165 165 165 165 166 164 165 164 165 164 165 
163 162 159 162 162 162 161 164 165 163 164 165 165 164 164 164 164 
163 162 163 163 165 164 165 165 168 171 154  70  22  40  50  55  93 
141 162 165 166 167 166 167 166 167 168 168 167 168 167 168 166 166 
169 167 168 167 168 167 168 168 169 166 167 168 168 167 168 168 168 
166 168 169 168 167 168 168 169 168 172 135  62  46  49  48  49  47 
 37  69 149 167 166 168 169 168 169 169 169 169 169 170 171 171 171 
169 170 170 169 168 170 169 169 168 169 170 169 168 169 170 169 169 
168 170 169 169 169 169 168 168 169 170 168 169 168 168 172 172 170 
171 173 171 170 169 169 167 169 168 167 166 166 166 169 167 168 168 
168 168 167 169 168 167 167 166 167 167 167 166 168 165 164 166 168 
167 166 167 166 167 166 166 165 165 165 167 167 166 166 165 165 166 
166 164 166 164 165 165 163 164 166 164 164 162 164 162 162 164 162 
163 164 164 165 163 164 164 163 165 162 163 164 163 163 164 163 163 
167 165 169 164 164 170 171 162  87  28  37  47  47  48  53  84 132 
160 164 165 164 166 169 166 168 168 168 165 166 166 166 166 169 165 
167 168 168 166 169 166 167 168 169 167 168 166 167 170 169 169 169 
169 168 168 170 169 169 170 172 136  63  47  51  45  47  48  38  67 
149 170 170 169 169 169 169 169 168 169 169 168 169 169 169 169 170 
170 169 168 172 172 172 169 168 170 170 169 170 171 169 169 168 171 
171 170 172 170 170 170 169 169 170 168 169 169 175 164 139 135 139 
146 149 154 159 160 164 165 168 167 167 170 171 171 171 169 171 169 
169 169 168 166 166 167 168 165 167 167 167 167 169 168 167 164 166 
168 166 167 165 166 167 167 167 168 167 165 166 166 165 165 166 166 
167 166 165 167 166 164 166 165 165 166 167 165 164 162 164 163 163 
163 164 162 163 163 162 161 162 166 165 165 162 164 163 163 165 163 
165 164 166 170 166 108  36  28  44  44  46  45  45  32  47 126 162 
164 166 166 167 167 168 169 167 165 168 168 169 164 168 168 166 169 
168 166 167 167 169 167 167 166 168 166 168 168 168 169 165 167 168 
169 168 168 169 169 168 141  65  43  49  46  47  48  37  64 143 167 
168 167 167 169 168 168 168 168 168 167 168 170 169 169 167 169 170 
170 169 167 169 169 169 169 168 169 169 169 168 171 170 171 169 167 
172 169 168 169 169 167 168 167 170 168 171 131  63  42  47  53  60 
 67  74  82  95 104 113 120 126 136 137 143 147 151 157 156 162 163 
165 166 167 169 170 169 167 167 165 168 168 166 164 164 165 164 165 
167 166 164 167 164 165 164 167 167 167 167 168 164 165 165 165 165 
164 167 165 167 167 166 165 166 164 164 164 164 163 163 163 162 161 
163 162 162 162 163 162 163 161 164 164 164 163 162 159 161 163 163 
166 171 125  42  24  41  42  44  42  40  30  15  55 141 167 162 165 
164 163 167 166 165 168 167 167 168 167 167 166 166 167 166 167 166 
168 167 168 167 169 169 167 168 169 168 168 168 167 168 168 167 168 
169 167 167 170 143  69  41  46  46  44  45  32  58 139 165 165 168 
168 169 168 169 169 169 170 169 169 171 171 168 168 169 169 167 168 
167 168 168 167 168 170 168 170 168 168 169 168 168 167 170 170 169 
169 168 169 167 168 167 168 167 167 122  49  38  43  42  40  41  37 
 37  36  37  37  37  41  39  44  50  56  63  68  82  94 104 110 118 
123 126 136 141 145 152 155 157 160 161 164 165 164 166 166 165 166 
166 165 163 162 163 166 165 165 162 163 164 165 165 165 163 163 163 
165 163 163 165 164 162 164 163 164 163 162 162 163 165 164 165 163 
162 163 161 164 164 163 164 164 166 164 166 170 164 166 168 172 144 
 60  19  43  43  45  45  46  34  14  36 129 168 165 166 168 166 167 
165 168 166 166 163 166 167 168 167 167 167 168 167 167 167 167 168 
170 168 168 168 168 169 168 169 169 168 168 169 169 169 170 167 169 
169 169 146  72  44  48  46  47  47  36  55 136 166 166 169 170 169 
169 169 170 169 169 169 171 169 168 171 170 168 169 167 173 171 171 
172 172 170 169 168 170 170 171 168 168 168 169 166 170 171 169 170 
170 168 169 168 171 171 167 116  49  43  46  45  46  47  46  46  48 
 49  47  47  49  46  45  46  45  45  43  39  41  40  38  40  42  42 
 47  48  53  61  70  80  93 102 108 118 125 136 141 146 148 152 155 
153 158 163 163 164 164 165 166 165 166 164 164 164 164 164 164 167 
165 165 164 164 165 164 165 162 163 163 164 164 162 163 162 162 164 
162 162 163 162 165 166 165 165 165 164 162 167 172 159  80  21  35 
 44  46  45  46  40  17  21 109 167 169 166 168 167 168 167 168 168 
166 168 164 166 167 166 166 167 166 168 167 168 169 169 168 169 169 
169 170 169 170 169 167 170 170 168 169 169 170 169 170 171 167 170 
153  75  44  48  48  47  46  39  52 132 167 166 168 170 169 170 170 
170 170 169 169 171 170 168 170 170 168 169 169 171 167 170 172 174 
175 174 169 166 165 166 168 171 169 168 169 170 172 169 169 170 171 
169 169 171 171 166 108  48  46  48  47  48  46  47  45  47  46  45 
 47  47  47  45  47  46  48  46  46  47  47  47  49  47  45  45  45 
 43  42  43  42  39  39  41  39  42  45  51  56  60  67  73  78 116 
155 164 166 164 168 167 166 166 166 167 168 165 165 164 165 164 165 
166 166 165 165 166 163 165 163 163 163 163 164 163 161 161 162 164 
164 166 164 164 165 165 166 165 166 170 164 100  27  33  45  46  44 
 48  40  27  18  89 161 169 165 166 166 165 165 167 166 167 167 168 
168 166 165 166 167 169 166 167 165 166 169 168 170 169 168 168 169 
168 169 169 169 170 169 168 170 170 171 168 167 170 168 170 157  81 
 46  50  48  46  45  39  50 126 167 166 169 169 168 169 169 168 169 
170 169 169 169 170 170 169 169 168 167 173 175 173 169 163 154 143 
122 137 163 167 170 168 168 170 170 170 169 168 170 170 169 170 168 
168 170 165 102  46  46  48  48  49  46  47  46  46  45  46  47  46 
 48  47  47  45  49  49  45  46  46  47  46  44  46  46  45  47  47 
 48  47  44  44  43  44  49  48  48  49  48  43  38  31  95 155 165 
166 163 165 163 164 163 164 165 165 164 164 165 163 165 166 167 166 
164 164 164 162 165 165 165 165 165 165 164 162 163 162 163 166 166 
163 166 165 165 165 166 170 173 117  36  28  45  44  48  48  45  32 
 14  70 149 169 166 169 170 167 167 166 169 166 167 168 167 168 167 
167 168 167 170 168 170 167 167 169 169 169 169 169 170 170 170 169 
169 169 169 169 170 171 169 171 170 171 172 169 171 156  80  41  51 
 47  47  47  42  51 126 169 168 170 169 170 170 171 171 169 170 169 
170 169 170 170 170 169 170 172 174 157 120  96  73  53  39  28  85 
157 168 170 169 171 169 170 169 168 170 169 169 170 169 170 170 171 
161  91  43  47  47  46  47  45  45  47  45  45  47  47  47  47  47 
 46  44  45  44  46  45  44  46  44  43  47  46  45  48  47  47  47 
 47  47  46  46  48  47  47  48  45  47  43  44 106 161 165 165 165 
165 165 164 164 165 165 163 166 166 167 165 166 166 165 166 165 166 
165 163 166 163 163 163 163 161 162 164 166 162 163 163 166 165 165 
166 164 163 167 167 132  46  24  46  47  45  46  44  32  17  54 138 
167 163 166 164 165 165 168 166 166 167 168 168 167 166 167 166 166 
166 168 166 167 166 167 169 169 167 168 168 168 168 169 169 170 170 
170 170 169 169 168 170 167 166 169 168 169 157  88  45  52  47  46 
 44  40  46 121 167 167 169 170 170 170 170 171 169 169 169 169 169 
169 168 169 170 169 170 169 125  53  36  40  42  43  35  83 154 168 
169 171 170 169 169 171 168 169 169 170 169 169 169 169 170 155  83 
 44  48  47  44  47  45  43  46  46  45  45  46  46  46  46  46  46 
 48  46  46  46  45  47  47  46  46  45  47  47  45  46  46  46  46 
 46  45  47  47  46  46  45  46  39  45 110 160 163 165 164 162 164 
165 166 166 166 163 165 164 166 163 165 164 163 164 164 165 165 162 
164 162 162 163 165 165 166 166 165 162 164 165 166 165 164 164 165 
165 171 150  70  25  45  48  47  44  48  36  17  40 126 170 169 167 
166 165 168 166 167 167 167 166 170 169 168 169 167 165 169 170 170 
168 168 167 167 167 168 169 169 170 169 169 170 169 169 167 168 170 
169 168 170 171 169 169 170 169 171 161  90  42  50  49  48  48  45 
 45 115 166 168 171 172 171 169 169 170 169 169 169 169 171 171 171 
172 171 168 170 173 137  65  46  49  47  46  39  74 147 169 167 168 
169 171 169 170 169 171 169 170 171 169 168 169 170 152  80  45  48 
 47  46  47  48  47  49  48  46  46  46  47  47  46  46  47  46  46 
 44  45  46  46  45  44  45  44  42  44  44  44  45  46  46  45  45 
 44  44  47  45  46  45  39  46 118 165 165 167 165 162 164 165 165 
165 167 164 163 165 166 164 166 166 165 165 164 164 165 163 164 163 
162 163 164 163 164 165 165 162 166 164 165 166 165 164 164 162 162 
131  61  47  53  48  45  45  42  26  23 104 164 168 166 163 167 167 
167 167 167 167 167 168 168 169 167 168 167 167 168 168 167 168 168 
168 167 167 169 169 169 169 169 169 169 168 170 170 167 169 170 170 
169 169 169 168 170 168 170 163  92  43  50  48  47  48  41  40 108 
164 167 168 170 170 170 170 169 169 168 168 170 170 170 170 169 166 
168 167 170 146  78  50  50  49  46  42  62 134 166 166 169 169 170 
169 169 169 171 171 170 171 168 170 171 170 149  74  44  48  48  47 
 44  45  45  45  44  46  48  49  47  47  44  44  43  44  46  43  45 
 45  44  45  45  45  45  44  44  46  47  47  46  45  47  47  48  47 
 46  45  47  46  38  52 123 161 161 167 167 165 165 165 165 163 165 
165 164 166 164 164 165 164 165 165 165 163 164 163 163 164 162 164 
163 162 164 164 164 164 164 163 163 163 164 163 163 166 163 158 138 
 87  57  47  49  42  24  15  84 160 169 164 165 168 166 166 166 166 
164 167 167 168 168 168 167 167 167 167 169 168 167 167 167 168 168 
168 168 165 166 166 168 169 168 167 168 169 168 169 169 168 168 167 
168 169 166 169 170 164 100  46  50  45  47  47  43  39 104 163 167 
167 169 168 169 168 169 169 170 167 169 169 169 171 168 170 168 167 
168 154  86  44  49  47  46  43  50 122 165 164 167 171 169 169 169 
170 167 169 167 168 168 168 167 170 142  65  37  46  44  46  45  44 
 45  45  45  45  46  46  45  44  44  46  45  45  45  45  44  44  46 
 44  45  44  44  43  43  45  47  46  46  45  44  44  45  43  44  43 
 45  44  32  54 129 163 162 162 163 163 164 166 164 164 164 163 162 
163 162 164 166 162 163 164 163 162 163 164 163 163 165 164 163 162 
162 162 164 163 168 164 166 163 162 165 166 163 168 163 162 147 103 
 64  48  32  20  67 149 171 169 169 167 166 167 164 167 168 169 168 
167 165 167 168 168 169 168 168 168 167 168 168 168 168 167 168 169 
166 168 168 170 168 169 168 169 168 169 169 167 168 168 168 170 167 
171 168 169 169 106  48  49  48  50  48  43  38 100 163 167 168 171 
170 170 169 170 170 169 169 170 169 169 171 170 171 170 168 169 164 
103  48  52  47  47  41  46 112 163 168 172 172 170 170 170 170 170 
171 171 172 171 168 174 171 140  64  44  50  47  45  47  46  47  48 
 45  47  45  46  46  46  46  48  47  47  46  45  45  46  47  44  45 
 44  43  46  47  46  46  45  47  45  45  42  45  46  46  45  44  45 
 36  61 137 165 162 162 164 165 165 163 164 165 167 165 164 164 163 
163 166 164 165 165 164 164 163 163 165 162 164 163 165 165 164 165 
164 164 165 163 164 165 165 164 165 164 163 165 165 166 153 113  60 
 24  53 135 171 166 163 166 166 167 169 166 168 169 169 167 167 167 
168 168 169 169 168 168 168 167 169 170 169 169 168 169 170 168 168 
169 170 169 169 168 168 171 169 170 169 169 170 171 170 168 170 170 
169 168 109  48  52  48  48  50  48  42  98 164 167 169 169 168 172 
171 171 172 172 172 172 170 170 171 171 171 171 169 168 165 110  46 
 41  34  34  32  42 108 164 167 169 170 170 170 170 168 171 171 171 
172 172 169 171 169 137  65  45  51  48  46  48  46  46  47  45  47 
 46  46  46  45  46  47  47  47  47  46  46  45  46  45  47  46  45 
 45  46  46  46  46  45  45  46  45  46  45  46  48  46  44  35  69 
144 166 166 165 165 165 165 164 165 165 166 165 164 166 166 164 165 
164 165 165 164 165 165 164 166 164 164 163 165 166 165 165 163 164 
164 165 165 166 163 165 165 163 164 167 165 163 163 156 116  69 120 
169 172 165 167 164 167 165 167 166 167 168 166 167 167 167 167 168 
169 168 167 167 167 166 167 168 168 169 169 169 168 167 167 169 169 
169 168 167 166 168 169 170 169 170 170 169 169 169 170 169 171 171 
115  50  47  51  48  48  43  37  91 159 166 168 170 170 171 168 169 
169 170 169 170 171 171 170 170 170 172 167 170 166 115  46  45  60 
 82 104 121 151 169 167 169 170 170 171 171 171 172 171 170 170 170 
167 170 169 127  55  44  49  46  46  45  45  46  46  47  46  47  46 
 47  44  46  46  46  46  47  46  47  47  48  46  45  44  46  45  46 
 46  47  48  46  45  45  45  46  45  46  48  46  45  35  75 149 164 
167 168 167 166 166 163 165 167 166 168 164 166 165 164 164 164 166 
165 164 164 165 164 164 164 165 164 163 164 164 163 165 164 163 166 
165 165 164 167 166 164 165 167 168 165 166 166 165 156 168 171 168 
166 167 166 166 167 166 167 167 168 168 167 168 167 167 169 169 168 
169 169 169 167 168 168 169 170 170 169 168 168 169 170 169 169 169 
169 169 170 170 169 170 171 171 170 170 171 170 171 171 166 108  41 
 40  45  45  46  48  56 107 162 170 168 170 170 171 169 170 171 172 
171 171 172 171 172 172 171 173 172 169 168 154 139 149 159 166 171 
177 176 173 173 171 170 171 171 171 172 172 170 171 171 172 169 171 
171 119  56  47  49  48  49  48  47  47  47  48  47  47  46  48  46 
 47  46  47  48  48  48  48  46  48  47  46  46  46  45  46  45  46 
 46  46  48  46  45  46  48  49  47  46  45  37  83 154 165 166 167 
167 168 167 165 166 167 165 167 165 165 165 167 166 166 166 167 166 
166 165 165 163 164 164 164 164 164 165 164 165 164 164 165 166 164 
165 166 164 163 164 164 165 165 167 168 165 165 164 166 169 166 167 
169 168 169 167 168 168 166 169 166 166 167 167 167 167 167 168 168 
169 167 169 168 169 168 169 168 169 168 170 168 169 168 169 166 167 
169 169 169 170 169 169 170 171 166 171 169 168 167 146 130 138 139 
143 147 148 148 161 173 171 171 170 168 170 170 170 171 171 171 170 
170 169 170 171 170 171 169 170 170 172 172 174 174 172 170 172 171 
171 172 172 172 171 172 171 171 171 169 171 169 171 167 169 167 115 
 52  49  49  51  50  51  48  47  48  47  51  49  46  48  48  47  47 
 49  49  47  48  49  47  47  46  47  46  46  47  46  45  46  46  46 
 47  45  45  45  47  48  47  47  42  36  93 158 165 165 166 165 166 
165 164 166 164 165 165 164 164 164 166 166 166 164 164 164 165 165 
165 164 163 162 163 163 163 163 163 163 164 166 163 167 166 166 167 
164 165 167 166 166 164 166 164 167 164 169 168 168 166 165 167 167 
168 168 169 170 166 169 167 168 166 166 169 169 168 168 168 167 167 
169 168 169 168 169 169 170 168 171 169 172 169 171 169 171 169 171 
169 170 171 169 169 170 169 169 171 170 171 170 172 177 178 178 175 
175 177 176 173 172 169 172 171 171 170 172 172 171 171 172 173 173 
171 172 171 173 168 169 170 170 172 171 172 171 170 173 172 171 171 
169 170 172 170 171 171 172 171 171 169 169 169 171 162 102  41  41 
 47  47  48  48  46  47  47  47  51  49  48  49  47  46  47  47  47 
 47  46  51  50  50  47  46  45  46  47  46  47  49  48  48  47  47 
 47  48  48  48  48  49  43  42 101 159 165 166 166 165 165 164 164 
167 165 167 165 167 164 165 164 165 166 164 165 164 164 165 162 164 
162 165 163 162 164 164 163 167 166 166 166 166 166 167 163 165 167 
168 166 167 169 165 165 168 167 167 166 165 168 167 165 167 166 167 
167 169 166 166 166 168 167 167 167 169 167 167 169 168 167 169 167 
168 167 169 168 168 168 168 167 171 169 171 169 169 168 170 171 171 
170 169 170 168 169 169 171 169 171 171 172 170 169 169 168 169 170 
170 167 167 167 170 169 171 170 170 170 170 170 171 171 173 171 172 
170 170 170 171 172 171 170 169 169 170 170 171 171 171 171 172 172 
170 169 171 171 170 171 169 171 170 171 168 164 138 110 107  96  86 
 73  66  61  57  51  47  44  43  40  40  42  43  44  42  45  47  48 
 50  46  48  48  47  46  46  46  48  49  49  48  49  47  48  48  48 
 47  47  46  47  42  43 108 163 168 167 165 166 166 163 166 168 166 
167 166 166 165 165 165 163 164 163 166 165 164 165 162 165 163 165 
162 164 164 163 163 163 163 167 164 164 165 164 164 166 165 165 165 
165 166 164 166 164 165 166 165 165 168 166 166 166 168 168 167 167 
168 168 166 167 167 167 166 167 169 166 169 167 166 167 168 167 167 
167 166 170 168 167 167 168 168 169 168 168 168 168 168 170 167 170 
168 170 170 168 168 170 168 169 168 169 167 168 171 169 171 169 170 
171 169 168 171 168 170 170 171 172 171 170 170 171 170 171 170 171 
170 170 170 171 170 170 169 171 169 169 168 168 169 168 169 171 170 
170 171 170 171 170 169 170 168 168 167 165 166 165 163 162 157 153 
151 144 139 132 130 123 112 103  96  85  76  69  63  60  52  48  45 
 43  39  39  39  39  40  44  45  44  47  46  46  47  46  46  47  46 
 47  47  33  44 123 164 163 164 163 163 164 163 165 165 163 165 164 
165 163 163 164 163 164 163 164 160 163 164 164 161 162 164 162 163 
164 164 164 164 164 168 166 165 166 165 164 164 164 166 165 165 165 
165 166 166 166 168 165 167 168 167 167 167 166 168 168 167 166 167 
167 169 167 169 168 168 168 168 168 166 168 168 167 168 167 169 167 
170 167 170 170 169 168 169 169 170 170 171 169 171 169 171 169 170 
168 170 171 171 169 171 169 170 169 171 171 171 171 170 169 169 168 
170 173 170 172 171 171 172 170 171 172 172 170 170 170 170 170 172 
171 171 171 172 170 168 171 171 170 171 171 169 169 170 169 170 171 
170 171 169 170 170 169 171 170 169 169 170 172 172 168 169 171 170 
170 170 172 170 169 168 166 162 160 156 149 144 140 135 127 121 111 
104  94  84  69  65  59  52  49  46  45  43  42  43  40  44  45  44 
 36  59 132 167 166 167 166 165 166 166 164 165 164 166 165 165 164 
165 163 165 165 164 164 163 163 163 163 163 163 164 164 164 163 164 
164 166 165 166 164 165 166 165 165 166 165 166 165 165 166 168 167 
168 167 168 165 165 168 167 168 166 167 168 168 168 168 169 168 168 
165 168 168 167 167 169 168 168 168 168 168 170 169 170 169 169 169 
170 168 169 170 170 170 171 170 170 168 169 170 171 170 170 171 171 
170 171 170 170 167 169 170 172 170 173 172 172 171 170 171 172 170 
170 172 171 170 172 170 171 172 172 173 171 171 171 170 171 171 171 
171 172 172 171 171 171 170 170 171 171 171 171 171 172 173 172 171 
169 169 170 170 170 171 170 169 170 169 170 169 171 170 170 168 169 
169 169 171 173 171 169 171 172 172 173 170 170 167 169 167 165 162 
159 153 149 146 141 136 130 125 119 111 105  95  91  82  74  69  89 
149 170 167 167 167 167 167 169 165 166 166 167 166 166 166 167 164 
165 165 166 165 163 163 165 166 164 162 163 163 164 164 165 164 164 
164 166 164 164 165 164 165 167 166 166 166 166 166 165 165 167 166 
166 165 165 167 166 167 165 166 166 166 167 166 166 166 166 167 167 
167 167 168 168 168 168 166 167 167 169 169 168 169 167 166 167 167 
170 169 168 169 169 170 172 170 171 171 170 170 171 169 170 169 169 
169 171 170 170 170 171 169 170 171 170 169 170 169 171 170 171 172 
171 171 173 170 172 172 172 173 170 170 171 171 170 172 172 173 170 
171 172 170 171 172 170 171 172 172 169 171 171 172 171 171 170 170 
171 170 170 170 171 169 168 170 169 168 170 169 170 171 171 170 171 
168 169 168 168 169 168 168 170 169 168 166 167 168 168 168 168 166 
167 170 170 168 167 167 166 164 160 161 161 157 154 150 156 165 170 
167 168 166 166 167 167 164 165 164 165 165 165 164 165 163 165 165 
164 164 163 163 163 166 165 163 164 164 165 164 165 166 167 165 167 
166 165 165 166 165 165 168 166 167 167 168 168 167 167 166 169 169 
168 167 167 168 169 168 169 168 168 167 168 168 169 169 169 168 169 
171 169 168 167 169 169 168 170 169 169 169 168 167 169 169 171 168 
170 171 169 170 172 170 171 172 170 170 169 171 171 171 172 171 171 
171 170 169 171 171 170 171 171 168 171 170 173 171 173 172 172 172 
171 170 173 173 173 172 170 170 171 172 171 172 171 172 171 172 172 
171 173 172 171 171 173 172 169 171 172 172 171 172 171 172 172 172 
170 171 171 170 172 171 172 170 171 170 170 172 170 170 170 169 169 
169 170 171 172 169 169 169 169 170 168 168 167 167 167 170 170 168 
168 167 168 168 168 164 168 171 170 171 170 170 171 171 169 167 169 
168 168 167 165 165 166 166 167 167 167 165 165 166 166 166 167 167 
165 165 166 163 165 164 164 162 163 163 163 164 164 165 165 163 163 
164 165 164 163 164 165 166 167 166 168 168 167 166 167 169 168 166 
167 167 169 167 167 165 166 167 167 169 168 168 170 169 170 169 168 
167 168 168 169 167 170 168 168 169 169 168 168 167 170 167 170 170 
168 169 171 170 170 170 169 171 170 170 168 169 171 171 170 169 169 
169 172 171 170 170 172 168 170 170 170 169 171 170 171 172 171 171 
172 171 171 172 172 171 171 169 170 172 172 173 172 173 172 170 170 
169 171 170 171 171 170 171 171 171 170 171 170 171 170 171 173 170 
172 170 172 172 171 169 170 169 169 171 169 170 171 168 169 169 169 
169 171 170 170 169 168 170 168 168 168 168 169 166 169 168 168 168 
168 166 168 166 168 166 165 167 166 166 166 167 167 166 167 167 168 
167 166 165 166 166 167 166 166 166 166 163 166 164 162 163 166 166 
165 164 164 163 165 165 166 166 166 164 165 166 165 165 165 165 166 
165 166 166 167 165 167 167 168 168 167 167 167 168 167 168 167 169 
167 166 167 167 169 168 168 169 167 167 170 170 168 168 169 167 169 
167 169 167 170 168 168 167 168 169 168 168 172 170 171 170 170 170 
171 169 169 170 170 172 170 168 170 171 171 170 170 171 170 171 172 
171 172 171 172 170 169 169 169 170 173 172 171 172 172 172 171 171 
171 172 172 171 170 171 171 172 172 172 170 171 171 172 172 172 174 
172 173 172 171 171 171 172 171 171 171 172 172 169 171 172 172 171 
171 172 173 169 169 170 170 171 169 170 170 169 171 170 170 169 170 
171 171 168 169 170 170 168 168 168 171 168 170 169 168 169 169 167 
168 167 166 167 169 168 167 167 167 167 168 166 167 168 167 167 167 
166 167 168 168 167 167 168 167 166 166 163 163 163 164 165 165 165 
167 163 164 165 164 164 166 163 166 165 165 163 163 165 166 164 164 
168 169 165 168 167 166 166 169 167 167 167 168 168 168 169 167 167 
168 167 169 167 167 169 168 168 168 169 167 171 170 167 167 169 170 
168 168 167 167 168 169 169 168 168 169 168 169 169 171 168 169 169 
169 169 169 170 168 168 170 169 170 171 169 169 170 169 168 170 171 
171 169 172 171 170 170 171 171 171 171 171 170 170 171 173 170 170 
170 171 170 172 171 171 171 172 171 170 169 171 171 170 171 170 172 
172 171 171 172 172 170 170 169 170 170 171 171 168 168 171 167 171 
170 169 169 168 168 169 170 170 169 169 172 169 171 171 170 170 170 
170 172 169 170 169 170 168 168 169 170 168 167 168 168 167 167 167 
167 166 170 167 166 167 167 166 164 164 167 166 164 166 166 165 165 
167 166 164 164 166 164 164 164 165 164 165 162 163 165 164 165 161 
163 165 163 163 162 164 164 163 164 162 163 165 164 165 165 163 164 
165 165 167 166 166 167 165 168 167 166 165 167 167 165 167 167 164 
166 166 166 165 166 166 161 166 167 167 170 173 163 163 164 166 166 
166 166 166 167 169 166 167 168 168 168 168 169 170 170 170 169 170 
171 168 167 169 168 167 169 170 170 172 171 170 170 169 172 168 171 
169 169 168 169 169 170 171 170 170 170 171 170 169 170 170 171 169 
170 171 171 171 170 172 170 169 171 171 170 172 172 170 171 170 170 
172 171 168 170 170 171 169 171 173 171 169 170 171 171 172 169 170 
169 170 170 168 170 169 170 170 169 169 169 168 168 169 168 168 166 
169 168 167 168 168 168 167 168 167 167 166 167 167 167 167 167 167 
166 168 167 168 167 166 166 165 167 166 167 167 167 164 165 166 166 
164 164 164 164 165 165 165 164 164 162 164 164 163 162 161 164 164 
164 164 164 164 166 162 166 165 165 165 165 165 165 166 168 166 167 
167 165 166 167 166 167 166 169 169 168 167 167 166 167 167 168 167 
166 167 167 165 171 167 170 174 177 152 120 141 164 167 169 167 169 
168 169 168 167 169 170 170 170 170 168 170 171 169 169 169 170 170 
170 168 170 171 172 171 170 172 172 169 170 169 171 169 171 170 171 
171 173 171 172 172 170 171 170 171 172 172 172 171 172 170 170 170 
174 173 170 171 171 173 172 173 172 173 173 171 171 170 170 169 171 
172 171 172 172 172 171 168 173 172 171 172 170 170 171 171 170 171 
171 168 171 169 169 169 169 170 171 170 170 170 168 169 169 169 169 
169 170 168 167 169 169 168 169 168 168 167 166 165 168 168 168 167 
170 168 166 165 168 170 169 168 167 168 167 166 165 166 167 169 166 
166 163 166 165 165 164 163 164 165 165 164 164 162 164 163 164 164 
164 162 164 165 165 164 166 164 165 164 166 166 166 166 167 167 168 
166 168 166 168 167 168 168 168 166 165 166 166 168 168 167 166 168 
168 168 167 168 171 176 157  79  36  75 127 157 164 168 169 170 170 
170 171 170 171 170 169 170 168 168 170 168 170 169 170 172 171 171 
172 171 170 171 170 172 172 170 171 170 170 171 171 170 171 171 173 
170 171 171 169 170 171 172 172 170 172 172 171 170 171 172 172 170 
173 174 171 173 175 172 171 171 172 171 171 172 172 171 173 172 172 
171 172 171 170 170 172 170 171 173 171 170 172 171 170 170 170 168 
170 169 169 169 170 168 169 170 171 171 170 169 169 168 169 170 168 
168 170 170 170 168 169 170 168 168 168 169 170 167 169 168 171 168 
167 167 167 167 167 165 165 168 168 167 167 167 168 166 165 165 166 
164 164 163 163 163 166 164 165 163 164 162 164 163 163 165 163 163 
165 164 164 164 165 163 166 165 163 164 166 164 166 165 165 164 165 
165 167 166 166 165 167 167 166 166 167 167 167 168 167 166 166 165 
166 169 173 168 102  30  34  49  65 112 147 164 167 167 168 167 170 
169 169 168 169 169 169 168 170 168 170 168 169 169 168 169 170 169 
169 170 170 172 172 171 172 171 171 171 170 170 171 169 171 168 169 
170 169 170 171 170 172 170 171 170 171 171 171 170 173 172 172 172 
172 172 171 170 171 171 173 172 170 171 171 169 171 170 172 172 172 
171 170 171 172 170 169 170 172 171 171 170 170 169 169 169 169 169 
168 168 170 168 169 170 171 170 170 167 168 169 168 169 167 169 168 
168 168 167 167 167 166 168 168 168 168 168 169 168 167 166 167 168 
167 165 167 166 167 166 166 164 167 167 166 164 166 165 165 166 166 
165 166 163 165 162 163 162 164 162 163 163 164 164 163 165 167 165 
164 166 167 165 166 167 165 165 168 169 168 167 167 165 167 167 168 
168 169 166 167 166 166 166 167 166 167 169 169 168 168 168 168 172 
173 118  36  27  47  48  52  57  93 140 162 165 168 168 171 172 170 
169 171 169 169 171 171 170 172 170 172 171 172 171 172 171 172 173 
173 171 171 171 171 172 172 171 170 171 171 172 172 171 170 172 172 
172 172 168 172 171 173 171 171 171 172 172 172 174 174 173 173 171 
172 171 173 173 174 172 171 173 173 170 172 173 172 173 172 173 173 
172 171 171 173 171 170 171 172 170 172 171 170 171 168 171 170 169 
170 169 169 170 170 169 169 169 169 170 169 170 170 169 167 167 169 
169 169 169 167 169 168 169 169 170 169 169 167 168 167 165 168 169 
169 167 168 167 167 167 166 167 168 168 165 165 167 163 164 164 165 
164 165 164 165 164 164 164 164 162 164 161 163 164 165 165 163 164 
167 165 164 165 164 163 166 166 166 165 166 167 166 165 164 166 168 
167 167 166 166 168 169 166 166 168 168 168 169 166 172 173 136  54 
 29  45  45  47  45  49  55  80 126 157 164 165 166 168 167 169 170 
169 171 168 168 169 169 168 170 168 169 169 170 169 169 169 170 169 
171 171 169 170 171 171 171 171 170 170 170 172 170 171 170 170 170 
170 171 170 173 172 172 170 172 171 170 172 172 172 173 171 172 171 
172 171 171 171 172 172 171 171 172 171 171 171 170 171 171 169 171 
170 171 171 171 171 171 170 170 170 169 171 168 169 168 170 171 169 
170 171 171 170 170 169 168 168 170 169 169 168 169 167 169 168 168 
169 167 170 168 169 169 168 168 168 169 169 167 165 167 167 167 166 
166 167 167 166 167 167 165 165 165 165 165 165 167 165 166 166 164 
165 165 163 163 162 164 162 165 164 165 163 162 162 164 164 167 167 
168 166 164 165 165 167 166 166 169 168 167 167 167 167 167 167 168 
164 165 166 169 168 168 169 169 168 169 169 177 151  77  28  45  48 
 47  44  48  49  49  50  64 112 151 162 168 169 169 170 169 168 170 
169 170 170 171 170 170 169 170 167 170 171 171 170 170 173 173 171 
170 169 170 171 172 171 170 171 171 174 173 172 171 173 172 171 173 
172 172 171 173 172 171 173 171 172 171 172 172 173 173 171 171 173 
173 173 173 171 170 170 171 170 172 171 172 171 172 171 172 171 171 
172 170 170 172 173 173 172 171 173 171 171 171 169 170 170 170 172 
170 169 170 168 171 170 171 170 170 170 170 168 171 167 168 168 168 
170 168 167 168 169 170 168 169 169 167 168 167 167 168 167 166 168 
168 167 167 165 166 167 167 164 164 164 166 166 167 167 166 165 165 
163 164 162 166 164 164 164 164 163 164 163 166 163 168 167 167 164 
165 165 165 168 167 166 167 167 165 167 167 166 166 167 168 166 168 
168 168 166 167 168 168 168 167 173 162  93  29  41  48  45  48  50 
 46  46  47  47  51  59  98 143 160 166 168 167 170 168 169 168 169 
169 169 170 169 171 172 169 170 169 169 170 170 171 169 170 172 172 
172 171 171 171 173 171 169 170 171 171 171 172 170 169 171 173 172 
170 170 171 173 172 172 173 171 171 171 172 172 171 172 173 172 172 
174 174 175 173 176 174 170 169 170 172 172 170 171 170 169 170 171 
171 170 170 172 170 170 171 171 170 171 170 169 169 169 169 168 168 
169 170 170 168 170 172 169 171 171 166 169 167 169 166 166 168 168 
167 167 167 167 165 166 168 166 165 167 166 167 166 167 167 167 165 
166 164 164 167 166 164 165 166 167 167 166 166 166 165 166 162 165 
163 163 163 163 163 165 165 163 163 165 163 161 166 165 165 164 165 
165 167 166 163 165 165 167 165 166 166 166 166 164 166 165 166 161 
167 166 163 166 166 171 171 114  39  33  44  47  44  46  45  44  45 
 47  47  47  49  48  74 126 158 163 166 165 166 167 168 164 166 167 
166 169 168 167 169 168 169 168 169 171 171 170 170 170 171 171 170 
170 170 171 171 170 171 171 171 172 171 170 170 171 171 171 173 171 
171 171 172 171 172 171 172 171 170 171 170 169 170 176 177 174 166 
161 152 144 135 118 134 164 167 170 171 169 170 171 169 170 169 168 
171 171 170 169 169 168 169 171 169 168 170 170 169 169 170 171 169 
167 169 170 170 169 166 166 168 168 166 169 167 166 167 165 165 167 
168 167 167 167 168 167 164 165 165 166 167 167 165 165 164 166 165 
164 164 166 164 165 164 164 163 165 162 162 162 163 163 163 161 164 
166 165 163 163 164 165 163 167 165 164 165 164 164 166 162 163 166 
166 166 168 167 166 165 168 166 167 168 166 165 165 165 172 165 167 
167 168 173 173 134  57  26  45  51  48  47  47  47  46  44  46  45 
 45  47  47  51  71 112 150 164 167 169 168 165 171 170 169 171 170 
170 169 169 170 170 168 168 169 170 171 170 171 171 170 170 171 171 
170 171 172 172 172 171 172 172 172 172 173 172 171 172 173 173 171 
169 171 173 170 171 172 172 171 170 172 171 174 154 112  86  69  51 
 46  32  20  89 160 173 170 170 170 170 171 170 171 171 171 171 171 
170 171 171 172 170 169 168 169 168 169 168 169 170 168 169 170 170 
169 167 168 169 169 168 169 169 167 165 167 168 165 165 166 167 168 
167 169 169 168 166 167 166 166 166 166 166 166 164 168 163 165 165 
166 165 164 164 168 164 163 165 166 164 164 163 164 163 163 164 163 
162 162 164 164 164 166 166 166 166 165 165 166 167 167 166 166 165 
166 166 166 168 168 166 170 167 168 168 166 168 165 166 168 169 170 
175 152  72  26  42  47  48  47  48  46  45  46  44  47  47  48  47 
 47  46  48  55  93 143 161 167 168 169 168 171 170 169 169 168 170 
170 170 170 170 172 172 171 171 171 171 171 171 169 170 172 172 171 
172 171 173 170 171 171 171 171 172 173 172 173 174 175 173 172 171 
173 173 173 172 171 173 172 173 170 174 130  54  36  38  38  43  40 
 35  92 160 169 170 172 171 172 171 170 170 168 169 170 172 170 170 
170 172 171 171 169 171 169 170 170 171 172 171 169 170 169 171 170 
169 170 168 169 167 169 169 169 169 169 169 169 169 168 169 169 170 
169 169 166 167 165 166 168 167 168 167 166 166 164 166 163 165 165 
163 164 166 163 163 165 164 165 166 164 166 163 163 164 164 165 164 
164 164 163 163 164 164 166 165 166 165 166 165 164 166 166 166 166 
168 165 167 166 167 166 166 166 167 167 169 169 168 169 175 164  97 
 33  43  51  49  44  45  46  44  44  46  45  46  46  46  45  46  45 
 47  47  52  82 130 157 167 166 168 169 171 168 169 168 168 169 171 
170 170 170 170 169 170 169 170 171 172 171 171 171 171 171 172 171 
173 171 172 172 170 172 172 172 173 171 171 173 173 171 171 171 171 
172 172 171 171 171 171 172 174 141  65  48  51  49  50  49  41  80 
152 169 170 169 171 170 171 171 169 170 169 170 172 171 172 171 171 
170 172 169 169 171 169 169 168 169 170 168 169 169 170 172 170 170 
167 167 168 171 170 167 167 167 169 167 167 167 167 168 168 168 167 
166 168 167 167 168 166 166 165 164 167 165 166 166 165 166 166 166 
165 163 163 164 161 164 164 165 165 164 164 165 165 165 164 164 164 
165 165 166 165 166 166 167 167 166 166 165 168 167 167 167 168 166 
169 168 169 167 167 167 169 169 167 168 168 173 171 118  40  36  46 
 46  48  46  45  46  44  45  47  45  46  45  44  44  45  42  45  47 
 49  50  69 115 153 163 166 165 170 170 169 170 170 170 172 170 172 
171 171 169 171 171 171 171 171 171 172 173 172 171 172 171 172 171 
172 173 171 173 173 173 173 172 172 174 173 172 173 173 173 173 173 
173 172 173 172 171 174 148  78  51  52  50  48  48  43  75 151 172 
173 172 171 172 171 171 172 171 172 171 171 169 171 171 171 170 172 
171 171 173 171 171 170 170 170 170 171 170 169 169 170 170 168 169 
170 169 170 167 168 167 170 169 169 169 168 169 169 169 168 166 168 
167 167 168 166 167 167 166 165 167 168 166 166 168 165 165 167 165 
165 166 164 165 166 163 163 164 164 164 164 164 165 165 165 164 166 
166 166 165 167 166 165 165 167 166 167 165 165 166 166 167 167 166 
168 165 168 167 167 165 167 169 173 173 137  55  30  44  49  43  45 
 47  44  46  44  45  47  45  45  45  45  45  45  46  46  45  48  49 
 48  58  95 142 164 168 167 171 170 170 169 169 171 169 171 169 170 
170 172 171 170 170 170 170 171 172 171 171 172 172 172 171 171 172 
171 170 171 172 172 171 172 173 172 171 173 173 173 173 173 172 173 
170 172 173 172 153  84  50  51  49  50  50  41  65 138 169 167 170 
172 170 171 171 170 171 169 170 171 169 169 170 171 171 171 168 170 
169 170 169 170 171 168 169 170 170 170 169 171 170 171 168 171 168 
169 167 171 169 166 168 168 168 167 166 167 166 166 167 168 165 166 
166 166 166 165 167 166 167 164 164 165 164 165 165 165 164 165 165 
165 166 165 162 163 163 165 164 164 164 166 165 165 164 166 166 167 
166 168 165 164 163 165 165 166 166 166 168 167 166 169 167 167 167 
168 167 169 167 169 169 172 155  80  30  44  47  51  47  47  46  47 
 46  45  46  47  45  46  45  46  45  44  46  44  45  47  44  47  49 
 48  80 129 158 165 169 168 170 169 169 169 169 171 170 171 171 170 
170 170 171 172 172 172 171 171 171 172 173 173 171 172 172 170 170 
173 173 172 172 172 172 172 170 174 173 172 171 173 173 172 171 174 
174 174 160  95  51  53  50  50  49  43  55 130 171 170 170 171 170 
172 172 172 171 171 170 171 171 171 171 171 171 170 170 172 170 170 
170 170 172 170 169 169 171 171 170 170 168 169 169 171 169 171 170 
170 167 168 168 169 168 168 167 168 168 168 166 168 167 168 166 167 
166 168 165 166 163 165 163 164 167 165 167 165 166 167 163 164 165 
166 166 165 162 164 162 163 162 164 164 163 163 164 164 164 165 166 
165 166 166 166 164 165 165 164 166 164 165 166 167 166 167 167 167 
167 167 168 168 166 150  84  53  51  49  48  47  47  47  47  46  46 
 43  45  44  45  42  44  45  45  44  44  45  46  47  48  44  49  49 
 65 113 154 165 168 169 170 167 169 169 171 169 168 170 170 172 172 
171 170 170 171 172 171 170 171 170 171 170 173 170 170 172 172 170 
171 172 172 172 173 172 172 170 173 173 173 173 173 171 172 173 171 
163 100  51  53  49  49  50  44  49 121 170 169 170 172 169 171 170 
169 170 170 170 170 170 170 170 170 170 171 169 170 171 168 170 169 
169 171 169 169 170 168 169 170 170 170 169 169 167 168 168 169 168 
169 168 168 169 166 166 167 168 168 165 166 164 166 164 166 163 165 
163 167 165 167 165 167 165 165 164 164 165 165 164 165 162 165 165 
164 163 162 163 162 163 164 163 164 164 165 164 164 166 166 164 164 
166 164 165 165 165 167 164 167 165 166 164 165 163 166 166 166 166 
166 165 166 163 149 115  68  53  46  46  44  45  46  44  44  44  42 
 42  43  43  40  41  41  44  44  45  44  44  44  46  45  46  46  57 
 95 142 160 166 167 168 165 170 170 166 169 171 169 169 170 171 172 
170 171 171 170 171 171 170 172 171 171 169 171 173 172 172 174 172 
171 171 170 169 170 174 174 171 169 169 171 170 170 170 168 163 109 
 50  50  48  45  46  42  45 110 165 166 170 170 170 170 171 169 171 
173 170 168 170 169 168 170 168 170 169 169 169 167 168 167 168 168 
167 169 168 170 168 167 167 170 168 168 168 166 165 166 166 168 167 
164 166 165 164 165 165 166 165 164 166 163 164 162 164 164 165 165 
166 165 164 164 167 169 164 163 165 164 161 163 163 163 163 163 164 
164 164 163 164 164 164 164 164 165 166 165 167 166 166 167 164 167 
167 167 166 166 166 167 165 168 167 167 167 166 165 167 166 170 168 
168 171 168 159 135  76  59  50  47  50  46  46  47  43  44  45  46 
 44  44  46  46  43  45  46  47  46  46  45  44  46  54  49  48  82 
131 158 167 166 171 170 172 172 170 171 171 171 172 170 172 171 171 
169 168 168 172 172 172 171 172 173 172 171 173 172 171 171 173 174 
173 170 173 172 172 170 174 173 171 172 173 169 174 173 118  57  50 
 45  50  51  47  43 105 165 169 168 172 172 171 170 171 172 170 170 
170 171 171 170 170 169 170 170 171 170 171 172 171 171 169 169 171 
169 169 169 171 170 169 166 168 169 168 169 170 168 168 166 169 167 
168 169 168 165 168 167 173 165 167 166 168 166 164 164 166 166 164 
166 166 165 166 164 164 166 165 164 166 164 163 165 164 164 165 164 
164 164 164 166 166 164 165 167 166 167 166 167 167 165 168 166 167 
166 168 168 168 166 167 166 166 168 167 167 169 168 169 168 168 167 
167 167 165 144  95  59  54  50  49  46  47  44  46  45  45  44  46 
 46  45  43  45  45  45  46  46  47  47  46  47  47  47  50  66 114 
154 164 166 168 171 170 170 170 171 170 169 170 171 170 172 173 171 
172 173 171 172 172 172 173 171 173 174 172 172 173 173 172 171 173 
174 172 174 172 172 172 172 171 172 172 170 171 122  57  51  52  50 
 46  48  42  94 160 172 170 171 170 172 168 169 170 171 169 171 171 
173 170 169 170 171 172 171 171 170 171 172 170 170 169 171 167 169 
168 170 170 170 169 169 169 167 168 168 169 171 167 170 167 167 168 
169 171 175 169 145 129 151 165 164 165 168 166 166 166 167 165 166 
168 166 165 166 167 166 166 166 165 164 163 163 162 164 162 163 164 
164 165 165 163 163 165 165 166 166 166 164 165 166 166 168 166 168 
165 167 167 166 165 167 167 167 167 166 165 167 166 167 167 166 168 
167 162 152 110  66  54  50  49  46  44  46  44  44  45  44  46  44 
 45  45  44  43  44  44  46  45  47  48  46  49  48  48  59  98 148 
163 169 170 170 169 171 170 167 169 171 169 173 170 170 171 172 172 
170 172 172 170 172 172 173 173 173 174 173 171 171 173 170 172 173 
173 173 171 173 173 170 173 170 171 171 130  60  49  50  51  50  49 
 42  88 160 171 169 171 170 173 170 172 170 170 171 172 169 171 170 
169 170 170 170 171 169 170 169 168 170 169 168 168 168 171 169 169 
168 170 169 169 168 168 168 166 165 168 167 169 169 169 172 173 168 
147 103  55  45 109 158 164 164 167 166 167 166 167 166 166 166 167 
164 166 167 166 165 161 163 166 165 166 164 165 164 164 163 164 166 
166 165 165 165 166 166 168 167 166 166 165 165 166 165 166 164 167 
167 167 167 169 168 168 168 167 165 167 169 169 169 168 170 167 166 
168 161 129  76  55  51  48  47  48  46  46  47  48  48  47  44  44 
 47  46  45  44  46  45  47  47  46  46  46  47  48  52  78 130 159 
166 171 169 171 171 169 168 172 171 172 171 173 171 173 173 174 174 
174 173 173 173 172 174 173 172 173 173 173 174 172 172 172 172 173 
171 171 172 171 173 172 172 174 145  70  52  55  51  48  47  38  77 
153 173 172 171 171 173 172 172 170 171 169 172 170 173 171 171 171 
173 170 170 172 172 171 172 170 172 170 170 169 170 169 170 170 169 
168 169 166 168 168 169 168 169 167 169 172 173 170 149 106  53  30 
 35  44  82 138 164 167 168 166 168 167 168 167 167 166 167 166 167 
166 167 168 166 167 168 163 165 164 164 163 163 162 163 164 165 165 
166 166 166 165 166 165 164 165 166 166 166 167 166 167 166 165 168 
166 168 167 167 167 169 169 168 168 167 166 168 167 169 168 167 166 
164 142  93  61  53  48  48  47  46  45  46  45  45  44  44  45  46 
 44  45  45  45  44  46  47  43  46  45  47  51  49  68 115 151 167 
169 167 168 168 169 168 168 171 172 170 172 171 171 172 171 172 171 
172 170 172 173 173 172 172 174 173 173 171 173 173 171 172 174 174 
173 170 174 172 173 175 151  76  42  42  43  39  35  31  72 146 172 
170 171 172 169 169 171 171 170 170 172 169 171 172 171 170 170 169 
170 169 171 171 170 171 170 171 170 169 169 169 170 171 170 169 171 
171 172 169 170 170 172 172 174 173 157 111  55  31  30  41  47  50 
 59 107 153 166 162 164 165 166 166 163 165 166 164 165 167 166 166 
166 165 165 166 163 164 162 164 163 164 165 164 165 164 164 165 165 
166 167 167 167 168 166 168 167 167 166 165 167 167 167 169 168 168 
168 168 167 168 165 169 167 168 167 170 169 169 167 166 165 165 164 
153 111  64  50  48  47  47  45  46  46  46  47  47  46  46  45  46 
 45  45  44  43  45  47  43  43  45  44  47  48  56  95 145 163 166 
169 170 171 170 171 171 172 170 170 171 172 173 173 174 172 174 174 
170 171 173 172 172 173 172 172 173 174 173 173 174 173 172 173 172 
171 171 174 171 150  70  33  49  59  75  97 112 133 164 176 172 172 
173 173 173 173 172 174 172 174 171 172 173 172 172 172 173 171 172 
171 173 172 172 172 170 171 170 171 171 170 169 170 170 171 171 170 
169 170 172 172 172 156 115  62  29  30  40  46  45  47  46  48  74 
132 161 164 165 167 166 165 164 165 166 167 165 166 165 164 164 164 
164 163 163 164 163 165 162 163 164 163 166 164 163 164 163 163 165 
165 164 166 165 166 164 167 166 168 165 166 168 167 167 167 167 167 
169 167 169 169 168 168 168 169 167 171 167 168 170 165 165 165 155 
128  72  58  50  46  46  47  46  46  46  46  46  44  46  45  45  46 
 44  48  43  43  43  45  46  44  45  47  52  54  82 132 162 168 168 
170 170 170 171 172 170 172 171 172 170 171 173 170 171 169 171 172 
173 172 171 172 172 171 172 174 173 172 175 173 174 173 172 172 175 
173 173 164 146 147 158 165 172 176 179 176 177 176 172 173 173 172 
171 172 171 172 171 174 170 172 173 171 171 170 170 169 170 169 170 
168 169 169 169 172 170 169 170 168 167 170 169 169 168 168 173 175 
172 161 121  67  30  29  40  46  47  46  42  46  46  48  54 100 150 
162 165 164 165 166 164 164 165 166 165 163 163 163 163 164 163 164 
163 164 163 163 164 165 162 162 165 165 163 163 166 164 164 165 164 
165 166 166 165 167 165 167 166 165 167 165 165 168 166 167 168 165 
167 168 165 166 167 168 168 168 167 165 165 167 166 165 165 161 140 
 86  56  50  47  44  45  45  43  42  44  46  45  42  43  44  46  44 
 42  43  44  45  46  44  43  41  46  43  47  63 109 150 164 165 168 
168 169 169 168 169 168 169 168 171 169 170 169 171 172 170 172 171 
171 170 170 170 173 171 172 172 170 172 171 171 171 170 171 172 171 
172 172 174 178 175 173 173 174 172 171 172 171 171 172 172 171 170 
169 172 168 169 170 170 169 167 169 169 167 167 169 171 170 168 169 
168 167 166 167 166 166 166 167 166 168 163 170 170 174 161 129  75 
 32  25  36  42  44  43  44  44  41  42  43  44  46  67 123 158 163 
162 163 165 160 164 164 163 165 167 164 164 164 163 165 163 164 163 
161 164 164 164 166 166 165 164 163 164 166 164 166 166 165 166 166 
167 164 165 166 167 165 167 166 167 166 168 167 167 169 168 166 167 
167 167 168 168 169 168 166 168 168 169 166 166 168 168 161 154 108 
 65  52  49  47  47  43  48  44  44  47  47  45  46  42  45  44  45 
 46  46  43  44  43  51  45  48  47  46  58  97 144 166 168 168 169 
172 171 172 168 170 170 171 170 170 169 171 171 172 173 171 172 172 
171 173 172 171 172 172 170 172 172 172 172 173 174 173 173 173 171 
171 170 173 173 172 173 172 170 171 172 174 172 171 171 171 170 171 
169 171 170 169 172 170 169 169 170 170 170 169 168 167 169 170 167 
173 169 171 169 170 170 170 170 178 175 168 141  87  39  25  33  42 
 45  44  45  45  47  47  44  47  45  44  45  50  94 147 162 169 167 
165 164 165 166 164 162 165 162 164 166 165 164 163 164 164 162 165 
164 164 167 165 163 164 165 164 167 167 165 165 167 166 165 167 166 
167 167 168 167 166 167 168 167 168 169 167 169 169 167 167 167 168 
169 168 169 168 167 170 168 170 169 169 170 168 167 168 159 124  74 
 53  49  48  46  46  45  47  46  46  47  45  45  46  45  46  46  47 
 44  45  48  45  46  48  46  46  48  51  81 131 159 168 169 170 171 
170 172 173 172 172 172 171 171 173 173 172 173 174 172 174 173 171 
172 172 173 173 172 174 173 174 171 172 172 171 172 171 171 172 173 
173 172 174 175 172 172 172 171 173 173 173 173 173 172 172 169 170 
170 170 173 170 167 169 169 171 171 171 171 169 169 169 169 168 169 
169 170 170 172 172 176 171 147  99  43  27  34  42  43  45  45  46 
 45  44  45  45  46  47  46  45  46  47  63 119 157 164 165 166 166 
164 166 166 165 167 162 163 164 164 164 164 166 166 163 163 165 165 
165 164 163 164 165 165 165 166 164 164 166 165 164 168 167 168 168 
168 166 168 167 169 168 169 171 168 167 167 167 167 168 169 168 167 
168 168 167 169 168 169 168 169 169 169 167 169 165 163 140  88  58 
 52  47  45  44  45  46  44  44  45  46  46  45  46  44  45  45  45 
 44  45  47  45  45  46  48  48  49  68 112 152 166 163 169 171 170 
170 169 170 171 171 171 171 170 170 170 172 171 171 170 172 169 171 
172 171 172 173 173 173 170 172 171 172 173 171 171 171 171 174 170 
170 173 171 170 172 172 173 171 172 171 170 171 170 169 171 171 170 
169 169 171 171 169 170 169 170 170 170 169 169 168 172 168 171 170 
171 176 177 159 114  53  27  32  38  44  46  45  45  43  46  44  41 
 44  44  45  45  46  47  45  46  47  80 141 161 165 167 166 164 167 
165 163 166 163 164 163 163 164 164 163 165 164 165 165 165 165 166 
166 164 166 167 166 168 166 167 168 167 167 166 167 170 166 166 167 
169 169 169 169 167 169 168 168 168 167 167 168 170 168 168 167 167 
168 168 168 167 168 169 169 168 168 168 167 168 167 152 104  66  52 
 49  48  45  43  44  46  45  46  47  45  43  46  45  44  47  46  47 
 45  46  47  47  45  47  44  48  55  91 141 164 171 170 169 171 171 
172 170 171 171 171 172 172 171 172 173 172 171 172 170 172 174 172 
173 174 174 174 172 174 172 172 171 171 171 173 173 173 170 170 172 
172 174 172 171 171 171 173 171 170 173 171 171 172 172 172 170 171 
172 169 171 170 170 171 170 170 171 170 169 171 173 172 178 176 160 
123  58  24  25  39  42  43  47  44  43  43  45  44  43  45  43  45 
 46  46  44  47  47  46  47  56 110 157 163 165 166 165 167 165 163 
165 165 166 165 165 165 164 164 165 162 164 163 163 165 165 164 166 
164 165 166 169 165 165 166 166 166 167 167 168 166 166 166 167 168 
167 167 165 165 166 166 168 169 167 166 168 167 169 168 169 168 168 
171 168 168 168 168 167 166 170 169 168 168 167 158 123  76  55  46 
 47  44  45  46  47  45  46  47  45  46  44  46  47  44  46  46  46 
 45  45  46  46  45  47  47  49  76 126 158 166 169 170 169 171 169 
169 171 172 173 172 171 172 172 172 173 169 171 172 173 171 172 173 
172 172 171 174 172 173 171 172 172 171 170 173 172 171 172 171 171 
172 171 171 172 172 169 170 172 169 172 171 169 169 170 171 169 171 
170 169 169 170 168 168 170 170 168 169 172 176 164 130  73  27  24 
 35  43  45  45  44  45  44  45  46  40  43  45  46  45  44  45  48 
 44  45  44  43  48  49  81 140 160 163 164 165 166 163 164 164 164 
164 164 165 165 163 163 164 163 165 164 164 165 164 163 168 165 167 
165 166 167 166 164 167 166 166 167 168 165 167 168 165 167 167 168 
168 168 168 167 168 166 168 169 169 167 168 167 168 168 168 169 168 
168 169 168 169 167 168 169 167 166 166 168 164 134  89  59  51  49 
 47  46  45  45  45  49  48  46  44  46  45  45  46  46  45  46  46 
 47  48  44  48  48  47  47  67 114 154 165 170 170 171 171 171 171 
172 170 173 173 173 174 173 173 172 172 173 173 172 172 173 173 173 
170 171 172 173 171 172 172 171 171 172 174 172 171 173 173 170 171 
172 172 172 170 172 172 170 170 172 170 169 169 171 169 171 169 170 
170 171 170 170 169 170 174 176 170 141  86  34  24  35  44  45  44 
 44  44  45  44  46  43  45  44  44  42  45  44  43  44  46  44  46 
 46  46  47  47  57 111 158 166 162 164 165 164 164 164 164 164 165 
166 166 165 165 165 162 163 165 165 167 166 164 166 165 167 165 166 
164 164 165 167 166 166 165 167 165 166 166 167 167 168 166 168 168 
168 167 168 168 168 168 165 167 168 167 168 167 169 168 167 169 169 
168 168 169 169 169 169 168 168 169 167 165 149 103  61  53  49  43 
 46  46  46  46  46  46  46  46  46  44  46  44  45  45  46  45  45 
 46  46  45  45  48  49  57  94 144 162 170 169 169 168 171 172 170 
170 170 171 171 170 171 171 172 172 172 171 171 172 170 170 173 171 
172 172 171 171 173 174 172 171 172 171 171 171 171 172 171 172 172 
172 171 171 170 172 171 171 170 172 172 171 169 172 170 171 170 169 
170 171 172 175 171 149  99  42  25  33  42  45  47  46  47  46  44 
 46  43  41  42  43  44  42  44  44  43  43  45  45  43  46  46  44 
 47  47  50  81 137 160 164 164 166 165 163 166 164 165 164 165 163 
164 165 165 163 165 163 163 165 165 164 165 163 165 165 165 164 163 
166 165 165 166 164 167 165 166 166 167 165 167 165 166 168 165 164 
167 167 167 168 166 168 167 165 168 167 165 170 167 168 167 166 167 
170 168 168 169 169 169 167 169 166 160 157 122  72  51  49  47  44 
 44  44  43  44  41  43  44  43  43  45  44  43  43  43  46  46  45 
 46  45  43  44  46  51  76 125 158 166 165 168 168 167 169 168 171 
170 169 171 170 171 171 169 169 170 169 172 172 172 170 171 172 172 
171 172 168 171 172 172 171 169 171 170 171 172 170 171 168 168 170 
170 169 170 168 167 169 168 166 166 166 167 166 165 167 167 171 172 
170 155 110  48  20  29  40  42  44  44  43  42  44  43  44  41  41 
 44  42  42  45  45  44  44  42  41  41  43  43  42  42  44  43  44 
 43  49 105 150 158 162 165 164 165 164 163 164 164 163 163 162 164 
163 162 164 164 164 165 166 164 164 164 165 164 166 167 166 167 166 
166 166 165 166 165 166 166 166 164 167 166 165 167 168 167 168 165 
170 168 168 170 168 169 168 165 165 167 168 168 169 167 167 167 166 
168 168 168 168 168 168 166 169 167 162 136  88  57  52  47  52  48 
 47  48  47  46  46  44  46  45  45  45  47  45  47  43  46  44  44 
 47  47  45  48  49  69 111 152 168 170 170 171 171 172 171 171 171 
173 172 172 170 172 171 172 170 172 173 170 172 172 171 173 172 172 
171 171 170 172 171 170 171 172 171 170 169 172 171 172 172 171 170 
170 167 174 171 168 171 171 172 169 167 173 171 175 177 163 123  64 
 25  29  40  46  45  47  48  48  45  46  45  44  43  44  44  45  43 
 45  45  44  43  43  44  43  42  46  44  43  47  45  47  45  40  34 
 68 136 162 164 162 162 163 165 164 164 163 164 166 164 163 163 163 
165 164 164 165 166 165 165 165 165 165 165 165 166 166 166 167 166 
165 166 166 168 167 166 168 169 168 167 167 168 168 168 165 167 168 
168 168 168 166 167 168 169 167 170 169 170 169 169 167 168 168 169 
167 169 169 168 168 167 168 169 166 148 105  64  54  47  46  46  45 
 45  46  45  45  47  45  45  46  47  45  45  46  48  44  45  47  45 
 45  47  48  49  57  89 139 162 166 169 171 174 171 171 171 172 172 
172 171 172 172 172 171 173 173 173 173 174 171 173 172 171 173 173 
171 172 172 172 172 174 173 171 173 172 169 170 170 171 171 171 171 
170 170 171 170 169 168 171 172 175 176 166 134  75  32  30  37  47 
 47  45  45  47  44  45  42  43  43  45  43  44  44  44  46  45  43 
 45  45  42  43  44  42  42  45  46  43  43  38  26  17  46 105 152 
162 163 164 168 165 166 163 165 165 164 166 165 164 163 162 163 163 
163 163 164 164 164 162 164 166 165 166 167 166 165 165 165 164 164 
163 165 167 167 167 165 165 165 166 167 167 168 167 168 168 168 168 
167 166 168 167 168 168 169 168 167 168 168 167 168 168 168 169 170 
170 169 170 169 168 168 170 167 159 124  70  56  49  47  45  47  44 
 45  44  45  44  44  46  44  46  46  43  46  45  45  45  46  47  45 
 44  49  44  47  71 122 159 168 168 170 171 170 170 171 170 171 171 
171 172 173 172 172 171 174 172 173 171 172 170 170 172 172 172 172 
170 172 170 172 171 171 169 169 169 170 169 169 170 170 168 172 170 
171 173 171 173 175 177 170 141  89  34  22  35  43  43  46  44  44 
 46  45  43  46  43  43  45  46  45  45  43  44  42  43  42  43  45 
 44  45  44  42  45  42  43  37  28  20  33  88 137 163 173 166 165 
165 166 164 164 164 164 165 162 164 164 163 164 162 164 165 165 165 
165 165 165 164 164 165 164 165 166 165 166 165 167 168 168 166 167 
168 167 167 166 167 167 167 169 168 168 167 169 169 168 168 169 168 
168 168 169 170 169 169 167 168 167 167 168 167 169 169 171 169 169 
168 169 170 170 170 166 167 167 139  87  60  54  48  45  45  47  45 
 45  44  45  45  44  46  45  44  44  46  48  46  46  46  45  45  47 
 48  49  44  43  92 152 169 169 171 170 171 172 172 171 171 173 172 
173 173 173 173 173 172 173 172 172 171 172 173 172 173 174 172 173 
171 173 172 173 172 172 172 171 171 170 171 171 171 171 172 172 172 
174 179 171 149  99  42  21  32  44  44  43  43  44  46  45  45  43 
 43  44  42  43  46  43  42  43  43  44  44  44  42  44  45  46  47 
 46  45  44  39  30  19  32  82 134 163 171 169 166 166 167 165 164 
164 164 164 164 165 165 165 165 164 163 162 164 165 164 163 164 164 
165 165 164 164 164 166 167 166 164 166 166 166 166 165 166 166 167 
165 166 167 167 167 168 168 167 167 167 168 168 168 168 167 167 166 
166 167 167 167 168 169 169 167 168 169 169 169 169 169 169 167 170 
170 169 169 168 169 167 165 150 105  62  50  49  49  46  46  47  45 
 46  43  44  45  42  43  44  45  44  44  45  44  43  44  44  46  45 
 33  16  68 150 168 169 170 171 172 170 172 169 170 172 170 169 170 
171 172 172 170 172 171 172 170 171 172 172 169 171 171 171 170 172 
171 171 171 170 170 170 173 171 172 170 168 169 169 173 174 176 154 
109  46  23  33  43  44  44  45  44  43  42  43  44  44  45  43  43 
 44  44  45  43  44  45  45  45  44  44  43  43  44  44  45  47  42 
 32  19  24  68 126 159 165 167 165 165 164 165 164 163 165 163 162 
162 163 162 164 163 164 162 165 163 165 165 164 163 164 165 166 162 
165 167 165 164 165 168 168 166 167 166 167 167 168 165 166 167 168 
168 169 169 168 168 168 167 168 166 169 169 166 168 168 168 169 169 
170 170 170 169 168 167 168 168 169 169 168 169 170 170 169 168 171 
170 169 169 169 167 169 161 124  73  56  50  47  45  47  47  47  43 
 44  45  44  45  45  44  45  46  46  45  47  45  45  46  41  23  40 
123 168 169 172 170 171 172 170 172 170 168 168 171 170 172 173 171 
171 170 173 172 172 171 171 171 171 170 173 172 171 172 172 172 171 
170 171 171 170 172 170 171 171 172 173 175 177 161 121  61  21  27 
 42  44  48  45  45  44  43  44  44  42  43  42  46  44  44  44  44 
 43  44  46  44  43  42  42  44  44  44  46  44  41  38  22  23  59 
118 156 167 167 167 164 167 165 166 165 165 167 163 165 164 164 165 
164 164 163 165 164 165 162 163 164 164 163 164 164 163 163 164 165 
166 167 167 166 165 165 166 165 167 166 168 164 165 167 167 166 167 
168 166 167 168 166 166 168 169 167 169 167 169 168 169 169 168 168 
167 168 168 168 169 168 170 171 169 170 169 169 168 168 168 171 169 
169 170 167 169 166 165 138  83  59  51  47  47  46  46  46  46  46 
 44  46  45  45  46  45  45  44  45  46  45  43  32  21  81 161 173 
171 173 171 170 171 171 171 171 169 170 171 171 172 172 173 171 169 
173 171 171 171 171 171 171 171 171 171 169 171 170 171 171 170 172 
171 170 171 170 171 172 177 177 167 129  70  26  25  38  43  48  46 
 43  44  45  46  45  41  43  45  45  42  44  43  41  41  46  43  45 
 45  44  45  44  42  43  43  45  44  35  27  19  45 105 150 167 169 
166 165 165 168 163 163 166 166 164 165 167 166 165 165 164 165 166 
166 163 163 165 162 163 164 162 163 163 164 162 163 165 164 168 163 
164 164 165 166 163 166 164 164 165 164 164 164 165 167 166 165 166 
166 167 166 167 167 167 168 167 167 168 167 165 167 168 166 169 166 
167 166 167 168 169 169 168 167 167 167 169 168 167 168 168 166 167 
169 165 167 168 163 147  99  59  49  43  45  44  42  44  45  45  44 
 44  42  43  43  43  45  44  42  42  37  18  46 134 170 171 169 168 
171 169 170 168 170 171 169 170 170 169 171 170 171 171 169 172 170 
170 173 172 170 170 170 166 170 169 168 169 168 170 168 165 172 170 
168 168 172 174 167 137  82  31  19  32  39  42  44  43  44  44  43 
 44  43  43  40  41  43  44  42  41  41  41  43  40  41  41  43  45 
 43  43  44  42  41  35  23  15  41  96 145 163 170 166 164 163 164 
165 165 165 166 164 165 166 164 163 163 162 164 162 161 162 160 161 
163 164 160 162 163 162 163 165 165 165 164 166 163 165 164 166 165 
165 164 164 166 166 165 165 166 166 163 165 167 168 168 169 166 164 
166 167 167 166 167 169 168 168 166 168 167 168 168 168 168 167 168 
170 168 168 168 169 170 169 167 169 168 168 169 170 169 169 166 174 
169 168 171 166 153 122  66  57  50  47  46  47  44  45  44  47  46 
 45  46  46  44  45  45  45  28  28 101 163 171 170 168 172 171 171 
169 171 171 169 166 170 171 170 172 171 172 170 170 172 170 170 170 
170 169 171 169 173 170 170 171 171 172 171 166 173 170 172 177 178 
171 151  90  39  19  34  44  46  46  43  46  46  45  46  43  46  45 
 46  43  44  43  43  42  43  45  46  40  45  46  43  46  46  48  44 
 43  41  27  16  34  88 136 163 171 171 165 164 166 168 166 165 165 
165 165 166 164 167 165 165 163 165 167 165 163 163 163 164 163 164 
163 165 164 163 163 163 163 163 164 166 164 165 166 167 166 166 165 
166 166 166 165 166 166 165 165 167 166 168 166 168 167 167 167 168 
168 167 168 167 167 169 167 167 168 168 170 167 168 167 167 169 169 
169 168 169 170 170 169 170 169 168 169 169 168 168 167 169 168 169 
170 169 168 162 138  83  56  51  45  45  47  47  46  46  46  43  44 
 45  44  46  46  39  18  58 142 171 171 169 171 172 171 172 171 172 
171 172 169 171 172 170 171 169 170 170 172 173 170 171 171 172 171 
171 170 170 170 171 170 170 171 172 168 170 174 175 177 158 111  49 
 22  29  43  47  44  43  46  45  43  46  43  44  43  46  46  45  44 
 46  43  44  44  43  43  41  46  44  43  45  44  44  42  39  31  17 
 27  75 129 162 169 171 168 166 164 168 166 166 164 164 166 166 167 
165 166 165 165 166 165 165 163 163 164 163 163 164 163 164 160 162 
160 162 164 165 162 164 163 165 165 166 166 165 164 166 164 165 164 
165 165 166 166 165 165 168 167 167 165 166 167 167 165 167 168 166 
166 167 168 168 167 166 168 167 169 166 166 167 168 169 168 170 168 
169 170 170 169 170 170 169 169 169 170 170 166 171 168 169 167 165 
168 165 166 152  99  61  50  49  46  44  43  42  45  44  46  45  44 
 44  40  25  26 107 167 168 167 170 169 171 168 169 172 170 172 170 
170 170 170 170 173 171 171 171 169 171 171 171 170 169 169 170 168 
170 169 171 171 170 170 171 170 176 176 163 120  58  20  28  39  45 
 46  45  46  45  43  42  42  44  42  42  43  44  45  44  43  45  44 
 45  43  42  44  43  43  44  44  45  46  40  30  16  19  65 122 156 
170 170 169 167 166 166 167 168 164 164 166 166 164 165 165 166 165 
166 164 164 166 166 164 165 163 162 161 163 163 164 163 165 164 165 
164 165 164 166 165 166 166 167 165 166 165 166 164 165 167 166 165 
165 166 166 166 168 167 168 165 166 168 168 167 168 168 167 168 169 
169 168 166 170 170 169 169 168 169 168 169 169 168 169 168 171 170 
170 169 169 169 169 170 171 171 169 169 170 170 169 170 169 169 170 
167 169 158 118  69  51  49  48  46  47  46  47  47  46  45  42  35 
 17  67 155 175 170 174 172 172 172 171 172 171 172 169 171 172 173 
172 171 170 170 169 170 171 171 171 171 171 171 171 170 173 172 171 
173 174 172 174 177 180 168 133  72  27  22  38  43  44  46  46  47 
 45  45  43  42  42  44  43  44  45  44  44  43  46  45  44  45  44 
 43  44  45  46  47  45  46  37  20  21  52 115 154 170 172 169 168 
168 167 167 166 166 167 166 168 167 164 166 167 165 167 167 167 165 
164 165 167 167 167 164 165 163 162 162 163 160 163 163 163 161 163 
163 164 164 165 165 165 162 165 164 164 164 165 165 165 165 165 165 
166 165 166 165 165 165 167 168 168 168 167 167 168 168 167 167 168 
166 168 168 169 168 169 168 167 168 168 167 169 168 170 169 169 170 
170 170 169 169 169 169 168 167 170 169 168 169 169 169 170 166 166 
167 164 137  85  55  52  47  49  44  45  45  45  44  40  23  36 124 
173 170 169 172 169 170 171 169 171 169 169 169 170 169 170 171 172 
172 173 171 173 172 171 170 168 171 171 171 171 166 170 171 170 171 
176 178 169 141  81  28  26  37  46  44  47  46  47  45  46  44  43 
 43  44  43  46  43  44  43  45  45  45  44  44  43  45  44  44  44 
 45  45  45  36  25  18  45 104 149 169 173 167 169 166 166 165 165 
165 164 165 166 167 166 165 167 165 167 166 165 167 165 165 165 164 
164 164 164 162 164 162 162 164 164 163 164 164 164 163 164 164 164 
164 165 165 164 162 165 165 165 165 166 165 166 167 167 166 166 166 
167 167 167 167 168 168 168 166 167 169 168 167 168 170 168 166 166 
167 168 168 169 167 167 166 166 167 169 169 168 168 168 168 169 170 
169 169 170 171 170 168 169 169 170 169 169 168 170 169 170 169 172 
166 147 102  63  50  48  48  47  46  45  42  33  22  87 164 175 169 
170 172 172 171 172 172 168 169 171 172 171 170 170 171 171 170 169 
169 171 172 173 172 170 172 171 171 172 173 172 171 175 177 175 147 
 97  34  22  30  43  45  44  45  43  44  44  46  46  45  45  46  46 
 42  45  44  44  42  45  44  43  42  43  45  47  45  46  46  45  39 
 27  18  43  97 147 165 173 166 168 167 166 166 167 165 165 167 167 
168 168 166 165 165 169 164 168 166 167 166 167 166 167 165 165 165 
165 165 163 165 166 163 164 163 162 161 162 162 162 164 164 165 165 
164 162 164 165 165 167 165 167 165 166 166 166 167 167 167 167 167 
165 165 167 167 167 168 167 168 168 167 168 168 167 165 167 166 168 
168 167 169 166 165 167 168 168 169 170 169 168 168 167 168 168 168 
169 170 169 169 169 169 167 168 167 169 170 167 168 168 167 165 166 
157 117  68  53  51  47  47  46  40  22  47 137 171 168 169 168 170 
171 171 172 170 171 171 168 169 167 168 169 171 171 171 172 169 168 
169 171 171 169 171 170 170 172 171 176 177 174 157 106  46  22  32 
 43  47  45  44  45  43  44  44  43  46  43  42  43  44  41  43  42 
 44  44  44  44  44  44  45  46  44  47  46  44  38  28  16  32  85 
139 165 174 171 169 166 166 165 165 166 167 169 167 165 167 168 168 
167 168 165 166 166 167 165 165 168 167 166 164 166 166 165 164 165 
161 165 165 163 163 162 163 162 163 162 164 162 164 162 162 162 164 
162 165 166 163 165 164 164 166 167 166 165 166 167 166 166 166 166 
166 166 165 166 165 165 164 165 167 166 166 165 168 167 167 166 166 
166 167 167 167 169 168 165 168 168 169 166 168 167 167 167 168 166 
169 169 168 168 171 168 169 169 167 169 169 166 169 166 165 167 163 
130  76  53  48  44  42  24  18  95 159 167 166 167 166 168 169 169 
168 168 168 170 168 170 169 170 170 170 169 168 171 167 169 166 163 
168 168 169 168 170 171 176 174 163 118  53  23  26  39  45  45  43 
 44  45  44  44  43  42  42  42  42  41  42  43  44  40  39  43  43 
 41  42  41  42  45  43  42  42  39  29  16  26  75 128 158 168 168 
166 165 164 166 165 164 164 163 164 165 165 165 165 164 164 167 164 
165 164 164 165 164 165 164 163 164 164 163 165 163 163 164 163 162 
163 162 162 162 164 163 162 163 163 162 162 162 164 162 164 162 164 
165 164 165 167 166 164 164 166 165 165 163 166 166 168 166 165 166 
167 164 167 165 166 169 168 167 168 167 168 168 169 170 170 169 167 
168 167 167 167 167 169 168 168 166 169 168 168 168 170 168 170 169 
170 169 169 169 169 169 170 168 169 168 169 168 168 168 167 163 152 
100  61  51  39  19  58 145 173 169 168 170 170 171 171 168 170 169 
169 169 168 169 169 168 170 170 170 168 169 168 169 170 172 170 171 
169 168 176 180 166 133  63  25  26  38  44  47  43  45  45  46  45 
 44  44  44  42  43  43  44  44  44  42  44  40  46  44  45  45  45 
 45  44  41  45  43  33  18  25  65 122 158 172 171 170 169 167 166 
166 166 165 164 166 166 167 168 166 163 165 166 166 167 165 166 165 
162 165 165 166 165 164 164 164 162 166 166 165 164 163 162 163 164 
164 162 162 163 164 166 165 164 163 163 165 163 165 164 165 164 165 
164 165 166 167 166 165 165 167 166 168 166 167 167 165 166 168 166 
167 166 165 168 169 168 169 168 167 167 168 168 167 168 167 167 168 
168 169 168 169 168 169 168 169 168 168 167 168 168 169 168 170 169 
168 170 169 169 169 169 169 170 169 169 170 169 169 169 171 156 116 
 67  30  31 112 168 172 169 171 172 169 169 170 169 172 171 170 170 
170 170 171 170 172 170 172 172 171 171 170 169 171 169 170 170 173 
174 147  86  32  24  37  44  45  46  43  44  45  45  46  45  44  45 
 44  45  45  44  44  42  43  43  44  45  45  44  45  43  42  44  44 
 43  36  20  19  52 112 154 168 172 170 166 167 166 166 167 168 165 
167 166 169 168 168 168 167 167 167 167 166 166 166 167 166 165 165 
163 164 165 165 165 164 162 164 164 164 164 164 165 164 163 165 163 
163 163 164 164 162 164 165 162 165 163 164 164 164 163 164 165 165 
163 163 165 166 165 166 165 166 165 166 168 167 166 165 167 167 168 
166 166 167 168 169 166 165 167 168 168 167 169 169 167 169 168 168 
167 168 168 171 167 167 167 169 168 168 169 169 170 170 171 169 170 
169 170 169 168 169 170 169 169 170 169 169 166 167 168 164 130  66 
 81 154 173 170 171 172 171 170 170 170 169 169 168 169 170 169 169 
169 170 171 169 171 172 170 170 170 169 169 171 169 171 171 150  82 
 27  36  45  49  46  45  44  43  45  45  44  44  45  45  45  44  44 
 45  46  44  43  42  45  44  44  45  45  45  46  45  46  35  19  15 
 41 100 150 167 170 168 165 167 167 168 166 167 167 167 165 167 166 
167 165 165 166 167 166 164 164 166 166 165 165 165 163 165 165 165 
164 164 164 165 165 165 165 164 163 161 162 162 162 164 163 164 164 
164 163 164 165 165 164 166 165 165 165 166 166 167 166 166 165 165 
166 167 167 168 165 165 167 167 167 168 168 167 167 168 168 169 167 
166 169 167 168 167 169 168 169 169 170 168 168 169 168 169 169 170 
169 169 168 169 168 169 169 169 171 170 170 170 169 168 169 169 170 
170 169 169 170 170 169 170 169 169 169 169 169 169 167 152 151 170 
171 169 170 170 171 172 170 170 171 170 169 171 171 172 171 171 170 
170 169 170 171 170 170 170 171 171 171 170 171 170 167 133  75  53 
 48  45  46  46  45  43  43  43  43  44  44  44  44  44  44  44  46 
 46  46  45  45  44  44  43  43  44  44  41  27  12  34  91 144 169 
175 169 167 166 164 169 167 166 164 167 167 167 166 167 167 167 167 
168 166 167 166 166 167 168 167 167 166 167 166 166 163 165 166 166 
164 163 165 165 165 165 164 162 164 163 163 162 162 163 161 165 164 
165 164 162 162 163 163 164 164 164 163 163 164 165 165 166 166 166 
166 167 166 166 168 167 164 166 165 166 166 168 166 167 168 168 167 
167 168 166 168 167 168 167 165 164 166 168 167 169 169 169 168 167 
168 169 167 167 166 168 170 169 169 170 167 166 169 168 168 170 169 
169 168 169 168 168 169 168 168 169 167 169 168 169 173 173 169 168 
167 169 172 174 171 170 169 170 169 171 168 171 170 170 168 170 170 
169 169 171 168 168 167 171 167 168 168 169 171 164 116  65  50  46 
 45  44  44  46  43  44  44  44  44  44  44  44  44  44  43  45  44 
 44  42  42  42  47  44  40  23  15  30  79 134 162 174 172 167 166 
166 169 165 168 166 168 167 169 166 166 167 166 168 166 166 167 164 
165 165 165 166 165 164 165 163 164 164 164 164 164 163 164 163 165 
163 163 163 162 163 164 165 162 162 161 164 164 163 165 164 163 164 
163 163 164 164 165 165 165 163 163 166 167 166 164 165 168 167 166 
166 166 167 167 166 167 165 166 165 166 168 167 166 166 166 168 166 
166 168 169 169 168 166 168 169 168 167 168 167 168 169 170 167 169 
168 169 169 169 170 169 168 170 168 169 170 169 167 168 170 170 169 
169 169 169 169 170 166 168 170 171 169 170 167 171 168 169 170 171 
171 170 169 169 170 171 171 171 169 171 170 171 168 171 171 170 167 
170 168 170 170 172 168 170 171 172 169 168 152 102  56  47  46  44 
 43  44  45  45  44  44  44  44  44  44  44  46  46  48  44  44  44 
 44  42  42  29  20  25  72 130 164 170 173 170 168 167 168 167 164 
166 166 168 168 166 166 164 167 166 166 168 166 167 166 164 165 165 
166 167 166 167 167 166 167 165 165 164 164 165 166 164 165 164 165 
164 164 163 163 164 163 162 162 162 163 163 164 163 163 165 163 163 
164 163 164 165 165 165 167 165 165 165 166 166 165 164 166 165 165 
165 164 167 166 166 166 167 167 168 169 168 166 168 165 166 168 168 
166 166 168 166 168 168 167 165 167 167 167 168 167 167 169 166 169 
167 167 167 167 167 167 167 169 169 169 169 168 168 168 168 169 171 
170 168 170 170 168 169 168 169 170 170 169 169 168 168 169 168 170 
170 169 170 170 170 169 170 169 168 170 170 171 168 169 168 170 167 
169 168 169 166 166 169 170 168 168 165 143  79  51  48  45  45  44 
 45  45  43  43  44  44  44  44  43  44  45  45  46  44  43  42  32 
 20  18  57 124 159 169 167 167 167 168 168 168 166 168 169 167 164 
167 164 165 168 166 166 166 166 168 166 169 166 166 166 166 166 167 
167 167 166 164 167 164 165 163 163 162 164 163 164 163 163 163 165 
165 164 163 163 164 163 161 161 161 164 162 163 163 162 163 163 165 
164 165 163 165 165 164 164 163 164 165 165 165 166 164 164 166 164 
164 166 165 165 165 164 165 167 164 165 165 166 166 165 166 168 167 
167 167 166 166 165 168 167 166 168 167 166 165 166 166 167 166 167 
167 165 167 168 169 167 165 164 166 166 168 167 168 168 168 167 168 
168 169 168 168 167 170 170 168 168 168 167 169 166 169 167 168 168 
170 168 168 169 169 167 170 169 167 168 171 170 170 168 165 167 168 
168 168 168 168 168 167 167 166 161 125  68  49  48  46  41  41  40 
 41  42  40  42  42  44  43  37  43  41  44  43  33  21  13  48 113 
153 170 171 168 164 165 167 167 167 166 166 167 168 165 166 165 165 
166 166 165 166 165 165 164 163 166 164 166 164 165 165 165 165 166 
166 163 165 163 164 164 164 162 163 163 161 163 164 163 164 163 164 
164 163 161 161 162 163 163 164 162 163 163 163 164 165 164 163 164 
165 166 163 162 166 166 165 163 165 164 164 167 167 167 166 166 167 
166 165 166 167 167 167 165 168 168 166 166 166 168 169 168 167 167 
167 168 168 167 168 167 169 168 167 167 168 167 168 168 166 168 166 
167 172 168 169 171 168 169 169 168 169 168 168 167 168 169 169 170 
170 168 168 167 169 168 171 170 170 168 167 169 170 170 170 169 169 
169 169 169 168 170 170 171 171 172 170 169 169 169 171 167 168 168 
170 170 169 168 171 166 167 160 114  59  49  46  44  42  46  45  43 
 43  46  46  42  42  50  48  44  37  26  18  39 104 150 173 171 170 
169 168 168 165 166 166 166 167 167 167 167 167 168 167 166 166 167 
166 166 162 168 166 164 169 166 164 165 163 165 166 165 165 165 164 
165 164 165 165 165 163 163 164 164 163 165 164 164 163 164 164 163 
161 164 162 163 162 163 162 163 163 163 162 165 165 164 163 164 165 
164 164 165 164 164 164 167 166 165 167 168 166 166 167 167 167 166 
166 166 166 166 166 167 167 166 167 166 167 167 168 167 168 168 166 
168 167 170 168 169 169 168 168 168 168 169 169 168 169 170 167 168 
166 170 168 169 170 169 169 170 169 171 169 169 169 170 169 170 168 
170 170 171 169 171 169 170 168 169 168 169 169 170 170 171 170 171 
172 171 170 169 168 169 171 170 170 170 170 171 170 171 169 168 169 
170 169 171 167 170 169 153  93  54  47  46  47  45  43  44  45  44 
 42  44  45  41  38  27  15  27  91 146 167 175 170 168 167 167 167 
168 166 167 167 167 166 166 166 167 166 168 167 167 167 167 166 166 
166 166 166 166 167 166 166 165 165 166 165 166 166 166 165 165 164 
165 165 165 165 164 165 164 164 164 164 164 164 163 165 165 162 164 
160 163 162 163 163 163 163 164 160 162 163 164 163 162 162 162 164 
164 163 166 165 165 164 165 163 165 164 165 166 167 168 168 167 166 
166 167 166 164 165 167 168 168 167 166 165 165 166 168 167 167 167 
169 168 168 168 166 167 170 166 170 168 166 169 168 167 169 169 170 
169 169 167 169 168 170 169 172 169 169 168 169 169 170 168 169 169 
170 169 169 170 170 168 171 170 170 170 170 169 171 170 171 171 169 
169 169 168 169 171 170 170 170 170 171 169 171 169 168 168 168 169 
169 167 168 166 166 140  78  51  49  45  45  45  43  45  45  45  46 
 35  29  14  26  81 140 168 173 169 166 167 168 167 168 168 166 166 
167 167 166 166 166 167 169 166 167 166 168 167 166 167 166 165 165 
165 166 166 164 164 164 163 166 165 164 164 166 166 163 164 165 163 
163 164 164 165 164 163 164 165 165 165 163 164 164 162 163 161 164 
163 164 163 163 162 165 165 163 163 165 165 165 166 165 163 165 165 
166 165 165 166 166 166 167 167 167 168 168 166 166 165 166 166 166 
168 167 167 168 166 166 167 167 166 166 167 169 171 168 169 169 169 
170 170 169 166 168 166 169 167 169 167 169 170 169 167 169 167 169 
170 168 169 171 170 171 168 170 170 170 170 171 168 169 168 170 169 
169 170 170 168 170 170 170 171 171 170 170 169 169 171 168 172 170 
168 170 171 170 171 170 170 170 171 169 168 169 170 169 170 169 169 
169 170 169 163 124  65  49  49  46  45  47  48  47  41  27  15  24 
 70 132 165 173 173 168 166 169 169 168 168 167 168 168 167 168 167 
167 168 169 169 169 169 168 166 167 168 167 168 167 167 169 166 167 
167 167 167 167 166 167 165 166 165 165 167 167 165 167 166 165 166 
165 166 166 163 165 165 165 163 163 164 163 162 163 162 164 161 162 
162 163 162 164 164 163 163 164 164 165 166 164 163 164 163 164 163 
164 166 165 166 167 167 167 166 166 167 167 166 167 167 166 168 167 
166 165 166 167 166 167 167 168 167 167 167 165 167 167 168 167 168 
168 166 169 165 168 167 168 167 167 168 172 168 168 168 168 168 168 
168 169 169 169 168 168 168 169 167 170 168 170 169 170 169 169 168 
170 170 169 169 169 171 170 168 168 168 168 169 167 171 170 169 170 
169 169 170 170 170 170 169 169 170 171 169 168 171 170 168 170 171 
167 167 157 106  57  50  49  44  47  39  31  18  17  58 123 161 172 
170 166 167 167 166 168 166 167 167 168 167 165 167 168 168 167 168 
168 167 168 166 167 166 165 166 166 166 166 165 165 165 168 165 165 
167 164 164 166 166 164 164 165 165 163 163 165 165 164 165 164 163 
163 162 164 163 164 162 162 163 163 162 162 162 164 162 163 162 163 
162 164 161 164 164 166 165 165 164 163 163 164 163 165 164 165 166 
166 165 167 167 166 164 163 167 167 166 166 167 167 168 167 167 167 
165 167 167 167 166 167 167 168 167 168 169 169 169 167 168 169 167 
168 169 169 169 171 168 170 173 175 155 158 166 169 167 168 167 168 
168 169 169 168 167 169 167 169 168 169 168 168 169 169 169 169 170 
170 170 170 170 168 169 169 169 169 170 169 170 170 170 171 170 171 
171 170 169 169 168 169 169 170 169 169 170 167 167 170 167 168 166 
166 148  93  52  50  47  39  21  20  48 109 156 173 174 171 168 168 
167 167 167 169 168 169 168 169 166 167 167 168 168 168 168 168 168 
169 165 167 167 166 166 166 165 166 164 165 167 168 166 166 165 167 
166 166 165 164 165 165 163 164 164 165 164 164 164 164 162 162 164 
165 164 166 165 164 163 163 162 161 162 164 162 163 163 163 163 164 
164 165 162 164 163 163 163 165 164 165 163 165 162 164 166 166 162 
164 164 165 165 163 167 165 165 166 167 167 168 167 167 168 167 168 
167 166 167 167 167 167 166 169 167 167 169 168 168 169 168 169 169 
168 170 170 169 171 171 142  62  64 121 155 163 167 167 169 168 167 
167 168 168 168 171 169 167 168 171 169 170 168 170 168 169 169 168 
168 168 170 169 169 170 168 169 170 169 171 169 170 168 168 170 169 
169 169 168 169 166 168 167 168 169 167 168 167 170 168 168 167 165 
131  73  45  26  10  40 103 153 172 172 171 165 166 169 167 167 166 
166 166 166 168 168 168 166 168 167 168 168 167 167 167 167 166 166 
167 166 165 167 167 165 167 167 167 165 163 166 169 165 167 165 167 
167 164 164 164 163 165 163 165 164 163 163 163 163 163 162 163 161 
162 161 162 163 163 160 162 162 162 161 161 162 162 162 162 163 163 
162 162 162 162 161 164 165 162 163 163 163 166 163 164 165 165 164 
165 164 166 165 165 167 165 165 165 168 168 166 165 165 166 167 167 
165 165 166 166 166 167 166 168 168 166 166 167 166 166 164 167 165 
168 169 170 166  92  31  42  40  62 112 150 163 164 163 165 165 166 
166 164 167 167 168 167 167 168 167 168 167 167 168 169 168 169 168 
167 167 168 166 170 168 170 168 168 168 169 167 169 168 169 167 168 
166 166 169 168 169 166 167 169 167 167 169 169 167 166 165 159 102 
 32  35  96 148 169 172 168 167 166 166 167 167 167 167 166 167 165 
166 167 165 166 166 166 167 167 166 164 166 166 165 167 165 167 165 
165 166 166 164 164 166 164 166 164 165 165 165 164 163 165 163 164 
164 166 164 164 166 164 165 163 163 163 164 164 164 164 164 165 161 
162 162 162 163 162 161 162 163 163 163 162 162 164 161 163 164 164 
164 164 163 164 164 165 164 165 164 165 165 164 164 166 164 166 164 
165 166 167 163 165 168 167 166 166 166 167 164 166 167 167 166 167 
167 165 167 167 166 165 166 168 168 167 165 169 165 167 169 170 167 
174 141  60  35  49  50  49  45  46  92 146 164 167 169 169 170 169 
168 168 168 168 169 169 167 167 168 167 168 167 168 168 167 167 169 
169 168 169 168 169 168 169 168 170 169 170 168 168 168 170 169 170 
170 167 169 168 168 168 168 168 168 168 167 168 168 166 151 127 144 
170 173 168 168 170 167 168 168 166 167 167 168 167 167 167 167 168 
165 167 167 167 166 166 167 166 167 168 167 167 164 167 167 166 166 
164 164 166 164 166 166 165 164 164 164 165 163 166 165 166 165 165 
163 165 163 164 164 163 165 163 163 164 163 163 163 164 163 164 163 
163 162 163 163 163 162 162 162 163 162 161 162 163 162 161 161 162 
164 164 164 164 164 166 164 165 164 166 164 166 164 166 165 165 165 
164 166 168 167 166 167 167 166 166 166 166 167 167 167 167 167 167 
169 169 169 168 168 168 168 167 166 169 167 167 169 167 170 170  99 
 35  43  51  50  47  39  22  32 122 161 165 167 169 166 169 168 169 
168 168 168 169 169 170 168 168 168 168 169 168 169 170 168 169 169 
168 170 169 168 168 168 170 169 171 170 169 170 171 168 169 168 167 
169 169 168 170 169 169 168 168 168 169 167 169 168 166 173 174 168 
167 168 167 166 168 168 166 168 167 168 168 166 168 167 168 166 168 
167 168 167 167 166 167 168 167 167 168 165 168 166 166 167 166 164 
166 165 167 165 166 166 166 165 164 165 165 164 167 163 163 163 164 
162 164 163 163 164 163 164 166 163 164 163 164 163 163 162 163 162 
163 160 162 162 161 160 161 162 161 162 163 161 161 162 162 164 163 
163 162 162 164 164 165 164 165 162 163 164 165 165 165 165 163 165 
167 164 165 164 164 164 163 166 165 164 166 166 167 168 169 166 166 
166 168 167 165 166 166 164 167 168 167 168 169 175 142  52  32  48 
 47  45  44  36  20  74 154 169 168 169 168 170 169 167 169 168 168 
168 167 168 169 168 170 170 170 170 168 168 169 168 170 170 168 169 
167 167 169 168 168 167 169 170 169 170 168 166 168 169 169 170 168 
168 169 168 168 169 167 168 167 166 168 167 168 168 168 167 167 167 
167 166 167 168 167 168 167 167 168 167 168 168 167 167 168 167 167 
167 168 166 167 167 165 166 167 165 167 165 165 167 166 165 167 165 
166 165 165 166 166 166 165 165 166 163 164 164 164 163 164 163 163 
162 163 164 164 164 164 163 164 162 163 162 162 161 163 160 161 162 
163 163 163 163 163 164 164 162 164 165 166 165 164 165 164 163 167 
164 166 166 165 167 164 165 165 166 166 165 165 165 166 165 165 164 
167 166 166 166 165 166 167 168 168 168 169 168 168 167 167 166 167 
167 168 169 169 167 170 169 169 169 173 167  99  28  39  47  45  48 
 44  25  34 126 172 171 167 167 168 167 170 169 169 168 168 170 169 
169 169 167 169 168 169 169 169 166 166 168 170 169 170 169 168 167 
168 169 169 169 169 169 169 170 169 169 169 169 169 169 170 171 171 
169 169 170 168 169 169 168 170 166 169 168 168 169 168 168 166 167 
167 168 168 168 168 167 167 167 169 168 168 168 169 167 167 167 169 
167 167 168 167 167 167 167 168 166 167 168 167 165 166 164 165 166 
166 164 164 163 163 164 164 165 167 165 167 166 163 164 164 163 165 
164 164 165 163 162 165 163 163 163 163 161 164 163 163 162 163 164 
164 163 163 163 164 164 164 163 164 164 163 164 163 163 165 163 165 
163 164 165 165 165 165 165 164 164 165 164 164 165 164 165 167 165 
164 166 165 166 166 166 165 165 165 166 167 165 167 166 166 166 167 
167 168 167 169 165 167 169 174 139  55  33  45  44  45  43  35  18 
 76 158 172 165 167 169 169 168 169 167 168 168 167 169 168 169 169 
167 170 168 170 169 170 170 170 169 170 168 169 169 170 168 169 167 
168 168 168 167 169 168 168 167 167 167 169 169 169 169 168 168 168 
167 167 166 168 167 167 168 169 168 168 165 162 165 167 166 167 168 
168 167 168 167 166 166 167 166 167 166 168 166 167 166 167 165 165 
166 167 166 167 166 167 165 166 166 165 165 164 166 165 166 166 164 
166 165 165 163 167 165 165 165 166 165 163 163 163 162 164 162 163 
164 164 161 162 161 163 164 164 162 162 160 161 162 163 163 163 163 
164 164 163 163 163 162 164 164 164 165 163 163 163 162 163 163 164 
164 167 164 164 165 165 166 166 166 166 166 164 165 165 165 165 166 
165 164 165 166 168 167 166 166 167 166 169 168 167 168 167 166 169 
167 168 167 167 173 167  99  34  40  48  49  46  39  23  40 127 170 
168 167 169 169 167 168 167 168 169 170 169 170 168 167 168 169 171 
169 171 169 170 170 170 167 169 169 170 168 169 168 169 169 169 169 
169 168 170 169 169 168 168 168 170 169 168 168 168 169 169 168 168 
166 167 167 166 167 169 169 168 167 168 168 167 165 167 168 167 168 
168 167 166 167 168 167 169 167 168 167 167 168 167 166 166 166 166 
166 167 164 166 165 166 166 165 167 167 164 166 166 167 166 167 166 
166 164 165 166 166 163 164 166 165 163 164 164 165 164 165 163 164 
163 164 163 165 164 164 164 164 161 162 163 163 163 163 163 162 162 
163 163 163 164 165 165 164 165 164 161 163 162 165 165 165 165 164 
165 166 166 166 165 164 166 166 164 164 166 165 166 165 165 165 164 
166 167 166 165 165 165 165 167 169 167 165 168 167 166 168 167 166 
167 168 173 143  56  37  46  46  47  43  36  21  77 157 165 163 167 
167 169 168 167 168 168 168 168 166 168 168 167 169 168 169 167 170 
169 169 169 169 168 168 166 167 168 170 169 168 169 168 169 170 168 
171 167 168 167 169 169 168 167 167 168 168 169 169 167 166 166 165 
168 168 167 166 166 167 169 168 168 169 167 167 167 166 169 167 167 
167 165 166 166 167 166 166 167 167 166 167 167 166 167 168 165 164 
165 165 165 167 166 165 167 165 165 166 166 164 167 165 166 165 164 
165 165 166 164 163 162 163 165 165 163 163 162 164 160 161 163 163 
161 163 162 162 163 161 160 161 161 162 162 162 163 164 164 161 163 
161 163 163 165 164 163 163 161 163 164 164 165 163 165 165 164 164 
163 164 164 166 164 164 166 165 169 166 166 165 165 164 166 164 165 
164 166 163 166 164 166 165 164 165 166 168 165 167 165 165 165 169 
165  96  30  39  48  43  41  37  17  36 125 165 165 167 166 168 168 
166 167 168 167 168 167 169 168 167 169 167 166 166 166 167 167 166 
167 167 169 166 167 168 168 167 165 167 168 167 167 169 169 169 169 
169 167 169 165 166 167 167 166 167 168 168 167 167 166 167 167 167 
169 168 169 168 167 166 167 168 166 166 166 166 166 167 167 167 164 
164 167 167 166 165 164 166 167 165 167 167 167 166 166 165 164 163 
167 167 166 165 164 163 164 165 163 163 165 165 166 165 164 166 164 
164 161 163 164 163 162 162 163 163 163 164 162 163 161 163 163 161 
161 161 163 161 161 160 161 163 164 163 162 162 164 164 162 162 164 
163 163 164 163 162 162 164 165 164 165 163 164 164 163 166 165 165 
165 164 166 166 165 166 167 166 166 166 166 167 165 166 165 165 165 
166 168 168 165 166 165 167 166 167 166 167 163 171 169 167 138  59 
 33  48  47  49  43  34  21  78 162 168 166 167 165 167 169 169 167 
165 168 169 169 169 168 167 169 169 167 168 168 168 168 168 169 168 
166 168 168 168 167 169 168 169 168 169 169 169 168 168 166 166 165 
169 168 170 168 168 165 167 167 168 167 167 167 168 169 168 169 169 
167 167 168 168 167 167 167 168 168 169 168 168 169 169 166 167 166 
165 166 166 167 166 165 167 167 167 166 167 167 167 166 165 167 166 
165 164 165 166 164 168 165 167 164 165 164 165 164 165 164 164 164 
164 164 164 162 164 164 164 162 163 163 163 160 163 164 162 162 161 
164 163 162 163 164 163 162 162 163 164 164 162 164 163 162 163 164 
164 163 163 163 163 164 163 163 164 166 165 165 166 164 165 167 164 
166 166 164 165 167 167 166 166 166 166 163 167 165 167 167 168 167 
168 166 167 167 169 167 167 167 167 166 164 167 165 162 133  91  59 
 52  48  43  25  42 127 171 170 167 169 168 168 168 168 168 169 168 
169 167 168 168 169 169 169 167 168 168 168 168 169 169 168 168 169 
169 167 170 168 169 168 168 169 169 168 167 168 169 168 167 169 169 
168 167 168 167 168 167 167 167 168 168 167 168 168 167 169 168 168 
168 169 168 169 167 168 166 167 167 167 167 167 167 167 165 166 169 
165 165 167 166 167 166 166 165 167 165 164 166 166 166 166 166 166 
168 168 166 167 164 168 164 165 164 166 164 164 163 164 163 163 164 
164 164 164 162 164 164 164 163 161 162 162 163 162 162 162 165 163 
161 163 161 162 164 164 163 162 163 164 162 163 164 164 163 164 164 
164 164 164 164 163 163 164 166 164 165 166 164 165 167 164 166 166 
165 165 167 165 165 163 166 166 164 167 166 168 168 167 166 166 165 
166 164 166 166 167 167 166 165 169 168 168 168 167 162 139  89  58 
 38  25  82 156 169 166 167 168 167 167 166 166 168 170 168 169 165 
167 170 171 168 168 167 168 167 168 168 167 168 168 168 170 169 169 
169 167 168 170 168 167 167 168 167 167 167 167 168 167 168 167 167 
168 168 167 168 168 168 168 168 167 166 167 167 169 168 166 167 167 
166 168 165 167 165 166 167 166 167 168 166 169 167 167 169 167 166 
166 166 165 166 165 167 166 165 164 165 166 165 165 165 165 166 165 
165 164 162 166 164 165 164 165 165 165 163 163 163 163 164 163 163 
162 162 164 162 161 163 163 162 164 163 162 163 162 162 164 160 162 
162 163 163 164 163 163 164 164 163 165 164 166 165 164 164 166 163 
164 164 165 164 165 165 163 165 167 166 165 166 166 167 167 166 165 
167 166 167 164 167 165 167 168 166 166 166 165 166 166 167 168 166 
167 168 168 167 166 166 163 168 168 166 167 168 167 163 140  86  60 
128 170 166 167 168 168 166 167 169 169 167 167 168 170 167 168 169 
169 168 169 169 170 169 170 170 168 169 169 167 170 169 170 169 169 
168 169 168 169 168 168 168 167 167 168 167 167 169 168 167 168 167 
166 167 168 168 167 167 169 167 167 169 170 168 168 169 169 168 169 
167 167 167 167 168 168 167 167 167 167 166 165 168 168 167 168 165 
165 167 167 167 166 166 165 164 166 166 166 166 165 165 164 163 164 
165 165 164 165 166 165 164 166 164 163 166 165 166 164 163 163 165 
165 163 163 163 165 162 162 163 163 161 162 163 162 161 161 162 162 
161 162 162 163 162 163 164 164 163 163 164 164 163 164 162 163 163 
164 164 166 165 164 163 163 164 163 163 165 164 164 165 165 164 164 
164 163 166 165 165 166 164 164 163 165 166 165 166 167 166 167 166 
166 163 163 163 167 167 166 163 167 166 166 165 170 164 156 168 170 
168 169 166 167 168 168 167 169 169 169 168 169 167 167 168 168 168 
170 167 168 167 167 169 169 169 168 168 169 169 168 169 169 168 168 
167 168 168 168 168 168 168 167 167 168 168 169 167 168 168 168 167 
168 168 167 167 169 166 167 166 167 167 167 168 167 167 168 167 167 
167 167 168 168 168 169 168 167 165 165 166 166 165 166 166 167 167 
167 166 167 166 165 164 165 164 164 163 163 164 164 163 164 164 164 
163 165 165 166 163 164 164 162 163 164 165 163 162 162 163 163 163 
164 163 162 161 162 161 162 162 164 161 163 161 160 162 162 164 163 
164 164 164 165 162 166 165 162 163 164 165 164 165 165 164 164 163 
164 163 163 165 164 165 166 165 165 165 166 164 167 165 166 166 166 
165 166 165 167 167 166 166 166 166 165 165 165 167 167 167 168 167 
166 164 166 163 166 167 167 165 166 165 168 168 169 170 169 166 169 
167 168 168 168 167 168 168 169 166 167 167 168 169 168 167 167 167 
167 166 166 168 169 168 168 167 168 168 169 167 168 167 169 169 169 
169 169 168 169 168 167 167 168 168 169 168 168 169 168 166 167 166 
167 169 168 166 167 166 168 169 169 168 166 167 168 167 168 169 168 
166 165 167 168 164 167 167 165 166 167 167 166 166 167 166 166 165 
167 167 167 167 166 164 163 164 164 163 164 164 164 165 165 166 166 
164 165 165 165 164 163 162 163 165 164 162 164 164 163 163 165 163 
162 161 162 163 163 162 163 163 164 160 160 162 162 163 162 164 163 
162 162 163 164 162 162 164 162 162 164 163 164 164 165 164 165 163 
163 165 164 164 165 165 166 165 164 163 167 163 164 165 165 164 167 
164 165 165 164 165 164 165 165 166 164 165 165 165 167 167 166 165 
166 166 166 166 166 167 167 166 164 166 167 166 168 168 169 168 166 
166 167 167 167 166 167 167 168 167 167 167 167 167 167 168 167 169 
168 168 169 166 169 168 167 169 167 169 168 168 168 168 168 168 169 
169 168 167 168 168 169 169 168 170 166 169 168 164 168 164 165 168 
167 167 168 164 165 168 167 166 165 166 166 166 167 167 168 168 167 
166 165 168 169 166 165 167 166 167 167 165 166 166 165 167 165 164 
166 165 165 164 164 164 165 164 167 165 165 165 163 165 165 165 165 
163 164 164 165 163 163 164 164 161 163 163 163 162 162 163 162 160 
161 163 163 162 163 162 162 161 161 160 162 162 161 161 161 161 162 
162 163 163 162 161 161 163 163 162 164 163 163 164 162 163 164 163 
164 164 163 165 164 164 164 165 163 161 165 164 164 164 164 163 163 
163 164 165 166 165 165 166 165 164 164 164 163 165 165 164 162 164 
164 163 166 165 165 165 167 166 166 167 166 167 166 166 166 166 167 
166 167 167 167 166 166 166 167 168 167 167 167 165 166 167 167 167 
167 168 166 165 168 167 168 166 167 167 167 167 167 166 167 167 168 
165 167 167 166 166 166 165 167 165 167 167 165 165 165 167 166 165 
168 165 166 166 166 165 167 165 166 166 165 166 166 165 167 165 166 
165 165 164 167 165 165 167 167 164 164 165 165 163 163 165 165 164 
166 165 167 164 164 166 165 164 166 163 163 163 162 163 163 162 162 
164 164 163 164 164 164 162 162 162 162 161 162 164 162 162 159 160 
160 161 160 162 162 160 161 162 162 162 161 163 163 163 160 161 165 
163 163 163 161 164 164 162 165 163 163 165 165 164 163 162 164 164 
162 163 163 165 165 163 168 167 166 163 164 164 163 163 165 165 165 
164 165 166 165 166 168 166 166 165 167 167 167 164 165 166 167 165 
166 166 166 166 166 165 167 168 169 168 167 167 169 168 169 169 168 
168 167 166 168 168 167 165 166 168 167 167 168 168 167 167 167 168 
167 167 168 166 167 166 168 167 167 166 168 167 169 168 168 166 166 
168 169 167 167 166 169 168 167 166 168 168 166 166 167 167 167 165 
168 167 167 167 167 168 169 167 168 167 168 167 167 167 167 166 166 
166 166 165 165 167 166 166 167 164 164 165 166 165 164 165 168 165 
165 163 166 167 163 162 165 164 163 164 165 165 163 163 163 165 165 
164 166 165 161 162 163 162 164 163 163 164 163 161 161 162 162 162 
162 161 160 161 162 161 160 161 161 161 160 163 162 162 164 162 163 
165 164 165 165 162 165 165 163 165 164 164 163 164 165 164 163 165 
164 165 164 164 165 163 165 165 165 164 165 166 167 164 164 164 166 
166 166 166 168 166 167 166 168 165 166 166 167 166 167 166 166 166 
165 167 168 167 169 168 168 166 167 167 169 167 166 168 168 168 168 
167 168 168 167 166 167 169 168 167 167 168 167 167 168 168 167 168 
169 169 169 168 168 168 168 168 169 165 166 166 167 167 167 167 169 
167 169 168 167 168 167 168 167 166 168 167 167 166 167 167 168 168 
167 168 168 166 166 166 168 168 167 166 167 167 170 168 166 166 165 
166 166 167 166 162 166 164 165 168 166 166 167 166 167 165 167 165 
166 166 166 166 166 163 165 167 165 164 165 165 164 164 165 164 164 
165 164 163 165 163 165 164 164 165 163 163 163 161 162 160 162 161 
162 162 163 161 161 162 163 161 160 161 162 160 161 163 163 161 162 
161 162 161 164 163 162 163 162 161 163 163 163 163 164 166 164 164 
164 166 167 163 164 165 165 164 164 164 165 165 167 165 165 165 165 
164 165 165 164 164 165 165 166 165 166 165 166 167 167 166 165 166 
165 167 168 167 168 166 167 166 166 166 166 168 167 166 167 165 166 
167 167 167 166 167 167 166 166 167 166 166 167 165 164 166 167 167 
167 166 166 168 168 168 168 165 167 168 168 168 168 168 168 166 168 
168 166 169 170 168 167 167 167 166 168 167 165 165 168 165 167 167 
166 167 165 165 168 165 166 165 164 167 167 166 165 165 166 167 165 
165 165 165 167 166 166 169 165 165 164 165 166 164 165 166 166 165 
165 163 165 165 164 163 163 164 164 162 163 163 164 163 162 162 163 
162 163 163 162 163 163 163 162 161 162 161 163 161 162 160 161 161 
162 161 162 163 164 162 163 163 162 163 163 164 163 161 163 163 164 
163 165 163 163 165 164 164 165 163 165 165 165 165 164 165 165 165 
165 163 166 165 164 166 166 164 166 166 167 166 166 166 166 165 166 
169 166 167 167 168 166 165 165 164 164 165 166 166 167 168 167 168 
168 168 169 168 169 166 167 167 167 169 167 167 168 167 167 167 168 
168 167 168 167 167 167 168 168 168 168 168 168 168 169 168 168 169 
169 170 169 166 167 167 167 168 168 166 166 168 169 167 168 168 168 
168 167 168 167 169 170 169 167 168 167 166 165 168 167 164 167 166 
167 165 165 166 166 167 168 166 166 166 168 167 166 166 165 167 166 
165 168 167 167 166 166 167 167 166 167 166 165 166 166 165 165 163 
165 166 165 164 164 165 164 163 164 164 163 164 164 162 163 164 163 
164 163 161 162 163 161 162 165 164 163 163 163 163 163 161 161 160 
161 162 163 164 163 163 162 163 164 161 159 162 164 163 164 162 164 
163 163 164 164 164 163 161 164 163 163 162 163 164 163 163 165 165 
164 164 165 167 164 164 165 165 165 165 167 167 165 167 166 167 166 
165 166 167 165 165 166 165 164 164 165 165 166 167 166 167 166 166 
165 166 166 166 168 168 167 167 167 168 169 166 167 167 167 168 168 
167 165 169 168 167 167 167 167 167 166 166 167 167 169 168 168 167 
167 164 166 168 166 166 167 167 167 166 168 167 169 166 169 166 166 
167 167 168 167 167 166 168 166 167 166 165 166 165 166 166 164 166 
167 166 168 168 167 169 168 167 167 165 165 166 166 165 164 165 167 
165 167 165 166 166 165 165 166 166 165 165 165 163 164 165 164 164 
164 164 164 164 163 164 165 163 162 163 164 162 164 162 162 164 164 
161 163 162 162 162 162 161 159 161 161 161 161 159 159 160 162 162 
164 164 161 161 162 162 164 164 164 165 163 163 162 161 163 163 164 
163 164 164 163 163 165 164 166 164 165 165 163 165 165 165 166 165 
163 165 165 164 166 168 167 165 167 166 166 165 164 164 166 166 165 
165 164 162 165 165 166 166 166 165 165 167 167 166 166 168 168 168 
168 166 168 168 167 167 167 167 167 164 168 168 168 167 167 167 167 
166 167 166 168 168 167 168 167 167 168 167 170 167 167 167 168 167 
169 168 166 167 167 167 167 166 167 167 168 166 168 167 169 168 167 
166 168 169 166 167 168 166 167 168 167 167 168 165 166 167 167 168 
166 166 165 165 168 165 166 167 167 168 167 164 165 166 167 166 167 
166 167 166 165 165 166 166 164 163 166 165 162 162 164 165 163 163 
165 165 165 163 164 165 165 164 164 163 164 163 163 165 164 162 163 
163 163 162 161 161 162 163 162 162 159 161 161 159 162 162 163 162 
162 161 163 161 159 163 161 161 162 162 162 162 163 163 165 163 164 
164 163 162 164 164 166 164 163 164 165 164 165 165 164 166 164 165 
164 165 165 166 165 163 165 163 164 165 167 167 167 166 164 165 163 
164 166 163 165 166 167 168 167 166 169 166 167 166 166 166 167 166 
165 165 166 166 167 167 167 166 167 166 167 168 167 167 168 165 167 
167 168 167 165 168 167 167 167 165 169 167 167 166 167 168 168 166 
166 169 168 168 167 168 169 168 168 167 166 167 167 165 169 167 168 
167 167 166 166 167 169 166 166 168 167 166 165 167 167 167 166 169 
167 165 166 165 165 167 164 165 167 164 167 165 166 167 162 164 163 
166 165 164 163 166 165 164 164 164 163 162 163 163 163 165 164 162 
164 162 164 164 163 162 163 164 163 162 162 163 161 163 162 163 162 
161 161 161 161 159 159 162 162 162 161 162 162 160 162 160 161 159 
160 161 160 164 162 159 161 160 162 163 162 162 162 162 161 161 163 
162 163 163 162 164 162 162 164 163 164 162 164 165 164 163 164 165 
163 164 164 162 163 165 164 163 163 165 165 165 164 165 164 164 165 
165 164 166 164 166 164 165 165 167 167 166 164 167 168 166 167 165 
166 167 166 165 167 166 166 167 167 167 167 165 163 167 165 165 166 
163 164 166 166 168 167 167 166 166 166 166 167 165 165 165 167 168 
166 166 164 166 167 165 165 166 165 165 166 166 166 166 167 165 167 
166 164 165 164 165 166 165 166 166 166 166 165 166 166 165 166 166 
168 164 165 166 166 164 164 163 164 165 164 163 164 164 167 163 164 
164 163 164 164 162 163 164 165 163 163 162 163 164 163 163 164 162 
162 162 161 164 162 162 162 161 161 162 161 162 161 162 162 160 160 
160 161 159 162 159 160 160 160 159 162 162 162 160 162 161 161 160 
161 161 163 162 162 163 163 160 163 163 162 162 164 163 160 163 165 
164 164 163 163 163 166 162 166 167 166 165 163 165 167 165 165 164 
163 165 164 164 165 164 164 164 166 165 165 165 163 166 166 166 164 
165 164 166 165 162 166 168 168 166 165 166 167 165 168 167 165 167 
167 165 165 166 168 167 165 166 167 166 167 167 167 165 166 165 165 
166 164 167 166 166 165 167 167 167 167 164 167 166 166 168 165 165 
166 165 167 167 167 166 166 167 167 166 167 165 167 167 167 164 164 
164 168 167 167 163 167 166 166 166 166 166 165 165 166 166 165 166 
166 165 165 165 165 165 166 162 164 166 166 164 165 164 166 164 164 
164 163 162 164 165 164 163 165 163 162 164 164 163 164 162 164 163 
163 162 161 163 164 159 162 162 162 161 162 162 163 161 163 163 161 
159 162 160 161 161 161 160 161 161 161 161 162 162 162 162 165 161 
164 162 161 163 165 163 163 163 164 163 163 163 164 161 163 163 164 
162 163 164 165 163 164 163 163 165 165 166 164 165 166 165 164 167 
165 165 166 164 164 164 166 164 165 165 165 164 166 167 167 167 166 
165 164 163 165 166 167 166 167 167 167 164 168 168 166 167 168 167 
165 167 168 167 168 166 167 167 169 166 167 164 165 166 166 166 166 
166 166 167 167 167 166 166 165 166 167 168 168 167 166 166 167 167 
168 168 167 165 166 166 165 166 167 165 167 167 166 165 164 166 165 
164 166 167 164 166 168 165 166 166 165 166 166 165 164 166 165 164 
166 164 164 166 166 166 165 163 164 165 164 165 163 165 164 163 164 
163 163 163 164 163 164 163 163 164 163 162 163 163 164 162 163 163 
164 163 164 164 164 162 163 162 163 161 163 160 162 162 161 160 162 
160 161 158 160 159 160 160 161 161 160 160 162 160 162 160 162 162 
162 161 162 162 162 162 163 162 163 162 162 162 163 163 164 163 163 
162 161 164 164 163 163 164 164 165 163 163 165 164 166 165 165 165 
165 164 164 161 163 163 164 165 165 165 167 167 167 166 166 165 165 
164 164 165 166 166 165 166 166 166 168 166 165 167 166 166 164 166 
166 165 167 164 168 166 163 164 167 167 167 166 165 166 167 167 166 
166 165 166 166 167 167 166 168 167 165 167 167 164 167 167 166 167 
168 168 167 168 167 165 165 165 167 164 164 165 166 166 166 165 167 
167 166 165 164 165 165 165 166 165 164 166 166 163 166 164 164 165 
163 163 164 163 163 163 164 164 163 165 165 163 165 163 163 163 164 
164 164 162 162 161 163 163 163 162 163 161 163 163 164 163 164 163 
163 161 163 161 160 159 162 161 161 162 162 162 161 160 161 161 162 
159 161 160 161 161 162 163 162 163 162 160 161 162 162 163 163 162 
163 161 162 164 165 163 162 162 163 164 164 164 164 164 164 164 162 
164 165 165 165 165 165 165 164 165 166 164 166 163 164 165 165 165 
165 164 164 165 165 164 165 166 166 166 167 167 168 167 167 165 166 
167 167 168 166 167 167 166 168 165 166 168 166 168 166 166 167 165 
168 165 166 164 165 166 167 168 167 167 167 167 168 166 166 167 166 
166 165 166 168 166 168 166 165 167 167 165 167 165 165 167 167 168 
167 167 167 165 167 168 167 167 167 165 166 165 166 167 166 165 167 
166 165 165 166 166 167 166 165 165 166 163 163 164 164 164 164 165 
163 163 163 164 166 164 164 163 163 163 165 164 164 163 165 164 164 
164 164 163 164 163 164 164 164 163 164 164 163 163 163 164 164 162 
163 162 162 163 160 162 163 164 162 161 161 161 162 163 162 160 163 
158 159 159 160 161 161 162 160 160 161 160 160 160 160 161 161 160 
164 165 163 161 163 164 163 161 161 163 163 163 162 163 161 162 163 
162 164 164 165 164 163 164 165 162 163 162 163 163 164 164 164 164 
164 165 165 164 163 165 165 165 167 166 167 165 164 163 164 165 163 
165 165 166 165 165 168 166 167 167 166 168 167 165 166 166 167 165 
168 168 167 166 165 164 164 165 167 167 167 165 167 167 167 167 166 
165 166 165 166 166 166 165 166 166 166 166 168 167 165 164 166 166 
167 166 165 167 165 165 166 164 164 166 164 165 162 165 164 166 167 
164 165 165 165 165 166 165 163 164 165 164 163 165 165 165 165 164 
165 164 165 163 165 164 164 165 166 164 165 164 164 163 164 163 163 
162 164 162 163 162 161 163 163 162 161 163 162 162 161 159 161 161 
160 161 160 162 159 161 161 161 162 161 163 163 161 158 161 160 161 
161 162 162 161 163 163 161 163 161 163 164 164 163 163 163 162 161 
163 164 163 163 163 163 163 164 165 164 164 164 162 163 165 165 165 
164 163 164 164 161 162 164 164 166 165 165 165 162 165 165 165 165 
165 165 166 166 165 166 166 165 167 166 166 164 166 167 166 165 166 
167 167 164 166 166 166 166 167 168 167 165 166 168 170 167 167 167 
168 165 167 166 166 167 167 167 166 167 167 165 164 168 168 166 166 
164 168 165 165 166 166 165 167 164 167 167 166 165 167 166 167 165 
164 165 164 165 166 165 165 166 166 164 165 164 165 165 164 167 166 
166 164 164 166 165 165 164 165 165 165 163 162 165 163 165 166 164 
164 164 165 164 162 162 166 164 164 164 166 165 163 162 163 162 164 
162 163 162 163 161 162 164 164 165 164 163 162 163 163 160 162 162 
161 162 161 159 162 163 163 161 161 161 161 160 161 