/* XPM */
static char *top_02_01[] = {
/* width height num_colors chars_per_pixel */
"   300   132      125            2",
/* colors */
".. c #ffffff",
".# c #fafafa",
".a c #f6f6f6",
".b c #f5f5f5",
".c c #f2f2f2",
".d c #ededed",
".e c #ebebeb",
".f c #ebebeb",
".g c #e8e8e8",
".h c #e2e2e2",
".i c #e3e3e3",
".j c #e0e0e0",
".k c #dbdbdb",
".l c #dadada",
".m c #dadada",
".n c #d7d7d7",
".o c #d6d6d6",
".p c #d2d2d2",
".q c #d2d2d2",
".r c #cfcfcf",
".s c #d1d1d1",
".t c #d2d2d2",
".u c #cccccc",
".v c #cecece",
".w c #c8c8c8",
".x c #c8c8c8",
".y c #c5c5c5",
".z c #c3c3c3",
".A c #c5c5c5",
".B c #c1c1c1",
".C c #c0c0c0",
".D c #bebebe",
".E c #bcbcbc",
".F c #bdbdbd",
".G c #bcbcbc",
".H c #bcbcbc",
".I c #b9b9b9",
".J c #b6b6b6",
".K c #b5b5b5",
".L c #bababa",
".M c #b3b3b3",
".N c #b3b3b3",
".O c #b2b2b2",
".P c #afafaf",
".Q c #b0b0b0",
".R c #b0b0b0",
".S c #b0b0b0",
".T c #b3b3b3",
".U c #b0b0b0",
".V c #acacac",
".W c #acacac",
".X c #acacac",
".Y c #a9a9a9",
".Z c #aaaaaa",
".0 c #a7a7a7",
".1 c #a5a5a5",
".2 c #a5a5a5",
".3 c #a5a5a5",
".4 c #a7a7a7",
".5 c #aaaaaa",
".6 c #a7a7a7",
".7 c #a5a5a5",
".8 c #a2a2a2",
".9 c #a0a0a0",
"#. c #a0a0a0",
"## c #9f9f9f",
"#a c #999999",
"#b c #9d9d9d",
"#c c #a1a1a1",
"#d c #9b9b9b",
"#e c #969696",
"#f c #969696",
"#g c #949494",
"#h c #929292",
"#i c #969696",
"#j c #949494",
"#k c #8e8e8e",
"#l c #8a8a8a",
"#m c #8a8a8a",
"#n c #919191",
"#o c #848484",
"#p c #838383",
"#q c #828282",
"#r c #898989",
"#s c #808080",
"#t c #7f7f7f",
"#u c #7b7b7b",
"#v c #7b7b7b",
"#w c #808080",
"#x c #787878",
"#y c #767676",
"#z c #767676",
"#A c #757575",
"#B c #757575",
"#C c #727272",
"#D c #717171",
"#E c #747474",
"#F c #6a6a6a",
"#G c #636363",
"#H c #666666",
"#I c #5e5e5e",
"#J c #6a6a6a",
"#K c #5a5a5a",
"#L c #525252",
"#M c #525252",
"#N c #575757",
"#O c #4c4c4c",
"#P c #474747",
"#Q c #404040",
"#R c #464646",
"#S c #3c3c3c",
"#T c #373737",
"#U c #414141",
"#V c #333333",
"#W c #2f2f2f",
"#X c #333333",
"#Y c #292929",
"#Z c #252525",
"#0 c #282828",
"#1 c #1f1f1f",
"#2 c #1a1a1a",
"#3 c #141414",
"#4 c #111111",
"#5 c #080808",
"#6 c #000000",
/* pixels */
".........................................................................................c#4#6.2.2#a#.#.#.#.#.#.#.#.#.#.#.#.#.#.#.#.#.#.#.#.#.#.#.#.#.#.#.#.#.#.#.#.#.#.#.#.#.#.#.#.#.#.#.#.#.#.#.#.#.#.#.#.#.#.#.#.#.#.#.#.#.#.#.#.#.#.#.#.#.#.#.#.#.#.#.#.#.#.#.#.#.#.#.#.#.#.#.#.#.#.#.#.#.#.#.#.#.#.#.#.#.#.#.#.#.#.#.#.#.#.#.#.#.#.#.#.#.#.#.#.#.#.#.#.#.#.#.#.#.#.#.#.#.#.#.#.#.#.#.#.#.#.#.#.#.#.#.#.#.#.#.#.#.#.#.#.#.#.#.#.#.#.#.#.#.#.#.#.#.#.#.#.#a#g#g#o#u#C#H#K#Q#V#1#5#6#6#6#6#6#6#6#6#6#6#6#6#6#6#2#Y#T#F#..G.f.........#.f.h.h.f.d.d.d.d.d.d.d.d.d.d.d.d.d.d.a.a.a.a.a.a.a.a.a.d.d.d.d.d.d.d.d.d.a.a.a.a",
".........................................................................................b#6#1...................................................................................................................................................................................................................................................................................................................................................................................b.e.e.j.n.u.2#o#H#Q#1#6#6#6#6#6#6#6#6#6#6#6#4#2#G#h.G.#.......d.f.f.f.f.d.d.d.d.d.d.d.d.d.d.a.a.a.a.a.a.a.a.a.a.a.a.a.a.a.a.a.a.a.a.a.a",
".........................................................................................b#6#4.........................................................................................................................................................................................................................................................................................................................................................................................................e.e.y#g#H#S#5#6#6#6#6#6#6#6#6#6#4#T#q.W.f.....#.f.h.h.h.h.f.f.f.f.f.f.f.f.f.f.d.d.d.d.a.a.a.a.a.a.a.a.a.a.a.a.a.a",
".........................................................................................b#6#4.....................................................................................................................................................................................................................................................................................................................................................................................................................a.a.y#m#M#3#6#6#6#6#6#6#6#6#5#T#x.G.#.#.#.f.h.h.h.h.h.g.g.g.d.d.d.d.d.d.d.a.a.a.a.a.a.a.a.a.a.a.a.a.a",
".........................................................................................b#6#4...................................................................................................................................................................................................................................................................................................................................................................................................................................E#u#Q#6#6#6#6#6#6#6#6#5#L#f.l.#.f.f.f.l.l.l.l.l.h.h.h.h.h.h.h.h.h.h.h.f.d.d.d.d.d.d.d.d",
".........................................................................................c#6#4...........................................................................................................................................................................................................................................................................................................................................................................................................................................u#m#Q#6#6#6#6#6#6#6#6#T#q.x.f.#.#.f.l.l.l.l.l.l.l.l.l.l.l.l.l.l.h.f.f.f.f.f.f.f",
".........................................................................................b#6#4....................#j#E.H.................e.s.A.s.A.i...........e.s.A.s.A.i...........i.b.................v#E#r.A.............b.b...................e.................e.b.................................e.e.......b.........o.............i.A.s.v.v.b...........e.s.A.o...................................5#E.A...............e...........b.s.A.o.i.s.A.s.............i.v.v.v.v.b...............................................................y#m#V#6#6#6#6#6#6#6#Z#F.G.f.#.#.f.l.l.l.h.h.f.h.h.h.h.h.h.f.f.f.f.f.f.f",
"...........................................#.#.#.#.#.#.#.#.#.#.#.#.#.#.#.#.#.#.#.#.#.#...c#6#4.................b#X#X#N#0#U.............b#X#0#X#X#0#j.........b#U#0#U#X#0#r..........#U#E..............#E#0#U#U#X............#N#N................#j#E................#U#E................................#E#X.o....#U.s.....6#0.b.........i#0#X#X#X#X.A.........i#X#X#X#0#N..............................#N#0#N#X.b...........A#X.H.........A#X#X#X#0#X#0#X...........H#0#X#X#X#X.o.....................................................................e.2#K#6#6#6#6#6#6#6#1#z.x.a.....f.l.l.l.l.l.l.l.l.l.l.l.l.h.h.h.h",
".....................................a.a.a.a.a.a.a.a.a.a.a.a.a.a.a.a.a.a.a.a.a.a.a.a.a...b#6#4................#X#N......#0#j...........b#U.5.................b#U#j...b..............#N#r............#j#0.e..................#E#E................#U#X................#N#r.................................i#X.H....#X#E....#N#N...........i#0...................o#U.H....#X#r...........................H#0.....e.............s#U.A...........b...A#U.b...............H#X.......................................................................................y#C#1#6#6#6#6#6#6#Y#q.m.....#.h.l.h.h.h.h.h.h.h.h.h.h.h.h",
"...........................#.#.#.#.#.#.#.#.a.a.a.a.a.a.a.a.a.a.a.a.a.a.a.a.a.a.a.a.a.a...c#6#4...............A#X.i......#j#X...........e#N.b.................b#N.A..................#N#r............#X#r....................#E#E...............e#U#X.A..............#N#r..................................#U#E....#X#0....#X.T...........i#0...................s#N......#X#r...........................H#0...................s#N.A...............v#U.b...............H#U.............................................................................................u#u#2#6#6#6#6#6#5#S.M.a.....d.d.d.d.d.d.d.d.d.d.d.d",
".......................#.#.#.#.#.#.a.a.a.a.a.a.a.a.a.a.a.a.a.a.a.a.a.a.a.a.a.a.a.a.a.a...b#6#4..............#r#X.........i#0...........b#U#X#U#X.A............#N#0#U#X.T............#N#r...........i#0......................#E#E..............#E#j#r#E..............#N#r..................................#r#U..#E.5#0...b#0.............i#0#N#U#N.e...........i#U#X#X#X.5..............................#U#0.A...............s#N.A...............A#U.b...............A#X#U#U#U.............................................................................................u#F#6#6#6#6#6#6#3#F.p.....a.f.f.f.c.c.c.a.a.a",
"...............................#.a.a.a.a.a.a.a.a.a.a.a.a.a.a.a.a.a.a.a.a.a.a.a.a.a.a.a...c#6#4..............#E#U.........b#0...........b#U#N.5#r.i...........b#N#N.T#r.o............#N#r...........s#0......................#E#E..............#X...b#U.o............#N#r...................................o#0..#X..#E#j.T#U.............i#0.H#r#j.b...........o#U#j...6#X.A..............................#r#0#U.............s#N.A...............A#U.b...............A#X#j#j#r...................................................................................................E#Q#6#6#6#6#6#6#W.8.#...f.l.h.h.h.h.h.h",
"...........................#.a.a.a.a.a.a.a.c.c.c.c.c.c.c.c.c.c.c.c.c.c.c.c.c.c.c.c.c.c...c#6#4..............#j#X.........A#0...........e#U.A.................b#U.5..................#N#r...........i#0.i....................#E#E.............A#U....#X.A............#N#r....................................#U#E#U...s#X#N#r.............i#0...................o#U.o....#E#U.b................................#X#j...........s#N.A...............A#U.b...............H#X..............................................................................................................#o#6#6#6#6#6#6#4#q.f...h.l.l.l.l.l",
".........................#.a.a.a.a.a.a.a.c.c.c.c.c.c.c.c.c.c.c.c.c.c.c.c.c.c.c.c.c.c.c...b#6#3................#0.A......#N#X...........b#U.H.................b#U#j..................#N#r............#0#N....................#E#E............#N#X#X#U#0#N............#N#r.....................................6#0#r....#0#0.b.............i#0...................o#U.A....#j#X.i................................#r#N...........s#N.A...............A#U.b...............H#X...................................................................................................................u#Q#6#6#6#6#6#6#C.f...a.h.h.h",
".......................#.a.a.a.a.a.a.a.c.c.c.c.c.c.c.c.c.c.c.c.c.c.c.c.c.c.c.c.c.c.c.d...b#6#3................#E#0.b..#j#0.i...........b#U.H.................b#U#j..................#N#r.............v#0.6....#N#E..........#E#E...........b#X.e.....i#X.i..........#N#E...o.o.b.............................b#0.v....#N#X...............i#0...o.o.o.b.........o#U.i...i#0#r...........................i#j....#0.6...........s#U.A...............A#X.b...............H#X.e.i.o.o................................................................................................................#C#6#6#6#6#6#6#F.d...#.a",
".....................#.#.a.a.a.a.a.a.a.a.d.d.d.d.d.d.d.d.d.d.d.d.d.d.d.d.d.d.d.d.d.d.d...b#6#2..................#r#0#0#0.i.............b#U.H.................b#N#j..................#N#r...............i#0#0#0#U............#E#E..........#E#U.b......#0.5..........#E#0#0#0#0#j..............................#E.i.....v#E...............e#0#0#0#0#0.H.........e#U#0#0#0.A.............................o#0#0#0#E.............v#U.A...............H#X.e...............A#X#0#0#0#0.s..................................................................................................................#.#6#6#6#6#6#6#L.k..",
".....................#.a.a.a.a.a.a.a.c.c.c.d.d.d.d.d.d.d.d.d.d.d.d.d.d.d.d.d.d.d.d.d.d...c#3#6#R#R#R#R#R#R#R#R#R#J#w#w#n#J#R#R#R#R#R#R#R#w#J#R#R#R#R#R#R#R#R#J#i#w#R#J#J#J#J#J#J#J#R#c#n#J#J#J#J#J#J#J#n.H#c#c.L#w#J#J#J#J#w.6.6#w#w#w#w#w.6.A#n#w#w#w.t.6#w#n#n#n#n.A.i.i.i.i.H#n#i#i#i#i#i#c#c#c#c#c#c#c#c.6.A.T.6.6.A.A.T.T.T.T.T.T.T.A...........s.T.H.H.H.v.........i.A.A.A.A.v.v.v.v.v.s.s.s.s.s.b...e.....i.i.i.i.i.i.b.....i.i.e.e.e.e.e.......b.b.b.b.b.........................................................................................................................................Y#2#6#6#6#6#6#O",
".................a.a.a.a.a.a.a.a.a.a.a.c.c.d.d.d.d.d.d.d.d.d.d.d.d.d.d.d.d.d.d.d.d.d.d...c#4#6#w#w#w#w#w#w#w#w#w#w#w#w#w#w#w#w#w#w#w#w#w#w#w#w#w#w#w#w#n#n#n#n#w#n#n#n#n#n#n#n#n#n#n#n#n#i#i#i#i#i#i#i#i#i#c#c#n#c#c#c#c#c#c#c#c.6.6.6.6.6.6.6.6.6.6.6.6.6.T.T.T.T.T.T.6.6.6.6.T.H.H.H.H.H.H.H.H.H.H.H.H.H.H.H.A.A.A.A.A.A.A.A.A.A.v.v.v.v.A.A.A.A.A.v.v.s.s.s.s.v.v.v.v.s.o.o.o.o.o.i.i.i.i.i.i.i.i.i.i.i.b.i.i.i.i.i.e.e.e.e.i.e.b.b.b.b.b.b.b.b.b.b.b.b.b.b...............................................................................................................................................R#1#6#6#6#6",
"...............#.#.#.a.a.a.a.a.a.c.c.c.d.d.d.d.d.d.d.d.d.d.d.d.d.d.d.d.d.d.d.d.d.d.d.g...c#5#6#J#J#J#J#J#J#J#J#J#J#J#J#J#w#w#w#w#w#w#w#w#w#w#w#w#w#w#w#w#w#w#w#w#w#w#w#w#w#w#n#n#n#n#n#n#n#n#n#n#i#i#i#i#i#i#i#i#i#i#i#i#c#c#c#c#c#c#c#c#c#c.6.6.6.6.6.6.6.6.6.6.6.T.T.T.T.T.T.T.T.T.T.T.T.H.H.H.H.H.H.H.H.H.H.H.H.H.A.A.A.A.A.A.A.A.A.A.v.v.v.v.v.v.v.v.v.v.v.v.s.s.o.o.o.o.o.o.o.i.i.i.i.i.i.i.i.i.i.i.i.i.i.i.i.i.i.i.i.e.e.e.b.b.b.b.b.b.b.b.b.b.b.b.b.b.b.b.................................................................................................................................................M#Y#6#6",
".................a.a.a.a.a.a.a.a.a.c.d.d.d.d.d.f.f.f.d.d.d.d.d.d.d.d.d.d.d.d.d.d.d.d.g...c#4#6#J#J#J#J#J#J#J#J#J#J#J#J#J#J#J#J#J#J#J#J#J#J#J#w#w#w#w#w#w#w#w#w#w#w#w#w#w#w#w#w#w#w#w#w#w#w#n#n#n#n#n#n#i#i#i#i#i#i#i#i#i#i#i#c#c#c#c#c#c#c#c#c#c#c#c#c.6.6.6.6.6.6.6.6.T.T.T.T.T.L.L.L.L.L.L.L.L.L.L.L.L.L.H.H.H.H.H.H.H.A.A.A.A.A.t.t.t.t.t.t.t.t.t.t.t.t.t.t.t.t.t.t.t.t.t.o.o.o.i.i.i.i.i.i.i.i.i.i.i.i.i.i.i.e.e.e.b.b.b.b.b.b.b.b.b.b.b.b.b.b.b.b.b.b.b.b.b.....................................................................................................................................................R#V",
"...............a.a.a.a.a.a.a.a.a.c.d.d.d.d.d.f.f.f.f.f.f.f.f.f.f.f.f.f.f.f.f.f.f.f.f.g...c#6#6.4.4.7.7.7.7.7.7.7.7.7.7.7.7.7.7.7.7.7.7.7.7.7.7.7.4.4.4.4.4.4.4.4.4.4.4.4.4.4.4.4.4.4.4.4.4.4.4.4.4.4.4.4.4.4.4.4.4.4.4.4.4.4.4.4.4.4.4.4.4.4.4.4.4.4.4.4.4.4.4.4.4.4.4.4.4.4.4.4.G.G.G.G.G.G.G.G.G.G.G.G.G.G.G.G.G.G.G.G.G.G.G.G.G.G.G.G.G.G.G.G.G.G.G.G.G.G.G.G.G.G.G.G.C.C.C.C.C.C.C.C.C.C.C.C.C.C.C.C.C.C.C.C.C.C.C.C.C.C.C.C.C.C.C.r.U.m............................................................................................................................................................................",
".................a.a.a.a.a.a.c.c.d.d.d.d.d.f.f.g.g.g.g.g.g.g.g.g.g.g.g.f.f.g.g.g.g.g.g...c#6#5.J.J.J.J.J.J.J.J.J.J.J.J.J.J.J.J.J.J.J.J.J.J.J.J.J.J.J.J.J.J.J.J.J.J.J.J.J.J.J.J.J.J.J.J.J.J.J.J.J.J.J.J.J.J.J.J.J.J.J.J.J.J.J.J.J.J.J.J.J.J.J.J.J.J.J.J.J.J.J.J.J.J.J.J.J.J.J.J.J.J.J.J.3.3.J.J.J.3.3.3.3.3.3.3.3.3.3.3.3.3.3.3.3.3.3.3.3.3.3.3.3.3.3.3.3.3.3.3.3.3.3.3.3.3.3.3.3.3.3.3.3.3.3.3###########################################D.F............................................................................................................................................................................",
".............a.a.a.a.a.a.a.a.d.d.d.d.d.d.d.g.g.g.g.g.g.g.g.g.g.g.g.g.g.g.g.g.g.g.g.g.h...c#6#5.K.K.X.X.Z.Z.Z.Z.Z.Z.Z.X.X.X.X.X.X.X.X.X.X.X.X.X.X.X.X.X.X.X.X.X.X.X.X.X.X.X.X.X.X.X.X.X.X.X.X.X.X.X.X.X.X.X.X.X.X.X.X.X.X.X.X.X.X.X.X.X.X.X.Q.Q.Q.Q.Q.Q.Q.X.X.X.X.X.X.X.X.Q.Q.Q.Q.Q.Q.Q.Q.Q.U.U.S.S.S.S.S.S.S.S.X.X.X.S.K.K.K.K.K.K.K.K.K.U.U.S.K.K.K.K.U.U.U.S.S.S.S.S.S.S.S.X.X.K.K.S.S.S.S.S.S.S.S.S.S.S.S.S.S.S.S.S.S.S.S.S.S.S.S.S.K#k.r............................................................................................................................................................................",
"...............a.a.a.a.c.c.c.c.d.d.d.d.d.g.g.g.g.g.g.g.g.g.g.g.g.g.g.g.g.g.g.g.g.g.g.h.#.d#6#5.F.F.X.X.S.S.S.S.S.S.S.X.X.X.X.X.X.X.X.X.X.X.X.X.Q.Q.Q.Q.Q.Q.Q.Q.Q.Q.Q.Q.Q.Q.V.V.V.V.S.S.S.S.S.S.S.S.S.S.S.S.S.S.S.S.S.S.S.S.S.S.S.S.S.S.S.S.S.S.S.S.S.S.S.Q.Q.Q.Q.S.S.S.S.S.S.S.S.S.S.S.V.S.U.U.S.S.S.S.S.S.S.S.S.S.S.S.S.S.S.S.S.S.S.S.S.S.S.S.Q.Q.Q.Q.Q.Q.Q.Q.V.V.Q.Q.Q.Q.Q.Q.Q.Q.Q.Q.Q.Q.S.S.S.S.S.S.S.S.S.S.S.S.S.S.S.S.X.X.X.X.S.S.S#k.r............................................................................................................................................................................",
"...............a.a.a.c.c.c.d.d.d.d.d.d.g.g.g.h.h.h.h.h.h.h.h.h.h.h.h.h.h.h.h.h.h.h.h.h.#.d#6#5.F.F.X.X.X.X.X.X.X.X.X.X.X.X.X.X.X.X.X.X.X.X.X.X.X.X.X.Q.Q.Q.Q.Q.Q.Q.Q.Q.Q.Q.Q.Q.Q.Q.S.S.S.S.S.S.S.S.S.S.S.S.S.S.S.S.S.S.S.S.S.S.S.S.S.S.S.S.S.S.S.S.U.U.U.X.X.X.X.S.S.S.S.S.S.S.S.S.S.S.S.S.S.S.S.V.X.S.S.S.S.S.S.S.S.S.S.S.S.S.S.S.S.S.S.S.S.Q.Q.Q.Q.Q.Q.Q.Q.Q.V.Q.Q.Q.Q.Q.Q.X.X.X.X.S.S.S.S.S.S.S.X.X.X.X.X.S.S.S.S.S.S.S.S.S.S.S.S.S.S#e.r............................................................................................................................................................................",
".............#.a.a.a.a.a.c.d.d.d.d.d.d.g.g.g.h.h.h.h.h.h.h.h.h.h.h.h.h.h.h.h.h.h.h.h.h.#.d#6#5.F.F.X.X.X.X.X.X.X.X.X.S.S.S.S.S.S.S.S.S.X.X.X.X.X.X.X.Q.Q.Q.Q.Q.Q.Q.Q.Q.Q.Q.Q.Q.Q.Q.S.S.S.S.S.S.S.S.S.S.S.S.S.S.S.S.S.S.S.S.S.S.S.S.S.S.S.S.S.S.S.U.U.U.U.U.U.U.U.S.S.S.S.S.S.S.S.S.S.S.K.Q.Q.Q.Q.Q.Q.S.S.S.S.S.S.S.S.S.S.S.S.S.S.S.S.S.S.S.S.S.S.S.S.S.S.S.S.S.V.V.S.S.S.S.S.S.S.S.X.X.X.X.S.S.X.X.S.S.S.S.S.S.S.S.S.S.S.S.S.S.S.S.S.S.S#e.r............................................................................................................................................................................",
"...............a.a.a.a.a.d.d.d.d.d.d.d.g.h.h.h.h.h.h.h.h.h.h.h.h.h.h.h.h.h.h.h.h.h.h.h.#.f#6#5.F.F.X.X.X.X.X.X.X.X.X.X.X.X.X.X.X.X.X.X.X.X.X.X.X.X.X.Q.Q.Q.Q.Q.Q.Q.Q.Q.Q.Q.Q.Q.Q.Q.S.S.S.S.S.S.S.S.S.S.S.S.S.S.S.S.S.S.S.S.S.S.S.S.S.S.U.U.U.U.U.U.U.U.S.S.S.S.S.S.S.S.S.S.S.S.Q.Q.Q.Q.D.N.N.N.Q.Q.Q.Q.Q.S.U.U.S.S.S.S.S.S.S.S.S.S.S.S.S.S.S.S.S.S.S.S.S.S.S.S.S.X.X.S.S.S.S.S.S.S.Q.Q.Q.Q.S.S.S.S.S.S.S.S.S.X.X.X.X.X.X.X.S.S.S.S.S.S.S#e.r............................................................................................................................................................................",
".............a.a.a.c.c.c.d.d.d.d.d.d.g.g.h.h.h.h.h.h.h.h.h.h.h.h.h.h.h.h.h.h.h.h.h.h.h.#.f#6#5.F.K.X.X.X.X.X.X.X.X.X.X.X.X.X.X.X.X.X.X.X.X.X.X.X.X.X.X.X.X.S.S.S.S.S.S.S.S.S.S.S.S.Q.Q.Q.Q.Q.Q.Q.Q.Q.Q.U.U.U.Q.Q.Q.Q.Q.Q.Q.Q.Q.Q.X.X.X.X.X.X.U.U.S.Q.Q.Q.Q.Q.Q.Q.Q.Q.Q.Q.N.N.N.S.F.K.K.r.F.F.X.K.Q.Q.K.K.U.U.U.S.S.S.S.S.S.S.S.S.S.S.S.S.S.S.S.S.S.S.S.S.S.S.S.S.S.S.S.S.S.S.S.S.S.S.S.S.S.S.S.S.S.X.X.X.X.X.X.X.X.X.X.X.X.X.X.X.X.X.X.S#e.r............................................................................................................................................................................",
".............a.a.a.a.a.d.d.d.d.d.g.g.g.h.h.h.h.h.h.h.h.h.h.h.h.h.h.h.h.h.h.h.h.h.h.h.h.#.f#6#5.F.F.X.X.X.X.X.X.X.X.X.X.X.X.X.X.X.X.X.X.X.X.X.X.X.X.X.X.X.X.S.S.S.S.X.X.S.S.S.S.S.S.S.S.S.S.X.S.S.Q.Q.Q.U.U.U.Q.Q.Q.Q.Q.Q.Q.Q.Q.Q.Q.Q.Q.Q.S.S.S.S.S.S.S.S.S.S.S.S.S.S.S.S.S.X.X.X.X.X.X#B#B.U.F.U.U.U.U.U.U.S.S.S.S.S.S.S.S.S.S.S.S.S.S.S.S.S.S.S.S.S.S.S.S.S.S.S.S.S.S.S.S.S.S.S.S.S.S.S.S.S.S.S.S.X.X.X.X.X.X.X.X.S.S.S.S.S.S.S.S.S.S.S#e.r............................................................................................................................................................................",
"...........#.#.#.#.c.c.d.d.d.d.d.d.g.h.h.h.h.h.h.h.h.h.h.h.h.h.h.h.h.h.h.h.h.h.h.h.h.m.#.f#6#5.F.F.X.X.X.Q.Q.Q.Q.Q.Q.Q.Q.Q.Q.Q.X.X.X.X.X.X.X.X.X.X.X.X.X.X.S.S.S.S.X.X.S.S.S.S.S.S.Q.Q.Q.Q.Q.Q.Q.Q.Q.Q.U.U.U.U.Q.Q.Q.Q.Q.Q.Q.Q.Q.Q.S.S.S.S.S.S.S.S.S.S.S.S.S.S.S.S.K.K.K.K.K.X.Z.G.W.G#f#x#f.G.U.U.C.F.F.K.X.X.K.K.S.S.S.S.S.S.S.S.S.S.S.S.S.S.S.S.S.S.S.S.S.S.S.S.S.S.S.S.S.S.S.S.S.S.S.S.S.S.S.S.Q.Q.Q.Q.Q.Q.Q.Q.Q.Q.Q.S.S.S.S.S.S.S.S#e.r............................................................................................................................................................................",
"...........#.a.a.a.a.d.d.d.d.d.d.g.h.h.h.h.h.m.m.m.m.m.m.m.m.m.m.m.m.m.m.m.h.h.h.h.h.m.#.f#6#5.F.F.X.X.X.X.X.X.X.X.X.X.X.X.X.X.Q.Q.Q.Q.Q.Q.Q.Q.Q.Q.Q.S.S.S.S.S.S.S.S.S.S.S.S.S.S.S.Q.Q.Q.Q.Q.Q.Q.Q.S.S.S.S.S.S.S.Q.Q.Q.Q.Q.Q.Q.Q.S.S.S.S.S.S.Q.Q.S.S.S.X.X.K.K.K.K.K.K.K.K.r.f.f.w.#...f#x#m#q#f#f#f#f#d.Q.Q.Q.Q.N.N.N.S.S.S.S.S.S.S.S.S.S.S.S.S.S.S.S.S.S.S.S.S.S.S.S.S.S.S.S.S.S.S.S.S.S.S.S.S.S.S.S.S.S.S.S.S.S.S.S.S.S.S.S.S.S.S.S.K#e.r............................................................................................................................................................................",
"...........#.#.#.c.c.c.d.d.d.d.d.g.g.h.h.h.h.m.m.m.m.m.m.m.m.m.m.m.m.m.m.m.m.m.m.m.m.m.a.h#6#5.F.F.X.X.X.X.X.X.X.X.X.X.X.S.X.X.X.X.K.S.Q.Q.Q.Q.Q.Q.Q.S.S.S.S.S.S.S.S.S.S.S.S.S.S.S.N.N.N.Q.Q.Q.Q.Q.Q.Q.Q.Q.V.V.V.V.V.Q.Q.Q.Q.Q.Q.S.S.S.Q.Q.Q.Q.Q.S.S.Q.Q.Q#d.Z.8#d#f.8#B#L#q.8.I#F.M.k.q#s.0.0#.#f#f#l#l.Z.K.N.N.N.U.U.S.S.S.S.S.S.S.S.S.S.S.S.S.S.S.S.S.S.S.S.S.S.K.K.K.S.S.X.Q.Q.Q.Q.Q.Q.S.S.S.S.S.S.S.S.S.S.S.S.S.S.S.S.U.S.S.S.S.S.S#b.r............................................................................................................................................................................",
".............a.a.a.a.d.d.d.d.d.g.g.h.h.h.h.h.m.m.m.m.m.m.m.m.m.m.m.m.m.m.m.m.m.m.m.m.m.#.h#6#5.F.F.X.X.X.X.X.X.X.X.X.X.S.S.X.X.X.X.S.S.S.S.S.S.S.S.S.S.S.S.S.S.S.S.S.S.S.S.S.S.S.S.U.U.U.N.N.N.N.N.N.Q.K.Q.Q.Q.V.V.Q.X.X.X.S.S.S.S.Q.Q.Q.Q.Q.Q.Q.Q.Q.Q.Q.F#f#B#q#h#q#h#x#L#P#O#O#T#W#T#L#I#F#o#u#u#f#l.8.U.C.K.K.K.K.K.Q.Q.Q.N.N.N.N.K.K.Q.Q.Q.U.U.U.S.S.S.S.S.S.S.S.S.S.S.S.S.S.S.Q.Q.Q.Q.S.S.S.S.S.S.S.S.S.S.S.S.S.S.S.S.U.S.S.S.S.S.S#e.p............................................................................................................................................................................",
"...........a.a.a.a.a.d.d.d.d.d.g.g.h.h.h.h.m.m.m.m.m.m.m.m.m.m.m.m.m.m.m.m.m.m.m.m.m.m.d.h#6#5.F.F.X.X.X.X.X.X.X.X.X.X.X.X.X.X.X.X.S.S.S.S.X.S.S.S.S.Q.Q.Q.Q.Q.Q.Q.Q.Q.Q.Q.Q.Q.Q.Q.Q.Q.V.V.V.V.V.V.S.S##.X.F.F.F.F.K.K.K.K.X.X.S.S.S.Q.Q.Q.Q.Q.Q.Q.Q.Q.Q.S.N.W#f#s#m#m.w#g#M#s#Q#P.I#m#u#C#C#s#F#F#F#V#P.U.U.U.K.F.K.K.Q.Q.Q.N.N.N.N.N.N.N.N.U.U.U.U.N.N.N.N.N.Q.S.S.S.S.S.S.S.X.X.X.X.X.X.Q.Q.Q.Q.Q.Q.Q.Q.Q.Q.Q.Q.S.S.S.S.S.Q.Q.Q.Q.Q.K#e.p............................................................................................................................................................................",
".........#.a.a.a.a.c.d.d.d.d.g.g.h.h.h.h.m.m.m.m.m.m.m.m.m.m.m.m.m.m.m.m.m.m.m.m.m.m.m.d.h#6#5.F.F.X.X.X.X.X.X.X.X.X.X.X.X.X.X.X.X.X.X.X.Q.Q.Q.Q.Q.Q.Q.Q.Q.Q.Q.Q.Q.Q.Q.Q.Q.Q.Q.K.X.V.V.K.K.K.Q.K.X#d.r.Z.C#f#d.Z.U.U.U.N.C.K.K.S.U.U.U.Q.Q.Q.Q.Q.Q.Q.Q.K.X.r.r#l#q#h#l.w#O#3#I#2#h.j#h.y.E.M.M#a.7.I#m#G.O.O.C.X#f.K.U.S.S.X.X.K.Q.X.K.K.K.K.K.N.N.N.N.N.N.N.N.S.S.S.S.S.Q.Q.Q.Q.Q.Q.Q.Q.Q.Q.Q.Q.Q.Q.Q.Q.Q.Q.Q.Q.Q.Q.Q.Q.Q.Q.Q.Q.Q.Q.Q.K#b.p............................................................................................................................................................................",
".........#.#.#.c.c.d.d.d.d.g.g.g.h.h.h.m.m.m.m.m.m.m.m.m.m.m.m.m.m.m.m.m.m.m.m.m.m.m.p.f.h#6#5.F.F.Z.X.X.X.X.N.N.X.X.X.X.X.X.X.X.X.X.X.X.S.S.Q.Q.Q.Q.Q.Q.Q.Q.Q.Q.Q.Q.Q.Q.Q.Q.Q.Q.r.r.x.C.K.K.C.C.r...P.#..#q#h#l#f#f#f#f#l.Z.K.S.U.U.U.U.U.Q.Q.Z.Z.Z.Z.Z#d.C.r#q#f#l#q.h#z#F.P#..e.k.w.k.n.y#o#s#q#q#a#a#q.g#f.O.h.O.C.r.F.F.F.F.K.K.K.K.K.K.N.N.N.N.N.N.N.N.N.N.N.N.N.N.N.N.Q.Q.Q.Q.Q.Q.Q.Q.Q.Q.Q.Q.Q.Q.Q.Q.Q.Q.Q.Q.Q.Q.Q.Q.Q.Q.Q.Q.Q.Q#b.p............................................................................................................................................................................",
".........#.#.#.c.c.d.d.d.d.g.g.h.h.h.h.m.m.m.m.m.m.m.m.m.m.m.m.m.m.m.m.m.m.m.m.m.m.m.p.f.h#6#5.K.F.Z.Z.N.N.X.N.N.N.N.X.X.X.S.Q.Q.Q.Q.Q.Q.U.U.U.U.U.U.Q.Q.Q.Q.Q.Q.Q.Q.Q.Q.Q.Q.Q.D#k#B#l#l#x#G#l#l#f.h#P#l.Y#o#m#h#h#.#.#.#..W.N.K.X.X.X.Q.Q.Z.Z.Z.Z.N.D.r.O.r.G.I#l#q#x.P#..w.q.E.Y#.#.#g#a.n.R.q#..I.R#..8#h#G#q#q#x#l#l#d.X.X.D.F.N.K.K.K.K.N.N.N.N.N.N.N.N.N.N.N.Q.Q.Q.Q.Q.K.K.Q.Q.K.K.K.Q.Q.Q.Q.Q.Q.Q.Q.N.N.N.N.N.X.X.N.N.Q.Q.Q.Q.Q.Q#d.p............................................................................................................................................................................",
".........#.#.#.c.c.d.d.d.d.g.g.h.h.h.h.m.m.m.m.m.m.m.m.m.m.m.m.m.m.m.m.m.m.m.m.m.m.m.p.f.m#6#5.F.F.Z.Z.N.N.N.N.U.U.U.Q.Q.Q.Q.Q.Q.Q.Q.K.K.K.U.U.U.U.Q.Q.Q.Q.Q.Q.Q.Q.Q.Q.Q.N.Q.Q.F#k#G#x#q#l#l#P#G#x#P#C#z#K#F#I#I#H#H#I#I#z.O.D.K.Q.Q.Q.Q.Z.K.l.l.l.l.l.p#f#f#l.k.Y.w.q.w..#a#H#h#s#s#s#z#..##M#V.7#a#y.R.I#f.j#h.0.q#f.G#f#f#B#B#B.Z.N.N.N.N.N.N.N.N.N.N.N.N.N.N.N.N.Q.Q.Q.Q.K.K.Q.Q.K.K.K.Q.Q.Q.Q.Q.Q.Q.Q.N.N.N.N.N.Z.Z.N.N.N.Q.Q.Q.Q.N#e.p............................................................................................................................................................................",
".........a.a.a.a.a.d.d.d.d.g.h.h.h.h.m.m.m.m.r.r.r.r.r.r.r.r.r.r.r.r.r.r.r.r.r.r.r.r.r.f.m#6#5.F.F.Z.Z.U.U.U.U.U.U.U.U.Q.Q.Q.Q.Q.Q.Q.Q.U.U.U.U.U.U.Q.Q.Q.Q.Q.Q.Q.Q.Q.Q.V.V.S.S#d.l#d#f#B.G.W#W#z#T#4.n#..E#..B.M.Y.Y.Y#.#L#l.x.Z.Z.Q.Q.X.U.C#l#l#h#m#m#M.g...p#l#l.Y#l.d#s#h#h#q#m#h#h#s#..##V#5.I#1#K#H#1.7#1#C#C#I.0.0#a.u.I.k.P.P.N.N.N.N.N.N.N.N.N.N.N.N.N.N.N.N.N.N.N.S.S.S.S.S.S.S.S.U.U.U.U.U.U.U.U.N.N.N.N.X.X.X.U.U.U.U.U.U.U.U#e.p............................................................................................................................................................................",
".........a.a.a.a.c.d.d.d.g.g.h.h.h.h.m.m.m.m.r.r.r.r.r.r.r.r.r.r.r.r.r.r.r.r.r.r.r.r.r.f.m#6#5.F.F.Z.Z.U.U.U.U.U.U.U.Q.Q.Q.Q.Q.Q.Q.Q.Q.U.U.U.U.U.U.U.Q.Q.Q.Q.Q.Z.Q.Q.K.K.S.S.S#d.r#f#f#B.W.8#6#C#Y#I.d.w#z#H.Y.I#q#..Y#h#..I.l.D.D.D.F.F.C.C#x#x#l#m#m.Y#Q#h.q#z#G#P.a.w#6#H.Y#q#h#h#m#z#...#1#6#.#S.M#H#3#a#6.w#S#2.y#6#a#S#u#1#x.G.N.N.N.N.N.N.N.N.N.N.N.N.N.N.N.N.N.Q.Q.Q.Q.Q.Q.Q.Q.Q.Q.Q.Q.Q.Q.Q.Q.Q.Q.O.O.N.N.N.N.K.U.U.U.U.U.U.U.U#e.p............................................................................................................................................................................",
".........a.a.a.a.d.d.d.d.g.g.h.h.h.m.m.m.m.m.r.r.r.r.r.r.r.r.r.r.r.r.r.r.r.r.r.r.r.r.r.f.m#6#5.F.F.Z.Z.U.U.U.U.U.U.U.U.Q.Q.Q.Q.Q.Q.Q.Q.Q.Q.Q.Q.Q.Q.Q.Q.Q.Q.Q.Q.Q.Q.Q.Z#d.Z.Z.K.Z.m.O.8#G#..I.I.e.j.e.0.q#.#h#m#q#a#z#o#z#F#q#B#B#f#f#f#f.O.G#q#q#h#h#y.E#2#M.j#a#h#1#z...Y#h#h#h#h#h#.#h.Y.j#C#o#h#H.n#M#1#K#Y..#W#2.M#4.a#T#u#5.8.x.O.N.N.N.N.N.N.N.N.N.N.N.N.N.N.N.N.Q.Q.Q.Q.Q.Q.Q.Q.Q.Q.Q.Q.Q.Q.Q.Q.Q.Q.O.O.O.O.O.N.U.U.U.U.U.U.U.U.U#e.p............................................................................................................................................................................",
".........a.a.a.c.c.d.d.d.g.h.h.h.h.m.m.m.m.r.r.r.r.r.r.r.r.r.r.r.r.r.r.r.r.r.r.r.r.r.r.f.m#6#5.F.F.Z.Z.X.X.X.U.U.U.U.Q.Q.Q.Q.Q.Q.Q.Q.Q.Q.Q.Q.Q.Q.Q.Q.Q.Q.Q.Q.Q.Q.Q.Z.O.x.m.m.m.W.8#h.P#l.I.q.Y#C#C#C#I#a.w#P#h#h#u#..Y#..M.Y#l.W#l#l#f#G#l.w#q#s#h#h#g#u.B.a.M.I#h#q#x.g#a#a#l#a#a#h#m#m#..j.R.e.I.n.M.E.j.R.Y.w#z#z#h#H.j#S#F#F.B.W.N.N.N.N.N.N.N.N.N.N.N.N.N.N.N.N.N.Q.Q.Q.N.N.N.S.S.S.S.Q.Q.Q.Q.Q.Q.Q.Q.Z.Z.U.U.U.X.X.X.X.X.U.U.U.U.U#e.p............................................................................................................................................................................",
".........a.a.a.a.d.d.d.d.g.h.h.h.m.m.m.m.m.r.r.r.r.r.r.r.r.r.r.r.r.r.r.r.r.r.r.r.r.r.x.h.l#6#5.F.F.Z.Z.Q.Q.Q.Q.Q.Q.Q.Q.Q.Q.Q.Q.Q.Q.Q.Q.Q.Q.Q.Q.Q.Q.Q.Q.Q.Q.Q.Q.Q.Z.N.G#a#s#s#L#..#.Y#h#q.k#.#C#m#m#h#z.M.q#6#z#W#6.I#6#I#O#3#q#S#q#F#F#h#q.w#g#g#.#h#h#s#..a.I#T#l#G#G...e.2#z#h#s#m#h#s#...#Z#6#a#O#O#h#H#..Y#u.B.k.R.j#m.u.M.B.P.P.N.N.N.N.N.N.N.N.N.N.N.N.N.N.N.N.N.N.Q.Q.N.N.X.X.K.K.K.U.U.U.U.U.U.U.U.U.X.X.X.N.X.O.N.X.X.X.N.N.N.N#e.r............................................................................................................................................................................",
".........a.a.a.c.d.d.d.g.g.h.h.h.m.m.m.m.r.r.r.r.r.r.r.r.r.r.r.r.r.r.r.r.r.r.r.r.r.r.x.f.l#6#5.F.F.Z.Z.Q.Q.Q.Q.Q.Q.Q.Q.Q.Q.Q.Q.Q.Q.Q.Q.Q.Q.Q.Q.Q.Q.Q.Q.Q.Q.Q.Q.Q.Q.D.P#C#C#m.2#1.M#h#h#L#h#F#I#h#o#h#z.M.B#6#l#L#G.R#6#q#P#L#m#6#u#6#K#K#6.E#a#z#q#s#s#s#..q.q#.#h.P.I.q#6#C.Y#m#m#m#m#s#a..#S#3#.#2#m#M#6#a#6#.#W#6.M#6#m#C#a#z#l.G.N.N.N.N.N.N.N.N.N.N.N.N.N.N.N.N.Q.Q.Q.Q.U.U.K.K.X.U.U.U.U.U.U.U.U.U.K.K.X.X.X.X.Z.Z.Z.U.U.U.U.X.X.X#e.p............................................................................................................................................................................",
".........a.a.a.c.d.d.d.g.g.h.h.h.m.m.m.m.r.r.r.r.r.r.r.r.r.r.r.r.r.r.r.r.r.r.r.r.r.r.x.h.l#6#5.F.F.Z.Z.Q.Q.Q.Q.Q.Q.Q.Q.Q.Q.Q.Q.Q.Q.Q.Q.Q.Q.Q.Q.Q.Q.Q.Q.Q.Q.Q.Q.Q.Z.D.G#m#m#m.2#T#h.w#m#W#..#.I#q#h#h#m.M.M#h#.#l.B#o#z#h#q.Y#g#O#u#L.y#H#4.w#m#m#h#m#s.y#4#L.k#g#P#P.M.e#m#z#m#m#m#m#g#s.2.e#O#W#h#O.w#C#Z#z#Z.a#T#4.E#6.j#Y#H#6#q.x.N.N.N.N.N.N.N.N.N.N.N.N.N.N.N.N.Q.Q.Q.Q.O.O.O.O.O.Z.Z.O.O.O.O.O.O.O.O.O.D.D.D.D.D.K.K.K.X.X.X.X.X.N#e.r............................................................................................................................................................................",
".........a.a.a.c.d.d.d.g.h.h.h.m.m.m.m.r.r.r.r.x.x.x.x.x.x.x.x.x.x.x.x.r.r.r.r.r.r.r.x.l.l#6#5.F.F.Z.Z.Q.Q.Q.Q.Q.Q.Q.Q.Q.Q.Q.Q.Q.Q.Q.Q.Q.Q.Q.Q.Q.Q.Q.Q.Q.Q.Q.Q.Q.Z.K.C#l#s#g#C.B..#q#q#S.Y.k#a#q#h#m#C.Y.y#S#m#m#M#a#a#h#h#s#g.E#g.Y#a#m#..E#s#s#h#m#m#C.I.g.y.y#q#T#F...n.0#m#.#.#a#.#g.0.j.2.B#.#..B#m#m#q#x.g#G#L#a#M.b#Q#F#L.B.P.N.N.N.N.N.N.N.N.N.N.N.N.N.N.N.N.Q.Q.Q.Q.O.O.O.O.O.O.G.P.I.I.I.I.B#G#L#x#q#l#l#f#d.N.Z.Z.N.X.X.X.X.N#e.p............................................................................................................................................................................",
".........a.a.a.c.d.d.d.g.h.h.h.m.m.m.m.r.r.r.x.x.x.x.x.x.x.x.x.x.x.x.x.x.r.x.x.x.r.r.x.h.l#6#5.D.D.Z.Z.Z.Z.Z.Z.Q.Q.U.O.O.O.O.O.O.O.O.O.O.O.Q.Q.Z.Z.U.U.U.U.U.X.X.X.C.C#l#q#h#q#z.d#s#s#l.w#q#G#l#l#m#C.Y.k#6#F#V#6.I#6#G#P#3#u#3#u#P#P#u#O.E#h#m#h#h.Y#z.I...Y#F#h#F#F.c.w#.#u#h#h#m#m#s#h.d#C#H.R#.#z.R.M.M.E#a.M.q.0.y.Y.Y#..M.I.W.N.N.N.N.N.N.N.N.N.Q.Q.Q.Q.Q.Q.Q.O.O.O.Q.S.U.Z.O.7.z.u.I.q.q.y.E.R#H#I#H#L#O#O#S#S#T#P.O.O.X.X.X.O.O#d.p............................................................................................................................................................................",
".........a.a.a.d.d.d.g.g.h.h.h.m.m.m.m.r.r.r.x.x.x.x.x.x.x.x.x.x.x.x.x.x.x.x.x.x.x.x.x.h.r#6#5.D.D.Z.Z.Z.V.V.V.V.U.U.U.O.O.O.O.O.O.O.O.O.O.Q.Q.Q.Z.U.U.U.U.U.U.U.X.K.G#q#q#q.I#3#q.w#h#G.Y#.#x#l#l#m#s.R.w#4#m#L#F.P#6#C#P#H#o#6#y#5#t#K#6.E.9#y#l#l#h#C.Y.d.w#z#.#h#h.d#C#h#m#s#m#m#m#C#a.##Y#6#.#2#M#H#4#a#4#s#I#P.Y#M#s#a.Y#h#l.I.N.N.N.O.N.N.N.N.N.N.N.N.O.O.O.O.O.O.O.O.Q.U#d.D.w#.#m.B#I#q#F#a.n.M#P#G#Z#l.g.I.M#o#h.C.O.U.U.U.U.U#d.p............................................................................................................................................................................",
".........a.a.a.c.d.d.g.g.h.h.m.m.m.m.r.r.r.x.x.x.x.x.x.x.x.x.x.x.x.x.x.x.x.x.x.x.x.x.x.l.r#6#5.D.D.Z.Z.Z.Z.Q.Z.Z.N.Z.Z.O.O.O.O.O.O.O.O.O.Q.Q.Q.Q.Z.U.N.N.N.N.N.N.Z.N.O#l#s#h#q#z.q.B#h#W#h.d.Y#s#l#m#s.Y.M#a.Y#..I#h#.#.#h.M#a#m#m#y.z#t#S.E#m#o#h#m#u.E#1#M.q#g#z#G.w.k#3#H.Y#s#m#m#m#z#a.##S#4#a#V.Y#F#6#s#6.k#Z#6.B#6.y#V#C#6#q.G.O.U.U.U.U.U.U.U.U.N.N.N.N.N.N.N.O.O.O.Q.Q.N#d.x.m#f#x.G#P#x#z#..a.P#T#P#P.q...M.u.e.u.U.U.U.U.U.U.U#d.p............................................................................................................................................................................",
".........a.a.a.d.d.d.g.h.h.h.m.m.m.m.r.r.r.x.x.x.x.x.x.x.x.x.x.x.x.x.x.x.x.x.x.x.x.x.x.l.r#6#5.F.F.Z.Z.Z.V.V.V.V.X.Z.Z.Z.Z.Z.Z.Z.Z.Z.U.U.N.N.Q.Q.Z.Z.N.N.N.N.N.N.Z.N.G#l#s#h#I.I..#F#l#O.Y.d#h#x#q#q#C.0.w#3#z#z#W#h#F#z#m#I#u#u#C#C#I#I#s.w#z#z#s#s#s#I#o.n.j.M#x#Z#z...I#h#s#h#h#h#h#m#..j#C#C#g#H.q#z#S#F#P.c#O#1#.#Z..#V#H#S.I.I.Z.U.U.O.O.O.O.O.O.O.O.O.Q.Q.Q.Q.Q.Q.Q.Q.S.S#d.x.r#f#f.I#G#l#x#h.h#h#3#V#a.d#a#C.M.R.2#f#f#f.Z.Z.Z.U#d.p............................................................................................................................................................................",
".........a.a.a.c.d.d.g.h.h.h.m.m.m.r.r.r.r.x.x.x.x.x.x.x.x.x.x.x.x.x.x.x.x.x.x.x.x.x.D.l.r#6#5.K.D.Z.N.Q.V.V.V.V.V.U.Z.Z.Z.Z.Z.Z.Z.Z.Z.N.Q.Q.Q.Q.U.U.Q.Q.Q.Q.Q.Q.Z.N.G#l#s#q#.#S.M#h#s#h.q#L#P#a#q#m#C.Y.q#6#C#S#6.B#6#I#V#4#u#5#C#V#L#a#O.0#h#q#m#m#h#K.j.q#z#h#q#G#I.q.I#.#s#h#h#h#h#s#a.j.M.n.R.w.0.R.n.0.B.M#..I#.#..y#m#h#h.I.8.U.U.U.O.O.O.O.O.O.O.O.Z.Z.Z.Z#d#d#d#d#d#f.8#f.O.p.I#f.G#G#q#z.8.d.P#q.2.e.e.B.n.n.n.q.I.p.p.p.B#f#f#B.G............................................................................................................................................................................",
".........a.a.a.d.d.d.g.h.h.h.m.m.m.r.r.r.r.x.x.x.x.x.x.x.x.x.x.x.x.x.x.x.x.x.x.x.x.x.x.l.r#6#5.K.D.Z.Z.Z.V.V.V.V.V.U.Z.Z.Z.Z.Z.Z.Z.Z.Z.Z.Z.Z.Q.Q.Q.Q.Z.Z.Z.Z.N.N.Z.O.G#l#s#m#.#S.0.B#a#L#h.k#l#s#l#m#s.Y.w#3#s#I#u.Y#5#s#P#H...............y.q.j.e.j......#l#G#z#x#l#F#I.k.Y#z#m#m#m#m#C#h.c#S#6.2#O#O#u#K#a#F#s#h#m.M#.#m.E.E.E#h.P.N.N.N.O.O.O.O.Z.Z.O.O.N.x.p.p.r.r.m.h.h.d.d.k.k.q.e.I#q#q#l#l.I.h.B.f.b.b.j.c.c.j.j.j.j.j.M.E.q.0.M#l.q............................................................................................................................................................................",
".........a.a.a.d.d.d.g.h.h.m.m.m.m.r.r.r.x.x.x.x.x.x.D.D.D.D.D.D.x.x.x.x.x.x.x.x.x.x.D.l.r#6#5.K.K.Z.Z.Z.V.V.V.V.V.U.Z.Z.Z.Z.Z.Z.Z.Z.Z.Z.Z.Z.Q.Q.Q.N.Z.Z.Z.Z.O.O.Z.N.G#l#s#h#F.q.#.0#l#Z#a.g#.#s#h#h#s.0.I#..Y.Y.Y#h.Y#h#m.y...j#o#m#g#y#H#C#u#u#u#u#u#a.B#.#l#l#l#l#.#q#Z#I#.#s#s#s#m#z#h..#T#6.2#Y#m#K#6#.#6.M#Z#6.M#6#a#V#F#5#z.x.O.U.U.O.O.O.O.O.O.O.N.l.y.y.y.y.y.B.B.B.B.M.I.P.Y.M.M.x#q.P#h.M.M.M.w#z#I#s#C#C#C#C#H#H#L#L.w.j.Y.I#..k............................................................................................................................................................................",
".........a.a.c.d.d.d.g.h.h.m.m.m.p.r.r.r.x.x.D.D.D.D.D.D.D.D.D.D.D.D.D.D.D.D.D.D.D.D.D.l.r#6#5.N.K.Z.Z.Q.Q.Q.Q.Q.Q.U.U.Z.Z.Z.Z.Z.Z.Z.U.U.U.U.Z.Z.Z.Z.Z.Q.Q.Q.Q.Q.Z.C.B#m#s#m#s#m.c#G#h#C.Y.q#l#q#l#m#C.2.q#5#F#F#4#.#O#H#M#u...c#s#s#o#Q#4#3#Z#1#3#3#6#6#6#Z#W#L#T#Z#G.I#G#G#h#s#m#m#m#s#h.c#O#2#m#M.q#H#3#C#Y..#S#5.M#1..#Y#F#W.P.G.Z.U.U.O.O.O.O.U.U.U.U.l#y#S#I#I#M#M#H#H#L#s.....k#h#q.I#x#.#q.q...c...0#s#h#h#a#a#a#a#.#h#q.q.c#S#K#O#g............................................................................................................................................................................",
".........a.a.a.d.d.d.g.h.h.m.m.m.r.r.r.x.x.x.D.D.D.D.D.D.D.D.D.D.D.D.D.D.D.D.D.D.D.D.D.l.r#6#5.N.N.W.Z.Z.Z.V.V.V.V.U.U.Z.Z.Z.Z.Z.Z.Z.U.U.C.r.C.C.C.x.K.Z.Q.Q.Q.Q.Z.C.p#l#z#s.2#W.P.P#x#l.I#G#P#h#q#s#C#..n#6#I#W#6.M#6#P#C#6#Y#V#F#P#K#P#5#W#S#u#a#m#h#h#q#q#S#F#P#P#L.k.e#.#u#h#h#h#h#m#a.k#h.P.Y#h.M#.#g#o#m.u#u#u#a#s.j#K#q#h.B.W.O.U.O.O.Q.O.O.U.U.U.U.h#.#z#m#m#m#m#m#..0.0#F#..j.I.0#h.k.d#I.Y..#L#1#..R#a#a#a#a#a#h#h#m#z.q.a#Y#M#V#C............................................................................................................................................................................",
".........a.a.a.d.d.g.h.h.h.m.m.r.r.r.r.x.x.x.D.D.D.D.D.D.D.D.D.D.D.D.D.D.D.D.D.D.D.D.D.l.x#6#5.N.N.Z.Z.Z.Z.Z.Z.Z.Z.Z.Z.Z.Z.O.O.O.O.Z.N.Z#d#d#d#d#d#d.Z.O.Z.Z.Z.Z.Z.G.G#q#x#x#z#G.G.M#C#1#C.e#h#H#z#s#C#g.M#Y#u#F#o.R#Y#u.y#F#Y#O#L#P#z#G#T#L#L#..u.M.I.I.q.8#P#G#I#I#G.B.u#m#C#m#s#s#m#u#h.j#m#h.Y#.#o.R.M.M.M#m.M.y.Y.Y#o.y.I.M#a.P.O.O.O.O.O.Z.W.W.O.W.G.p#m#F#u#u#u#u#u#s#h.R#I#m.c.j.Y.j#F#L#5#o..#z#1#m.0#m#m#m#m#m#m#l#o#C.q.c#M#M#H.M............................................................................................................................................................................",
".........a.a.d.d.d.g.h.h.h.m.m.r.r.r.x.x.x.x.D.D.D.D.D.D.D.D.D.D.D.D.D.D.D.D.D.D.D.D.D.l.x#6#5.N.N.Z.Z.Z.Z.Z.Z.Z.Z.Z.Z.Z.Z.Z.O.W.8#f.W.W#Z#6#Z#3#3#3#q.x.8.W.W.W.W.W.Y#h#h#.#s.B.j.E.0#m.R.n.y.E.w.q.n.n.k.c.d.#.#.e.............k.d.##q#F#l#G#G#.#.#a#h.P#q#G#G#G#L#F.Y#I#z#s#z#s#s#s#z#h..#Y#6#h#1#I#I#6#g#6#a#O#5.I#2#m#K#m#V#F.B.O.O.O.O.O.O.O.G#f#x.8.P#o#o#o#o#s#s#C#C#s#m.R.0.E.E#g#g.M.k.k.c.#.M.Y.Y#a.2.2.2.2.2.2.Y#g#m.q.j#K#H#h.n............................................................................................................................................................................",
".........a.a.a.d.d.g.h.h.h.m.m.m.r.r.x.x.x.D.D.D.D.D.D.D.D.D.D.D.D.D.D.D.D.D.D.D.D.D.D.l.x#6#5.D.C.Z.O.O.O.O.O.O.O.O.O.O#d#f#l.8.B.B.B.n.7#a.R.R.M.I.k.c.c.g.g.g.d.d.d...........j.#.......j...............a.....c.c.c.j.n.n.q.q.q.p.a#q#G#l#z#z.I.I.M#..w#l#z#z#G#L#z.Y#S#P#h#x#s#s#m#z#h..#V#6#h#W.M#H#6#u#6.c#1#6.R#6.e#4#K#5#h.q.W.O.W.W.W.W.W.C#f#L#l.B#a.y.E.E.R.E.E.R#g#o#u#K#V#O#m#C#q#q#a#a#a#a#..I.B.B.I.I.I.I.M.I.E.0.q.q.M.E.Y.e............................................................................................................................................................................",
".........a.a.a.d.d.g.g.h.m.m.m.r.r.r.r.x.x.D.D.D.D.D.D.D.D.D.D.D.D.D.D.D.D.D.D.D.D.D.D.l.x#6#4.x.r.D.N.N.N.N.N.N.N.N.O#d.C.f.8.I.#.#.#.#.........#.#.c.j.y.y.n.u.E.0.B.B.M#a#a.M.R.Y#z#z#h#h#m#I#I#o#I#I#H#V#H#M#M#M#Z#Z#V#Y#5#I.M#l.8#G#L#G#I#G#s#s#F#s#z#I#G#G#G#L#I.Y.q#m#F#q#s#s#m#z#a.j#C#z#.#s.q#m#H#s#C.c#H#I.2#F..#M#u#m.y.Y.W.G.W#f#f#f#f.8#f#G.8.q.R.e.u.E.c.....u.R.2#a.R.y.y#a#a#z#F#F#C#s#C#m#h#h#.#a#a#a#a#h#a#a#o.w.j#t#m#F.M............................................................................................................................................................................",
".........a.a.a.d.d.g.h.h.m.m.m.m.r.x.x.x.D.D.D.D.D.D.D.D.D.D.D.D.D.D.D.D.D.D.D.D.D.D.D.l.D#6#5.Z.Z#d#d#d#f#f#f#f.Z.K.C.8.r.p#.#q#Q#M#x#x#O#T#L#O#W#Z#S#S#Y#Y#V#Y#Z#1#Z#1#4#Z#4#4#Z#6#W#3#6#3#6#W#W#6#Y#6#Y#Q#6#6#6#1#C#C#C#C#C#m#z#L#L#P#L#S#P#W#1#Z#3#T#1#T#W#W#L#P#L.I.w.0#C#q#q#q#m#z#g.n.R.q.P.I#h.Y.w.0.M#a.R#.#m#C#m#s#o#o#m#G.8#q.c.k.k.k.g.B#P#x...g.g.e.j.j..#a#s.e.e.j.g.a....#L#h.....#...q#L.w.M#o#a.Y#.#h.Y.I#I#1#S.M.j#6#S#2#H............................................................................................................................................................................",
".........a.a.d.d.g.h.h.h.m.m.r.r.r.r.x.x.D.D.D.D.D.D.K.K.K.K.K.K.K.K.D.D.D.D.D.D.D.D.N.l.D#6#6#B#B#B#B#B#B#B#B#B#B#B#f.W#f#G#L#C#I#S#6#6#W#I#6#6#S#F#6#6#H#K#6#6#P#h#4#6#6#l#a#5#5#6.M#m#4#2#6.I.q#6#h#h#P.e#4#1#1#O.....e.e...n#a#l#I#G#G#L#G#O#1#W#T#T#z#G#Z#W#P#T#I.w#F#F#z#z#z#s#s#C#m.b#I#3#h#I#z#s#S#.#S#g#H#K.Y#m#u#.#a#m.Y#z.I.I.c.c...e.e.##x.P...n.k.g.j.j.##h#s.a.#.k.a.d.w..#h#l.g.#.g.k.e.I.k.q.j.j.w.q.j.n.w.M.9.9.M.e.E.E#s.R............................................................................................................................................................................",
".........a.a.d.d.g.h.h.h.m.m.r.r.r.r.x.D.D.D.K.K.K.K.K.K.K.K.K.K.K.K.K.K.K.K.K.K.K.K.K.l.D#6#6#B#B#B#B#B#B#B#B#B#B#B#L#B#G.8#L.Y...y#Y#Q.Y.c#M#P.I.g#I#F.k.k#L#z.P.#.2#C#u.j...2#a#z.#.g.M#.#h.e.a#h.q..#a...Y.M.y.E.c.c.e.j...q#h#h#q#z#G#G#G#L#S#P#P#P#G#F#C#L#C#L#z.P#S#L#.#m#m#h#.#m.M..#O#6.E#S.M#o#4#.#5.e#V#m.....q...e.j...j.j...B.k.c.u.w...d.k.c.q.w.#.k.B.g...n.g.c.I.n.c.B.q...g.B.a.e.Y.j...k.u...#.u.k...j.u.....c.q.e.....I.n............................................................................................................................................................................",
".........c.c.c.d.g.h.h.h.m.m.m.r.x.x.x.D.D.D.K.K.K.K.K.K.K.K.K.K.K.K.K.K.K.K.K.K.K.K.K.r.D#6#6#f#f#B#B#B#B#B#G#G#G#G#G#x#x.g#l.g...............c.k.q.k.k.k.k.k.j.k.u.j.e.e.w.q.n.j.e.y.n.B.g.k.B.B.q.k.Y.e#g.j.u.n.n.M.0.M.M#..E.w.B.k#q#G#q#z#F#F#z#z#z#z#O#M#s#s#I#z#m#z#s#s#s#s#s#s#s#s.2#C#I.2#F#M#O#S#L#V#F#5.c#a#Y..#L.Y.q#6.j.M#6.##h#6.n.w#6.I.w#6.M.q#6#q.##4#O..#Q#4.##C#3.j#o#6.q.e#6#Q..#K#6#...#6#6.#.I#6#K..#I#6#l..#V#6.B#.#.............................................................................................................................................................................",
".........a.a.d.d.d.h.h.h.m.m.r.r.r.x.x.D.D.D.K.K.K.K.K.K.K.K.K.K.K.K.K.K.K.K.K.K.K.K.Q.r.D#5#6#x#G#G#G#G#G#B#B#l#f.Z.O.W.W.W#h#h#F#F#z#F#L#S#S#C#.#.#F#a#m#s#.#h#.#C#C#h#h#F#z#a#M.w#O.2#P.M#u#u#m#I.B#T.j#1#.#.#F#a#z#z#z#g#I.M.d.#..#l#G#h#q#q#q#h#h#x.Y.q#V#5#I#I#M#M#M#M#O#Q#Q#Q#Q#S#V#Y#M#M#K#K#6#3#S#3#T#V#6..#M#Q..#S.y#a#V.d#o#4..#u#V.#.0#1.j.0#4.n.y#1.M.j#P#g.##V#I.##u#H.e#s#Q.g.B#2#g.##C#O.w..#Q#I...Y#2.Y.e#o#S.I.d#I#Q.k.Y.E............................................................................................................................................................................",
".........a.a.d.d.g.g.h.m.m.m.r.r.r.x.x.D.D.D.K.K.K.K.Q.Q.Q.Q.Q.Q.K.K.K.K.K.K.K.K.K.K.Q.r.D#6#6#B#B#B#f.W.W.W.W#f#l#B#B#G#G#T#P#P#T#P#P#O#L#L#C#H#m.M#M#m#h#m#m#s#.#h#C#g#u#u#h#.#P#.#I.u#V.B#F#h.M#P.w#Q.k#F#m#h#y#a.R.0.0.M#g.w#C#G#q#L#P#P#P#P#P#P#P#3#F.c.q#I#6#Q#O#Q#Q#O#O#O#Q#V#Y#V#1#5#Q#K#K#K#3#1#T#6#K#G#6.j#o#a.a#P.E.R#O.k.E#H.##h#M...Y#P.d.I#h.j.M#z.e.q#F.R.e.2#a.k#h#m.e#.#m.k.q.R#a.c#m#a.f.n#m.0.j.B#..R.e#a#h.q.k#a.9.g.Y.w............................................................................................................................................................................",
".........a.a.d.d.g.h.h.m.m.m.r.r.x.x.D.D.D.D.K.Q.Q.Q.Q.Q.Q.Q.Q.Q.Q.Q.Q.Q.Q.Q.Q.Q.Q.Q.Q.F.F#6#5.O.O#f#l#q#x#G#L#L#P#P#P#L#L#G#G#G#G#z#z#z#q#z#s#S#H.Y#Y#H#o#u#H#H#m#g#M#C#I#F.2#K#Q#.#M.k#6.Y#M#m.y#1.w#Z.n#F#C#H#y#y.y#a.0.M#h.w#m#O#T#P#L#T#P#T#3#Z#T#5#F.n.w.j.9#6#S#Y#1#V#V#V#Y#u#m#C#g.e#M#6#a#K#S#K#W#6#u#G#5.g#.#H.##Z.B.M#3.j.y#S.##.#6.#.E#6.B.j#H.y.M#4.M.c#6#O...0#C.c#I#3.e#m#6.B.j#o#Q..#O#6.q..#6#3.#.q#I#K..#O#6.k.c#V#6.w.I.B............................................................................................................................................................................",
".........a.a.d.d.g.g.h.m.m.m.r.r.x.x.D.D.D.D.Q.Q.Q.Q.Q.Q.Q.Q.Q.Q.Q.Q.Q.Q.Q.Q.Q.Q.Q.Q.Q.F.D#6#6#f#l#x#x#F#F#l#l#.#h#q#q#l#q#l#q#q#x#q#q#q#x#x#P#H.u.u#u.2.E.2#g#a.R.2#o#h#m#m.E#F#m.e#H.w#S.Y#C#g.E#O.B#P.w#I#m#C#C#u.Y#a#g.R#m.E.P#l#I#G#G#I#L#L#W#W#T#Z#u.u.R.R.j#y#H#3#W#W#Y#W#3#..E#m.y..#M#6.B#u#Z#L#I#L#h#I#3.j#s#M.c#Z.k#s#4.e.0#M..#m#6.b.M#6.w.j#K.e.Y#6#a..#1#K.e#g#..##M#5.##z#6.w.j#m#H..#O#6.f..#6#3.c.n#z#u..#O#3...g#S#6.u.I.B............................................................................................................................................................................",
".........a.a.d.d.g.h.h.m.m.m.r.r.x.x.D.D.D.K.Q.Q.Q.Q.Q.Q.Q.Q.Q.Q.Q.Q.Q.Q.Q.Q.Q.Q.Q.Q.Q.F.F#6#6#u#u#u#o#o#h#h#o#l#l#t#u#s#z#q#z#q#G#G#G#G#x#x#L#h.c.j.j.j.j.j.e.e.e.j.j.e.e.e.j.c.c.j.e.e.#.e.e.e.j.#.j.#.e.e.c.c.b.e.c.c.e.e...q#h#.#q#F#G#G#L#L#O#Q#P#1#z.n.M.w#o#m.g#6#Y#Y#Y#P#W#q#a#o.0..#H#V.g#h#S.8#L#T.8#L#Z.j.M.Y.n#s.w.R#s.q.R#h.n#.#o.n.M#O.y.E#u.n.0#V.E.n#P#z.j#a#a.e#H#V.e#s#6.w.w#u#H..#Q#6.k.b#6#Z.c.w#I#u.##V#3.#.k#Y#6.B.P.E............................................................................................................................................................................",
".........a.c.d.d.g.h.m.m.m.r.r.r.x.x.D.D.D.K.Q.Q.Q.Q.Q.Q.Q.Q.Q.Q.Q.Q.Q.Q.Q.Q.Q.Q.Q.Q.Q.F.D#6#6#u#u#C#C#C#C#u#u#C#u#C#C#z#z#z#z#z#L#x#x#x#q#q#F#T#z#.#Q#C#C#I#m#C#m#C#I#u#u#K#C#o#M#a#I#g#S.0#s#s#s#F.B#S.e#W.2#h#g#g#g#s#g#g#m.E.q.w.h#x#L#x#z#x#z#z#q#I#u.u.y.y#q.y.k#6#Z#C#M#L#L#3#5#2#5#6#6#5#l#l#P#S#6#O.7#W#6.k.c.j.j.#.n.c...y.j...E.c...u.n...j.j...n.n...e.E.....E.c...E.c...w.e...n.B...e.I.c...q.y.e.c.w.E.j.u.E.n.k.w.w.n.n.k#..y............................................................................................................................................................................",
".........a.a.d.d.g.h.m.m.m.m.r.x.x.D.D.D.D.Q.V.V.V.V.V.V.V.V.V.V.V.V.Q.Q.Q.Q.Q.Q.Q.Q.Q.F.F#6#6#o#o#u#z#z#z#z#z#z#z#z#z#z#z#z#s#I#I#y#z#z#q#G#I#I#h.M#K#m#a#o#h#u#a#h#C#m#m#C#a#o#M.0#I.E#V.M#C#m.0#Q.q#V.j#T#.#h#C#a#m#s#s#g#M.E.q.m.##l#G#q#q#q#x#x#h#O#u.n.M.u#q.q.q#5#2#Y#V#K#L#4#3#5#5#3#6#6#C#F#Y#I#H.R.q#q#C.##L#W.q#W.Y.w#2...E#Y...Y#S...n#Y.E.R#V.E.u#O.0.j#F#m.j#m#m.q.Y#a.w.M.Y.w.w.I.q.w.w.q.w.q.j.j.w.q.c.j.y.c...q.q.....g#a.u............................................................................................................................................................................",
".........a.c.d.d.h.h.m.m.m.p.r.x.x.D.D.D.K.K.V.V.V.V.V.V.V.V.V.V.V.V.V.V.V.V.V.V.V.V.V.F.K#6#6#l#l#q#m#h#o#o#m#h#m#m#q#q#q#l#C#F#h#C#q#x#z#s#G#I#l.Y#O#o#m#u#o#I#g#.#I#F#H#H.2#I#M#o#H.j#4.M#C#h.q#4.n#5.j#H#s#L#o#s.y#a.0.E#M.E#G#P#I#P#P#W#W#1#5#5#3#6#O.e.E.n#h#H.n#6#6#6#6#Q#T#6#6#6#6#3.E...j...e#a#o#o#F#o#I#z.j.q.B.w.M#h#m#a#g#C.R#C#K#C#M#V.y#m#6#g#g#6#C.n#6#2.##6#6.##S#6.c#M#6.n.j#6#O..#V#6.w..#6#6..#h#6#I..#V#6#a..#5#6.k#m#a............................................................................................................................................................................",
".........a.c.d.d.g.h.m.m.r.r.r.x.x.D.D.D.K.Q.V.V.V.V.V.V.V.V.V.V.V.V.V.V.V.V.V.V.V.V.V.F.S#5#6#x#z#z#m#o#z#u#u#u#u#u#u#z#z#z#L#z#x#W#P#T#T#.#M#C.y.B#m#..Y#a#a#s.0#h#m.E.M.2.q.2.2#h#F.B#T.Y#m#..B#I.q#L.k#m#m#u#a#m.j.E.w.n#m.j.w#o#P#P#I#P#O#M#L#I#I#I#o.y.M.y.2.M.c#K#u#.#a.2.M.Y.Y.u.n.E.b.......b#Z#6#5#6#5#6#u........#s#6#2#6#6#6#O#6#5#4#6#K.w...b.#.c.e.....c.c...j.e...n.y...u.Y.c.c#a.M.c#h#I.R.Y#Z#q.c#.#O.Y.c#C#S.B.e#K#O.k#..E............................................................................................................................................................................",
".........a.a.d.g.g.h.h.m.r.r.r.x.x.D.D.D.Q.Q.V.V.V.V.V.V.V.V.V.V.V.V.V.V.V.V.V.V.V.V.V.F.S#6#6#z#h#P#5#5#T#2#6#4#1#1#1#W#6#1#T#l#q#3#3#2#K#a#S#o...e.#.#.c.c.k.q.y.q.Y.Y.E.R#.#.#m.2#.#..Y#..M.k.u.j.u.n.B.q.B.B.Y.2.R.Y.Y#..0#a#a#m#u#u#C#C#C#y#o#h#a.2#y#H#C#H#C.M#g.2.E.E.E.2.M.u.u.u.u.R#o#m#u#u#a#z#H#C#o#m.R.n.j.y.n.e#m#M#F#z#z#m#..M.M.w.w.M.M.....c.c.c.j.w.j.y#..M.M#m#a#m#I#I#y#Q#Q#K#Y#6#Z#T#3#z#F#h.q.B.Y.Y.e#s#s.q.q#m#g.q.0.u............................................................................................................................................................................",
".........c.c.d.d.h.h.m.m.r.r.r.x.x.D.D.K.K.Q.V.V.V.V.V.V.V.V.V.V.V.V.V.V.V.V.V.V.V.V.V.F.S#6#6#x.8#P#6#6#O#Y#5#1#Z#3#3#V#2#3#L#z#G#W#T#W#F#a#K#t.E.2#a#a#h.Y.........d#V#6#1#3#V#6.M...j.j...M#Q#H#K#K#M#L#Q#Q#Q#O#m#2#1#1#Z#Z#4#6#S.b.c.R.R.R.R.2#a#o#m#m#m#m#z#u#K#K#m#a#a#o#o#C#o#u#u#u#u#u#m.2.R.E.u.q.q.q.R#a#m#y#H#F#a.E.q.j.c...n#h#h#h#o#o#H#M#V#2#2#5#5#5#6#6#6#6#6#6#6#6#6#6#5#5#5#5#3#Z#W#T#P#L#..Y#q.q.M#z#a.n.2.2.Y.q#s#C.q#..y............................................................................................................................................................................",
".........c.c.d.g.h.h.m.m.m.r.x.x.x.D.D.D.Q.Q.V.V.V.V.V.V.V.V.V.V.V.V.V.V.V.V.V.V.V.V.V.F.S#6#6#l#l#x#q#h#m#m#o#u#m#h#.#..M.I.Y#a#a#h...e#z#F#u#u#F#H#H#F#m#H#a.n.y.j.e#z#W#Q#M#H#6.n..........#S#5#2#Z#Z#W#2#V#V#O#h#1#Y#S#S#Q#M#S#M#m.e.......................................b.i.n.y.I.I.q.B.Y#.#h#o#u#F#H#Q#2#O#m#m#o.R#M#6#6#6#6#V#1#6#6#6#6#6#6#6#6#5#3#1#Z#Z#T#S#S#P#O#H#F#C#s#m#h#h.Y.Y.q.P.P.q.q.I#q#h#..w.M#m.R.q.u.#.0.w.E.R.n#..y............................................................................................................................................................................",
".........c.c.d.g.h.h.m.m.r.r.x.x.D.D.D.D.Q.Q.1.1.1.1.1.1.1.1.1.1.1.1.1.1.1.V.V.V.V.V.1.F.S#6#6#a#a.R.E.I.I.I.M.M.M.B.B.u.q.q.k.c.c.......d.#...............e#m#s#s#s#T#W#L#O#S#W#s#H#H#H#H#o#m#H#K#F#H#H#C#y#t#t#u#u#h#h#a.Y.I.B.q.M#s.k...a.e.j.n.z.E.9#a#a#s#u#C#H#I#I#I#M#M#Q#O#Q#Q#Q#T#W#W#W#Y#Y#1#Z#6#6#..2#m#g.2#g.2#a#I#M#M#K#O#6#O#K#L#H#H#z#u#h#h#h#h#..Y#..M.B.B.q.0#a.B.u.Y#m#h.2#h#K#F#m#S#S#Z#z#a#h.y.M#C#g.n#C#h.y.y#V#1.w#..E............................................................................................................................................................................",
".........c.c.d.g.h.h.m.m.r.r.x.x.x.D.D.Q.Q.Q.1.1.1.1.1.1.1.1.1.1.1.1.1.1.1.V.1.1.1.1.1.F.S#3#6#6#6#6#6#6#3#Z#S#O#O#K#F#z#C#o#o#h#o#o#H#m.2#a#g.2.R.y.y.j.j.b...........e.............e.e.e.b.2.M.u.E.y.n.n.u.R.R#..Y.Y#.#h#h#m#s#z#z#C#T#Z#V#Z#Z#Y#Y#Y#Y#1#3#1#Z#3#1#3#3#4#4#4#4#4#5#3#5#5#5#5#3#2#1#Y#Y#V#V#u#m#a#g#m#a#s#......e.c#a.n.E#g.I.Y.M.I.0#o.Y.I.P#.#m#m#o#C#F#S#I#s#S#1#6#h#M#5#2#6.Y#C#6#V#2#a.q.M.M.M.E.E.E.y.M.E.y.u.u.u#m.y............................................................................................................................................................................",
".........c.c.d.g.g.m.m.m.r.r.x.x.D.D.D.K.V.V.1.1.1.1.1.1.1.1.1.1.1.1.1.1.1.1.1.1.1.1.1.F.S#6#5#..M#C#M#K#S#1#4#5#5#6#6#6#6#6#6#5#5#3#V#V#V#Q#O#K#K#K#K#H#H#H#H#y#C#C#m.2#m#a.2.E#g#g.2#h#o#C#t#y#F#I#I#M#O#O#O#Q#S#S#V#Y#V#V#Z#Z#Z#Z#Z#V#Y#Z#Z#Z#1#1#3#1#3#3#1#2#2#1#W#W#S#S#S#O#M#I#F#z#u#o#g#.#h#h#.#.#..Y#s#h#h#m#h#h.Y#H#K.R.R.n#M.y#a#y#C#z#K#T#Q#.#T#4#Z#6#S.Y#3#6#3#6#m#m#6#4#4.q#L#4#V#6.u#H#6#S#V#h.I.M.M.M.E.E.B.B.B.B.I.I.y.u#a.u............................................................................................................................................................................",
".........c.c.d.g.h.h.m.m.r.r.x.x.D.D.K.Q.Q.V.1.1.1.1.1.1.1.1.1.1.1.1.1.1.1.1.1.1.1.1.1.J.S#6#Y...#.c...c.c.c.c.d.j.w.B.Y#a#o#F#K#W#Z#3#5#6#6#6#6#6#6#5#4#2#2#1#W#S#S#S#S#O#I#M#y#K#6#5#5#5#4#1#Y#1#Y#Y#1#Y#1#1#1#1#1#3#3#3#5#4#4#3#3#3#1#Y#Y#Y#S#O#M#M#I#F#u#u#u#l#h#a#a#..M.Y.2.2.R.Y.Y.Y#.#m#a.Y.M.Y#..R#h#u#m#h#m#m#m.R#u#6#6#C.##I#s.R#M#6#5#5#6#K.u#5#3#T#5#a.u#6#5#W#3.M#m#3#1#1.y#L#3#Y#O.j#O#6#M#a.M#..M.M.E.E.E.M.M.M.M.M.M.M.y#g.y............................................................................................................................................................................",
".........c.c.f.g.h.h.m.r.r.r.x.x.D.D.D.Q.Q.V.1.1.1.1.1.1.1.1.1.1.1.1.1.1.1.1.1.1.1.1.1.J.V#6#6.B.B.y.j.j.j.j.y.y.j.e.e.d.c.#.c.......#.#.d.k.q.B.0#m#z#I#M#S#O#T#4#1#4#4#4#4#4#4#Y#S#Y#V#V#Y#2#Z#1#1#1#1#1#Y#S#V#S#Q#M#K#H#C#u#o#m#h#a#..0.0.0.0.0.0.0.0#a#a#.#a#a#.#a#.#h#C#o#a#a#h#o#o#C#K#m#C#O#S#W#W#6#2#.#Q#C.2#o#g.R#H#z.n.E.j#M.0.R#H#6#Z#T#W#..y#2#3#T#1#o.M#2#4#V#O.I#s#5#1#m.e#P#6#M#l.I#K#S#g#g#h.I.e.n.n.j.e.e.e.j.j.j.j.j.e.R.u............................................................................................................................................................................",
".........c.d.d.g.h.h.m.r.r.r.x.D.D.D.K.Q.Q.1.1.1.1.1.1.1.1.1.1.1.1.1.1.1.1.1.1.1.1.1.1.J.1#3#6#T.k#1#6#1#V#P.y.M#o.0.M.q.B.I.Y.q.q.q.k.q.q.q.j.c.......#.#.#.c.c.n.q.y.M#.#h#s#z#g#T#O#O#I#I#F#C#C#o#o#h#a#a.0.0.Y.Y.Y#.#.#.#.#a#a#h#o#m#h#h#h#h#h#h#o#u#o#u#o#s#z#F#L#S#S#.#z#2#2#3#3#3#6#V.E#Q#6#6#1#W#6#F.u#Q#V#a#a#g.9#H#H.e.M.u#M.2.R#H#6#W#W#T.Y.Y#4#5#T#L.B#a#5#5#O#m.w#F#2#K#a#.#H#m.B#o.I#H.#.q.M.M#6#6#6#6#4#Y#Y#Q#O#H#H#H#u#m#O.R............................................................................................................................................................................",
".........c.d.d.g.h.h.m.m.r.x.x.x.D.D.Q.Q.Q.1.1.1.1.1.1.1.1.1.1.1.1.1.1.1.1.1.1.1.1.1.1.J.1#4#6#Q.##M#6#6#6#6.y#.#6#6#6#6#6.j.Y#1#O#H#g#g#..y.M.M.u.u.q.k.q.I.q.g.c.c.c.....#...0.j#..e#m#..Y#a#..Y#.#.#.#a#a#o#u#m#o#h#h#h#m#m#m#F#F#m#z#I#I#O#O#S#S#6#S.Y#H#6#6#5#6#4#6#S.k#H#6#6#6#1#W#1#m.E#O#3#3#1#O#4#H.M#H#3#K.9#m.2#H#I.E.0.n#M.2.R#H#6#3#K#F.u#h#Z#W#F#F.B#o#O#g.M#h#.#z.E.j.y#g#s.e.e.M.I#F#h#u#u#g#S#6#V#M#4#6#6#6#6#6#6#6#6#6#6.R............................................................................................................................................................................",
".........c.c.f.f.h.m.m.r.r.x.x.D.D.D.Q.Q.Q.1#b#b#b#b#b#b#b#b#b#b#b#b.1.1.1.1.1.1.1.1#b.J.1#4#6#S.k#I#L#z#W#6.u.u#2#P#S#6#6.g.M#6#6#6#6#6#4..#z#6#1#S#O#O#m.k#.#h.2.R.E.E.q.E.e#s#1#a.y#K#s#o#o#s#s#s#z#z#C#H#F#g#F#V#P#S#S#Y#Z#6#6#F.M#O#6#6#6#6#4#4#6#C.I#F#6#3#3#3#O#Z#z.B#F#1#5#2#Y#V#1#o.R#O#3#3#1#V#V#m.R#L#S#Y#m#.#.#H#I.w.R.n#M.2.2#H#V#u#.#z.Y#m#K.B.q#..M#z#g.e.n.M#.#u#h.R#u#a#H#S#W#6#L#H#6#6#6#g#S#6#...#t#2#M#O#O#K#K#K#V#s.u.i............................................................................................................................................................................",
".........c.d.d.g.h.m.m.r.r.x.x.D.D.K.Q.Q.V.1#b#b#b#b#b#b#b#b#b#b#b#b#b#b#b.1.1.1.1.1#b.J.1#6#6#F#h#H#O#I#Z#6.2.8#3#G#z#5#6.d.I#O#C#S#Z#5#Z..#.#6#6#5#6#6#Z..#I#6#6#6#4#Y#4#I.##a#1#o.y#C#m#S#S#S#V#V#1#1#3#6#m#a#S#6#5#5#5#5#Y#5#Z.2.2#M#6#5#3#5#Z#W#5#m.Y#C#4#Z#3#3#P#3#F.B#F#3#5#3#Z#W#O.R#g#M#3#4#Z#V#F.E.M#P#P#T#S#.#.#K#C.e.R.w#M.R.2#K.M.#.q.B.B#m#o.q.B.Y#a#m#H#H#I#S#H#C#4#6#6#m#S#6#3#6#L#V#S#V#M.E#Z#6#S.u#u#6#2#Z#Y#Y#Y#V#4#C.R.u............................................................................................................................................................................",
".........c.d.d.h.h.m.m.r.r.x.x.D.D.K.Q.Q.1.1#b#b#b#b#b#b#b#b#b#b#b#b#b#b#b#b#b#b#b#b#b.J.1#6#V...u.k.u.u.k.E.2.2#.#..Y#u#V.B.Y#P#s#L#Y#4#V.c#.#S#q#L#H...M.k#m#1#y#F#S#V#6#Y.##h#T#m.y#C#m#6#6#6#5#6#5#2#W#6.w#u#H#6#Z#2#2#2#O#Y#V#.#.#M#5#4#3#5#Y#Y#2#h.2#C#3#Z#Z#3#O#O.I.2#H#2#4#2#O#S#C.E#g#M#Y#M#y#u#H#g.R#L#T#L#1#O.E#I#s.n.E.R#s.w#g#H#m#a#C#F#u#u#S#Y#1#6#S#g#3#6#6#6#t#o#Y#5#1.y#I#Z#O#O#K#Z#T#W#q.M#2#Y#5#o#a#5#1#1#1#Z#T#T#6#P#a.u............................................................................................................................................................................",
".........c.d.d.h.h.m.m.r.r.x.D.D.D.K.Q.Q.Q.1#b#b#b#b#b#b#b#b#b#b#b#b#b#b#b#b#b#b#b#b#b.J.1#6#Y...............j.q.e.y.0.I.M#F#I#I.8.I#5#6#Y.c#.#Y#z#L#Q...n.u#z#I.....b.b.e.E.e#h#T#m.y#H#h#4#Z#2#2#5#1#1#S#6.I#s#I#6#Y#1#2#2#Q#1#S#.#.#M#3#2#4#5#Y#2#K.M#a#F#Z#1#1#W#K#F.M#g#H#Y#O#z#h#C#C#g#g#O#F.y.y.y#..M.2#M#W#L#z#L.M#C#6#6#..##O#Z#h#I#6#4#5#6#S#K#6#1#3#6#o#m#6#O#S#Y.E#t#2#6#P.n#S#6#M#K#Q#Z#3#G.I#g#2#M#4#V.M#a#..2#a.R#g#g#I#h.R.u............................................................................................................................................................................",
".........c.d.d.h.h.m.m.r.r.x.D.D.D.Q.Q.Q.1.1#b#b#b#b#b#b#b#b#b#b#b#b#b#b#b#b#b#b#b#b#b.J.1#6#5#a#m#C#C#H#K#H#H#I#I#I#I#F#z#s#z#a#F.q#Z#6#1.j.M#Z#G#I#I.u.E.q#s#S.u.n.y.u.j.w.c#h#W#m.w#H#h#4#2#3#3#3#1#Z#W#4.E#z#I#6#Z#1#5#1#P#W#m.M#h#K#2#2#2#Y#Q#T#F.Y#a#C#Y#K#G#a#u#C#m#.#I#S.M.q.B.I.E.R#m#I#h.q.I.M.M#.#.#O#P#T#..M.0#I#3#K#Q.c#1#6.y#M#5#S#V#Y#H#V#2#M#V#Y#h#P#4#Y#1#K.E#H#6#6#L.j#1#6#K#Y#K#Y#S#s#.#t#4#O#V#g.....n.i.R.R#M#H.0...E.u............................................................................................................................................................................",
".........c.d.d.h.m.m.m.r.r.x.D.D.D.Q.Q.V.1.1#b#b#b#b#b#b#b#b#b#b#b#b#b#b#b#b#b#b#b#b#b.J.1#5#6#I#I#K#K#H#H#H#C#C#u#u#o#o#s#h#m.B#1#G#.#L#I.w.Y#S#z#z#m.j.y.y#s#P.u.u.E.E.E.R.e#a#W#o.u#H#h#5#3#3#3#6#Z#W#1#I.B#C#I#6#2#4#1#S#L#O#h.2#m#H#Y#L#F#m#m#s#I#.#h#C#Y#a.I.u.B.M.y#.#K#C.u.u.I.I.Y#o#o#F#L#L#S#S#4#V#m#V#V#W#F.Y#g#I#m..#Z#V#u#m.R#K#1#W#W#S#S#Z#Z#2#Y#F#u#3#Y#1#P#l.y#M#6#2#Z#a#S#Z#m#Y#Y#4#.#m#s#o#S#S#M.E#m#H#Y#V#Y#Y#V#y.E.n.9.n............................................................................................................................................................................",
".........c.d.d.h.h.m.m.r.r.x.D.D.Q.Q.Q.V.1.1#b#e#e#e#e#e#e#e#e#e#e#e#e#e#e#e#e#e#e#b#b.3.1#6#6#a.2#a#a#a#a#h#h#h#h#m#m#m#m#m#s.M#S#O.a...k.E#h#Y#P#I#m.E.M.u#s#O.u.u.E.y.y.M.e#.#T#u.u#H#h#4#2#5#3#5#S#S#W#C.Y#s#I#3#O#F#q#h#q#F#s#a#m#F#W#m.B.B.P.B#a.w#h#G#K.y.y.B.I.I#h#o#C#K#K#Q#V#Y#5#Z#a#K#6#4#3#Y#6#F#C#1#Z#Z#W#2#s#F#m.u#V#5#M.j#g#O#6#1#Q#I#Z#1#W#3#O#u#K#Y#3#5#T#h.E#H#Q#V#Z#M#H#o#.#L#2#Q#a#K#Q#V#S#S#S#V#S#O#u#a.u.2#..d.I.2#g.n............................................................................................................................................................................",
".........c.d.f.h.h.m.p.r.r.x.D.D.K.Q.Q.1.1#b#e#e#e#e#e#e#e#e#e#e#e#e#e#e#e#e#e#e#e#e#e.3.3#6#6#h#h#o#o#m#m#m#m#m#m#m#m#m#m#m#s.M#M#P.#.....E#s#V#I#T#M.2.2.w#m#O.u.n.y.y.y.M.j#.#V#u.q#H#h#Z#T#O#K#u#q#F#m#C#a#C#F#Z#F.I.Y#..P.8.M.E#m#I#L.I.k.w.Y.I.M#.#h#C#K#F#L#S#Y#5#5.2#z#6#6#3#2#Z#2#W#h#F#Y#Q#Q#M#6#y#y#Z#Z#3#5#5#m#S#M#C#V#M#4.R.2#M#6#W#K#z#H#5#2#6#O#C#Q#Q#4#Q#h#h#t#M#y#S#W#I#I#I#P#P#K#Q#Y#Y#Q#Q#K#h#a.M.k.j.d.u.j#.#z.I#..7#h.u............................................................................................................................................................................",
".........d.d.d.h.h.m.m.r.x.x.D.D.K.Q.Q.1.1#b#e#e#e#e#e#e#e#e#e#e#e#e#e#e#e#e#e#e#e#e#e.3.3#6#6#h#h#s#s#s#m#m#m#m#m#m#m#m#m#m#s.R#O#I#g#F.R.y#g#g.e.q.0...j.E#m#V.E.n.M.E.y.M.j.0#T#u.u#H#h#S#S#h.7#.#h#a.M#F.R#H#C#S#h.k.q.B.B.q.q.0#s#H#H#s#G#P#Q#Q#5#1#a#C#5#5#5#6#1#5#O.w#I#V#S#P#P#P#W#1#H#u#2#V#S#W#5#g#u#2#Y#2#2#S#M#3#1#V#S#I#6#C.R#Q#6#6#Q#m.E#3#3#F.0#g#H#5#2#y#s#M#K#H#H#H#O#P#Y#T#T#S#I#H#m#..q.c.c...k#..I.Y.Y#..I#.#q.B#..M#t.B............................................................................................................................................................................",
".........d.d.g.h.m.m.m.r.x.x.D.D.Q.Q.V.V.1#b#e#e#e#e#e#e#e#e#e#e#e#e#e#e#e#e#e#e#e#e#e.3#b#6#6#h#h#m#m#s#s#s#s#s#s#s#s#s#s#s#s.R#M#C#Q#6#6.n.R#1#O#u.2.y.q.y#h#......e.e.e.w.n.R#1#H.q#H#m#W#W#l.B.B.I.w.k.q.R#I#s#I#.#s#H#K#P#P#3#W#a#H#3#5#5#5#2#Y#6#K.2#F#1#O#Q#Y#P#1#M.E#I#Y#Y#W#W#W#Z#1#L#z#6#3#Z#W#M.B#F#3#Y#Z#3#V#S#4#Y#V#Q#K#4#K.R#O#O#l.Y#m#g#3#5#u#P#1#S#O#o#y#Q#Q#V#S#V#V#L#H#C#h.Y.q.q.j.a.k.k.B.M#..I#l.Y.I.I.M.B#a#z.P#l.R.R.k............................................................................................................................................................................",
".........d.d.g.h.h.m.p.r.x.x.D.D.Q.Q.Q.1.1#b#e#e#e#e#e#e#e#e#e#e#e#e#e#e#e#e#e#e#e#e#e.3#b#6#6#m#h#o#m#m#m#m#h#h#.#..0.0.0.0#h.B#H#O.j.E#m.y.2#6#6#6#6#6#1.e#s#Q#y#a.E.q.e.j.n.R#O.y.c#I#o#I#m.I.Y#.#o#z#K#M#M#.#G#5#1#6#6#4#4#4#6#Y.Y#F#1#W#O#M#O#I#5#u#.#C#V#V#Z#Z#Z#3#F.R#H#4#5#5#W#T#W#W#O#F#4#1#V#O#I.M#I#2#2#3#Z#1#S#Z#V#Q#Y#M#6#m#m#V#y#H#Q#5#2#Q#K#K#I#H#F#F#O#2#2#S#O#z#a.7.j.j.d.d.q.q.B.I.P.P.P.Y.P.M.M.0#..0#..P.B#h#o.e.E.M.2.j............................................................................................................................................................................",
".........d.d.d.h.m.m.r.r.x.D.D.D.K.Q.V.1#b#b#e#e#e#e#e#e#e#e#e#e#e#e#e#e#e#e#e#e#e#e#e.3#e#6#4.2.R#..0.0#.#.#h#m#m#s#H#I#M#O#S#W#1#H.I#a.u.u#g#Y.n.c#.#V#V.j#h#6#6#6#6#6#6#Q.n.Y#m#s#I#s#m#Q#P#W#3#4#5#6#6#6#C.2#L#6#W#T#S#S#O#O#1#V#a#F#W#S#S#Y#Z#W#6#u#.#F#2#2#1#W#Z#O.R#a#K#4#4#2#P#S#W#W#S#H#6#6#3#Q#M.E#H#2#1#Z#Z#V#Q#1#O#t#2#6#Y#m#Y#3#O#O#S#y#h#y#K#Q#Q#S#Q#H#y#m.E.k.k.a.e.u.u.P.P.Y#..Y.8.M.M.I.I.I#.#..Y#h#..y.y.y.q#a#o.n#.#g#z.y............................................................................................................................................................................",
".........d.d.g.h.h.m.r.r.x.x.D.D.Q.Q.V.1#b#b#k#k#k#k#e#e#k#e#e#e#e#e#e#e#e#e#e#e#e#e#e.3#e#6#6#u#C#I#O#S#W#W#1#5#5#4#6#6#6#4#2#3#5.2#O#6#6.E.E#V#g#F.y.b.y.E#h#P#m#o#O#Q#6#6.q.q#1#6#M#.#m#4#6#3#3#Z#V#V#O#3.R#y#H#1#O#P#S#S#S#V#2#V#h#H#3#3#5#5#1#3#Q.2#a#H#4#Y#W#W#W#H.2#a#K#1#5#5#Z#5#V#V#V#K#4#V#H#o#o.n#s#3#3#W#1#1#V#2#V#Q#Q#Q#g.9#F#M#F#L#Y#V#u#z#Q#u#a.M.B.e.e.e.e.k.B.R#a#a.2.Y.Y.M.M.I.I.P.P.8#.#..8.I.q.M.M.u.M.P.P#u#C.M#m#a#a.q............................................................................................................................................................................",
".........d.d.g.h.m.m.r.r.x.x.D.K.K.V.V.1#b#b#k#k#k#k#e#e#k#e#e#e#k#k#k#e#e#e#e#k#k#k#k.3#e#5#6#Z#Z#1#1#2#4#Y#5#6#3#1#3#4#3#V#Q#O#4.j#L#6#6.y.y#Y#z#6#6.n.n.E#s#O.j...j.e.u.R.n.w#Z#6.y#s#m#Z#V#P#Z#P#O#O#O#6#.#s#I#5#W#Z#Z#Z#T#W#W#Y#u#F#4#4#5#3#T#V#I.Y#g#F#4#Y#Y#Y#Y#H#g#a#K#5#5#Y#H#M#2#V#H#u#F.u.2#o#I#V#1#V#3#T#K#M#H#t#t#t#C#H#V#2#2#Y#M#F#h#..u.e.k.j.d.d.k.B.2.I.Y.Y.Y.Y.Y.R.I.Y.Y.Y#.#..Y.I.P.I.I.p.a.k.I#.#l.Y#a#a.M#l#u.k.I.I.I.j............................................................................................................................................................................",
".........d.d.g.h.m.m.r.r.x.D.D.K.K.V.1.1#b#e#k#k#k#k#k#k#k#k#k#k#k#k#k#k#k#k#k#k#k#k#k.3#e#5#6#P#L#L#S#W#W#S#1#2#Z#Z#2#2#2#S#S#Q#5..#P#6#4.u.E#1#.#g#2.E.E.E#m#Q.2.u.E.E.u.u.n.E#V#H.q#C#s#V#W#T#2#1#1#Y#1#4.R#u#I#6#Y#2#2#W#S#Z#S#3#L#u#3#3#2#4#W#W#L#.#g#H#4#6#2#Z#Z#o.M.9#M#V.2.y.y.R#Y#1#O#V#5#3#4#6#4#1#K#u#K#t#F#t#H#O#V#Y#2#Q#F#t.B.u.e.c...u.B.E.E.Y#.#.#.#.#..M.M.I.M.Y.Y#a#.#.#.#..M.B.B.w.B.w.w.8#l#..W#a#a.B.Y.I.k#a#....E#u#Q.E............................................................................................................................................................................",
".........d.d.h.h.h.m.r.r.x.D.D.Q.Q.V.1#b#b#e#k#k#k#k#k#k#k#k#k#k#k#k#k#k#k#k#k#k#k#k#k.3#e#5#6#G#G#L#S#S#P#P#2#3#Z#1#3#3#Z#S#L#O#S..#1#6#6.R.u#1#m#h#Q.E.E.E#g#P.R.u.R.R.R.R.q.y#2#C.w#H#m#Y#4#Z#Z#4#1#V#2#M.M#H#H#6#Z#Z#1#W#P#Z#T#Z#S#H#1#5#6#6#1#1#I.R#m#H#5#H#Y#2#u.j#m#g#Q#S#F#O#1#4#V#1#5#V#O#M#C#o#m#m#H#Q#Y#Z#Z#V#Q#K#a.y.d.j.j.c.c.y.y.M.M.Y.M.M#o#h.I.M.I.I.Y.Y#.#a#a#h#h#..I.k.B.R.q.w.w.8.P#..B#h#6#S.n.y#a.k.y.y.j#o#K#t#H#M#6#y............................................................................................................................................................................",
".........d.d.g.h.m.m.r.r.x.D.D.K.Q.V.1#b#b#e#k#k#k#k#k#k#k#k#k#k#k#k#k#k#k#k#k#k#k#k#k.3#e#5#6#L#L#P#L#L#L#L#T#W#T#W#5#W#T#W#z#F#K.c#G#I#Q.R.u#1#m#m#V.R.y.M#h#O.R.u.R.E.E.R.u.u#1#H.y#C#m#1#4#Z#W#3#1#T#V#F.2#F#F#6#Y#2#6#3#P#1#T#W#5#O#1#3#P#G#s#h#C.w#m#C#1.R#F#Z#P#Q#6#6#6#6#6#1#S#C#g#g#t#m#F#O#V#1#4#4#K#Y#M.M.I.w.e.f.w.w.I.I#a#a.8#a#a#h#h.Y.M.M#h#..I.I.P.8#a#a.7.M.B.I#..M.M#.#h#.#.#.#..P.B.I.j.I#6#L....#H.2.M#H#O#M#V#2#2#4#6#K............................................................................................................................................................................",
".........d.d.g.h.m.m.r.r.x.D.D.Q.Q.V.1#b#b#e#k#k#k#k#k#k#k#k#k#k#k#k#k#k#k#k#k#k#k#k#k.3#e#6#6#G#G#L#P#T#T#T#L#P#T#P#P#z#q#I#a#.#s.c#C.b.n.E#g#T#h#.#O.R.y.R#g#O.2.u.0.E.E.E.u.u#1#H.E#z#m#3#3#W#W#4#Y#O#V#K.Y#C#F#6#5#6#6#V#C#Z#Z#2#Q#o#V#z.B.I#g#g#M#M#C#M#2#6#6#5#6#6#O#o#a#a.9#a#K#Q#5#6#6#6#5#V#u#g.R.E.e#m#u...B.B.I.Y.Y#h#h#..Y#..I.I.I.B#a#.#.#.#l#o#C#z#h#..P.u.u.B.Y.y.e.j.u.n.u.Y.I.I.I#..I.P.P#g#3#H.y#Q#O#O#C#V#6#6#6#6#6#Q#m.n............................................................................................................................................................................",
".........d.d.g.h.m.m.r.x.x.D.D.K.V.V.1#b#b#e#k#k#k#k#k#k#k#k#k#k#k#k#k#k#k#k#k#k#k#k#k.3#e#5#6#L#G#x#I#L#F#F#q#x#x#l#h#h#h#h#m#h#z#I#g.E.u#g#u#V#C#o#O.y.E.E.9#O.2.q.R.E.E.E.u.u#1#H.E#C#q#Z#1#W#W#4#4#4#4#M#a#I#F#5#O.R.R.2.E#m#4#O#m#M#S#l#G#T#2#6#6#6#6#6#V#Y.9.s.R#y#y#M#Y#6#6#6#6#3#S#t.M.I.j.g.k.e.e.B.g#o#I.M#h#m#u#..Y.I.M.I#.#a#a.I#.#.#.#o#o#h#.#..u.k.q.I.I.I.I.8#.#M#Y#V#M#g.E.y.j.g.d.d.h.g.#.R#Y#V#V#1#M#6#6#6#M#M#V#g.E.n.n.e............................................................................................................................................................................",
".........d.d.g.h.m.m.r.x.x.D.D.Q.V.V.1#b#e#k#k#k#k#k#k#k#k#k#k#k#k#k#k#k#k#k#k#k#k#k#k.3#k#6#6#h#h#h#q#l#l#l#l#l#l#l#h#o#o#m#u#a#u#5.u.E.n.R#g#Y#K#g#S.R.E.R#g#O.2.n.R.E.E.R.y.q#1#H.E#C#s#3#5#2#S#5#4#y#g.0.y#H#o#Z#K#m#C#K#M#H#Y#5#2#6#6#6#6#6#6#1#K#g.u.j.j#g#H#4#6#6#6#6#Y#K#a.u.j.u...B.M.k.w.k.B.M.M#..k#I#z.I.u.u.B.Y#a#..M.I.2#.#l#u#u#z#m#..B.q.B#a#.#.#..B.I#.#.#..I#.#S#5#6#6#6#6#6#6#6#1#6#1#C#M#Q#Q#6#6#6#H#V#M.e.e.E.n.u.R.2.e............................................................................................................................................................................",
".........d.d.g.h.m.m.r.x.x.D.K.Q.V.1.1#b#e#k#k#k#k#k#k#k#k#k#k#k#k#k#k#k#k#k#k#k#k#k#k.3#k#6#6#m#m#u#o#o#o#o#o#o#o#o#o#o#o#o#o#m#u#1.R#K.y.E.j.n.E.i.....e.n.R#Y#s.y.2.E.R.R.y.n#1#H.M#C#s#W#W#O#O#6.R.e.u#o#m#M#K#2#Y#2#1#1#6#6#Y#O#6#6#V#o.u.E.E.n#o#F#Q#6#6#6#6#5#H.R.j...j...u#..n.w.q.I.M#.#a#o#h#a#.#..e#F#z.B#u#o.I#o#..Y#m#z#h#o.Y.I.k.k.k.k.e.u#h.7.y#a#a#o#o#o.7.7#h.u.u.c...n.y#g#a#C#z#V#2#6#6#6#5#6#6#4#m.j.e.n.9.R.z.u.e...j.e............................................................................................................................................................................",
".........d.d.h.h.m.r.r.x.x.D.K.K.V.1.1#b#e#k#k#k#k#k#k#k#k#k#k#p#k#k#k#k#k#k#k#k#k#k#k.3#k#6#6#m#g#o#m#o#o#o#o#o#o#o#o#o#o#m#m#m#m#Z.I#6#Z#1#Q#C#o#H#Q#Y#K#g.9#g.....e.E.2.2.R.w#1#C.j#g#g#S#S#S#6#3#O#4#6#6#2#V#4#5#4#4#6#6#4#y#m.M.u.u.e.2#M#4#6#6#6#6#4#O#o.e.......q#h.w.M.E.w.I.Y#.#.#.#..Y.u.q.I.I.I#a.y#F#I.M#.#h#m#u#u#u#h#..w.j.n.B.M.M.Y#o.R.y.9.z.j.c...........c...2#Q.M.q.B.c...k.e#..M.d.................e.....e.....b.E#a#V#g............................................................................................................................................................................",
".........d.d.g.h.m.m.r.x.x.D.K.Q.V.1#b#b#e#k#p#p#p#p#p#p#p#p#p#p#p#p#p#p#p#p#p#p#p#p#p.3#k#6#6#m#m#o#o#o#o#o#o#o#o#o#q#q#q#m#s#s#g#4.w#5#W#W#1#4#1#1#Y#g.i#t#2#Q#4#V.R.......b.b#1#M#M#M#Y#4#1#1#M#5#6#4#4#6#6#6#2#Q#K#y#g.e...u.y#2#6#6#6#6#6#Y#H.E.....g..#h#u#M.j.2.y.y.M.Y.Y.B.Y.Y.B.w.h.w.E.Y#.#..Y.B.M.e#F#z.Y.Y#a.M.I.q.g.g.k.B#m#a.M#.#..Y.M#6#6#6#6#6#6#6#Y#V#Q#H#K#K#V#C.z.k.c.w#g#g#g.k...c.g.I#G#2#Y#Y#S#Q#H#C#C#C#M#O#M#H#y#V.2............................................................................................................................................................................",
".........d.d.h.h.m.r.r.x.D.D.K.V.V.1#b#e#e#k#p#p#p#p#p#p#p#p#p#p#p#p#p#p#p#p#p#p#p#p#p.3#k#6#6#o#g#o#o#o#o#o#o#o#o#o#s#s#s#m#m#m#a#3.I#5#T#W#W#S#S#S#O#Y#4#V#C#g#t#2#6#6#6#Y#K#a#a#u#2#6#6#Y#1#2#H#4#6#6#6#4.M.j.E.9#m#1#4#6#6#6#6#S#g#C.E.........q#a.B.B.w.B.k#m#a#a#a#..R.y#O#T.q.B.Y#a#a#..Y.Y#..P#.#.#m.E#L#F.B.B.k.d.I.Y#a#h#a.I.M.M#.#..B.I.e.b.b.j.n.j.z#a#V#4#4#4#4#4#Q#2#6#6#6#u#u#h#z#F#K#S#3#1#P#G#F#I#O#M#K#Q#K#C#u#C#C#K#K#4#a............................................................................................................................................................................",
".........d.d.h.h.m.m.r.x.D.D.K.V.V.1#b#e#e#k#p#p#p#p#p#p#p#p#p#p#p#p#p#p#p#p#p#p#p#p#p#e#k#5#6#K#g#s#s#q#q#q#q#q#q#q#g#a.2#a#a#a#g#1.w#5#W#W#Z#W#T#T#T#P#O#O#2#g.......j#a#K#2#6#4#V#M#C#o#4#4#y#g.E.E.M.n..#H#I#6#6#6#6#M#g.n...........Y.M.q.Y.Y.M.I#l#h#h#..g.0.n.n.y.E.2#a.E.E.2.M.M#a#a#.#a#a#.#.#..Y#...#o#h.d.I.Y#s#u#h#a.M#h.Y.M.u.B.I.u.B#a.y#K#M.j.R#g#y#K#M#M#4#H#y#4#4#6#6#6.2.u...E#Q#5#6#M#C#G#G#G#K#u#.#h.7#a#u#H#H#M#M#K#1#.............................................................................................................................................................................",
".........d.d.h.h.m.r.r.x.D.D.Q.Q.1.1#b#e#k#k#p#p#p#p#p#p#p#p#p#p#p#p#p#p#p#p#p#p#p#p#p#e#k#5#6#y#a#m#m#m#g#g#g#g#g#g#m#F#O#O#S#3#6#Q.u#5#Z#W#W#Z#W#W#W#Q#Q#O#W#u.k.E.y.e.........y.E.0#s#M#Q#o.R.u.j.j.j.E..#6#6#6#6#6#4#Q#C#C#g.n.y.u.n.y#g#a#a#F#o#..Y#..I#l.p#t.Y#h.Y#..u.M#a.M.M.Y#h.Y.I.Y.M.Y.I.q.g.g.B.d#K#o.y#..B.B.M.Y.M.B.I.8#..8.8.2.E.2.R.9#M#M#M#V#6#5#4#4#4#4#6#Y#H#H.n.....n.R.2.u.....j#g#C#C#H#F#h.M#a#K#O#O#O#Q#H#H#K#K#1#.............................................................................................................................................................................",
".........d.d.h.h.m.r.r.x.D.D.S.V.V#b#b#e#k#k#p#p#p#p#p#p#p#p#p#p#p#p#p#p#p#p#p#p#p#p#p#e#k#6#6#m#a#m#s#H#M#O#V#2#5#6#6#6#6#3#Y#S#2#F.q#6#Z#W#W#W#Y#Y#V#V#Q#Q#W#t.c.e.i.n.e.j.u.j.........q.c...n.E.2.2.2#g.......k.Y#z#P#4#6#6#6#6#6#6#6#t#g#o.o.b.i.u.y.E.B#h.k#a.Y#..Y#.#..I.I.Y.B.B.M.M.w.w.u.u.u#m#M#u#h.B#K#h.u.M.B.B.w.w.2#..I.B.q.M.I.E#H#Y#V#Y#Q#Q#6#Y#2#4#6#6#3#V#H.M.....e.M#g.E.R.y.y.y.M.b#F#y#a#m#t#M#W#S#L#L#K#K#S#W#W#L#x#P.Y............................................................................................................................................................................",
".........d.d.h.h.m.r.x.x.D.D.Q.V.V.1#b#e#k#k#p#p#p#p#p#p#p#p#p#p#p#p#p#p#p#p#p#p#p#p#p#k#k#5#6#Q#1#6#5#5#6#4#4#4#2#Z#Z#Z#W#S#M#M#Y#a.n#6#W#W#W#W#V#V#V#V#Q#L#Q#o.....R.R.j.......b.b.j...w#h.2.2.R.n.E#O#O...w...............n#m#y#Q#5#6#6#6#6#6#Y#K#a#g#a.u.7...Y.q.w.M.M.Y.Y.Y.2#h.M.k.u.B.I#a#t#o#o#o#.#..d#z#q.u.B.8.I.I#C.u.b.R.R.n.2#Y#K#4#4#M#M#Y#M#V#4#Y#Q#g.j.........e.n.n.n.b...b.n.n#m#H#M#o#a#F#G#L#L#F#z#H#F#q#K#G#l#a#a#l#L.j............................................................................................................................................................................",
".........d.d.h.h.m.r.r.x.D.D.Q.Q.1.1#b#e#k#k#p#p#p#p#p#p#p#p#p#p#p#p#p#p#p#p#p#p#p#p#p#k#k#5#6#4#6#4#Z#W#W#Q#O#V#V#V#Z#1#2#V#K#Q#Y.E.w#4#P#P#P#O#O#I#Q#V#Y#1#5#2#V#5#6#6#4#M#y.E.i.b.....d.I.I.I.R.0#H#1#O...q.n.u.u.u.j.c.............c.B#m#H#W#6#6#6#6#6#6#4.9#Q.9.7.u.o.z.E.u.B#H#K#.#a#g#g#h#..P.w.q.I#..g#G#q.k.u.I.n.u#M#M#V#5#6#1#V#6#2#4#4#4#4#4#S#O#Y#Y#K#o#m#C#M#S#S#Q#Q#M#I#F#F#M#2#6#6#V#V#Y#3#3#3#Z#Y#Y#1#3#1#Z#W#K#F#M#Z#3#S#H#F#F#F#F#F#F#F#F#F#C#u#u#o#g#a.2.M.E.u.n.e.#................................................................................................................................",
".........d.d.h.h.m.r.x.x.D.D.Q.V.1.1#e#e#k#p#p#p#p#p#p#p#p#p#p#p#p#p#p#p#p#p#p#p#p#p#p#k#k#5#6#1#1#1#W#W#Z#S#T#5#1#W#2#1#3#V#K#V#o.j.B#T#Z#T#W#3#5#Z#6#6#4#V#O#H#Q#5#6#6#6#6#6#6#6#6#Y#H#a.0.u.b.e#u#M#V#g...z.e.j.j.j.n.u.u.u.R.w.g...............d.M#s#O#2#6#6#6#6#6#V#Q#Q#y#a#..E.M.y.E.y.2#h#h#h#h#h.Y#..##O#o.u#m#t#V#Q#H#6#6#6#6#6#6#6#6#6#6#6#6#6#6#6#6#6#6#6#6#6#6#6#6#6#6#6#6#6#6#6#6#6#6#6#6#6#6#6#6#6#6#6#6#6#6#6#6#6#6#6#6#6#6#6#6#6#6#6#6#6#6#6#6#6#6#6#6#6#6#6#6#6#6#6#5#4#2#Y#O#H#o.2.y.j................................................................................................................",
".........d.f.h.m.m.r.r.x.D.D.Q.V.1#b#b#e#k#p#p#v#v#v#v#v#v#v#v#v#v#v#p#p#p#p#v#p#p#p#p#k#p#5#6#5#6#6#5#5#5#2#2#6#5#2#2#Z#W#3#W#5#O#Y#Z#4#6#6#5#3#Y#O#z.2.M.B.E.n...c.I#h#u#S#4#6#6#6#6#6#6#6#6#Q#H#Y#Q.9.z.b.u.i.u.u.u.n.u.u.y.R.u.k.y.y.q.q.j.e.#...........#.I.2#F#1#6#6#6#6#6#6#V#S#V#H#m#m.M.7#a#a#a#a#t#g#S#Y#4#4#Y#6#6#6#6#6#6#6#6#6#6#6#6#6#6#6#6#6#6#6#6#6#6#6#6#6#6#6#6#6#6#6#6#6#6#6#6#6#6#6#6#6#6#6#6#6#6#6#6#6#6#6#6#6#6#6#6#6#6#6#6#6#6#6#6#6#6#6#6#6#6#6#6#6#6#6#6#6#6#6#6#6#6#6#6#6#6#6#6#6#2#M#u.2.u....................................................................................................",
".........d.f.h.m.m.r.x.x.D.D.Q.V.1#b#e#k#k#p#p#v#v#v#v#v#v#v#v#v#v#v#v#v#v#v#v#v#v#v#v#k#p#6#Y.....................................c.c.......................................................c.c.c...............................................b.b...............................c.c.c.....................b...................................................................................................................................................c.e.j.n.y.M#.#m#y#H#Q#V#4#6#6#6#6#6#6#6#6#6#6#6#6#6#6#5#O#u.R.e........................................................................................",
".........d.f.h.m.m.r.x.x.D.K.V.V.1#b#e#e#k#p#v#v#v#v#v#v#v#v#v#v#v#v#v#v#v#v#v#v#v#v#v#k#p#6#Y.................................................................................................................................................................................................................................................................................................................................................................................................j.E#a#C#O#2#6#6#6#6#6#6#6#6#6#6#6#4#M#m.u................................................................................",
".........d.f.h.m.m.r.x.x.D.D.V.V.1#b#e#k#k#p#v#v#v#v#v#v#v#v#v#v#v#v#v#v#v#v#v#v#v#v#v#k#p#6#1...............................................................................................................................................................................................................................................................................................................................................................................................................e.y#g#H#Y#5#6#6#6#6#6#6#6#6#6#V#C.E........................................................................",
".........d.d.h.m.r.r.x.x.D.K.V.V.1#b#e#k#k#p#v#v#v#v#v#v#v#v#v#v#v#v#v#v#v#v#v#v#v#v#v#p#p#6#1...........................................................................................................................................................................................................................................................................................................................................................................................................................j.M#u#Y#4#6#6#6#6#6#6#6#6#V#u.u................................................................",
".........d.g.h.m.m.r.x.D.D.K.V.V.1#e#k#k#k#p#v#v#v#v#v#v#v#v#v#v#v#v#v#v#v#v#v#v#v#v#v#p#p#6#1.....................................................................................................................................................................................................................................................................................................................................................................................................................................u#a#M#2#5#6#6#6#6#6#6#5#M.2.c........................................................",
".........d.g.h.m.m.r.x.D.D.Q.Q.1.1#e#e#k#p#p#v#v#v#v#v#v#v#v#v#v#v#v#v#v#v#v#v#v#v#v#v#p#p#6#Y.............................................................................................................................................................................................................................................................................................................................................................................................................................................j.2#K#Y#4#6#6#6#6#6#6#S#o.u.b................................................",
".........d.d.h.m.m.r.x.D.D.Q.Q.1.1#e#e#k#k#p#v#A#A#A#A#A#A#A#A#A#v#v#v#v#v#v#v#v#v#v#v#p#p#6#Y.....................................................................................................................................................................................................................................................................................................................................................................................................................................................n#g#O#1#6#6#6#6#6#6#Y#u.E.c..........................................",
".........d.g.h.m.r.r.x.D.D.Q.Q.1#b#e#e#k#p#p#A#A#A#A#A#A#A#A#A#A#A#A#A#A#v#v#v#v#v#v#v#v#p#6#Y...........................................................................................................................................................................................................................................................................................................................................................................................................................................................e.M#H#V#6#6#6#6#6#6#Y#u.E......................................",
".........d.d.h.m.m.r.x.D.K.Q.Q.1#b#b#e#k#p#p#A#A#A#A#A#A#A#A#A#A#A#A#A#A#A#v#v#v#v#v#A#p#v#6#Y.................................................................................................................................................................................................................................................................................................................................................................................................................................................................b.y#u#S#6#6#6#6#6#6#Q#m.n................................",
".........d.g.h.m.m.r.x.D.D.S.V.1#b#e#k#k#p#v#A#A#A#A#A#A#A#A#A#A#A#A#A#A#A#A#A#A#A#A#A#p#v#6#Y.........................................................................................................................................................................................................................................................................................................................................................................................................................................................................u#m#V#6#6#6#6#6#6#K.Y.b..........................",
".........f.f.h.m.m.x.x.D.K.Q.V.1#b#e#k#k#p#v#A#D#D#D#A#A#A#A#A#A#A#A#A#A#A#A#A#A#A#A#A#p#v#6#Y...............................................................................................................................................................................................................................................................................................................................................................................................................................................................................y#u#1#6#6#6#6#6#Y#y.j......................",
".........d.d.h.m.r.r.x.D.K.Q.V.1#b#e#k#k#p#v#A#D#D#D#D#D#D#A#A#A#A#A#A#A#A#A#A#A#A#A#A#p#v#6#Y...................................................................................................................................................................................................................................................................................................................................................................................................................................................................................e.Y#K#5#6#6#6#6#5#M.E..................",
".........d.g.h.m.r.r.x.D.K.Q.V.1#e#e#k#k#p#v#D#D#D#D#D#D#D#D#D#D#D#D#A#A#A#A#A#A#A#A#A#v#v#6#Y.........................................................................................................................................................................................................................................................................................................................................................................................................................................................................................n#m#Y#6#6#6#6#6#S#g..............",
".........d.d.h.m.r.r.D.D.K.Q.Q.1#b#e#k#p#p#v#D#D#D#D#D#D#D#D#D#D#D#D#D#D#D#D#D#D#D#D#D#p#v#6#Y.............................................................................................................................................................................................................................................................................................................................................................................................................................................................................................e.M#M#6#6#6#6#6#Y#C.b........",
".........d.d.h.m.r.r.x.D.K.Q.Q.1#b#e#k#k#p#v#A#A#A#A#D#D#D#D#A#A#A#A#A#A#D#D#A#A#A#A#A#v#v#6#Y...................................................................................................................................................................................................................................................................................................................................................................................................................................................................................................j#F#5#6#6#6#6#1#H.#....",
".........d.g.h.m.r.r.x.D.K.Q.V.1#b#e#e#p#p#v#A#D#D#D#D#D#D#D#A#A#A#A#A#A#A#A#A#A#A#A#A#p#v#6#Y.......................................................................................................................................................................................................................................................................................................................................................................................................................................................................................................b#m#3#6#6#6#6#4#K.c",
".........d.d.h.m.r.r.x.D.D.Q.V.1#b#e#k#p#p#p#D#D#D#D#A#A#A#A#A#A#A#A#A#A#A#A#A#A#A#A#A#p#v#6#Y............................................................................................................................................................................................................................................................................................................................................................................................................................................................................................................#a#2#6#6#6#6#6",
".........d.g.h.m.r.r.x.D.D.Q.V.1#b#e#k#k#p#v#A#A#A#A#A#A#A#A#A#A#A#A#A#A#A#A#A#A#A#A#A#p#v#6#Y.................................................................................................................................................................................................................................................................................................................................................................................................................................................................................................................2#4#6#6#6",
".........d.g.h.m.r.r.x.D.D.S.V.1.1#e#k#k#p#v#A#D#D#D#D#A#A#A#A#A#A#A#A#A#A#A#A#A#A#A#A#p#v#6#Y.....................................................................................................................................................................................................................................................................................................................................................................................................................................................................................................................Y#3#6"
};
SIMPLE  =                    T                                                  BITPIX  =                    8                                                  NAXIS   =                    2                                                  NAXIS1  =                  300                                                  NAXIS2  =                  132                                                  HISTORY Written by XV 3.10a                                                     END                                                                                                                                                                                                                                                                                                                                                                                                                                                                                                                                                                                                                                                                                                                                                                                                                                                                                                                                                                                                                                                                                                                                                                                                                                                                                                                                                                                                                                                                                                                                                                                                                                                                                                                                                                                                                                                                                                                                                                                                                                                                                                                                                                                                                                                                                                                                                                                                                                                                                             ÿÿÿÿíèâÚÏÏÈ¾¾°¬¥¥–ƒ{uqqqquuuuuuuuuuuuuuuuƒ{ )ÿÿÿÿÿÿÿÿÿÿÿÿÿÿÿÿÿÿÿÿÿÿÿÿÿÿÿÿÿÿÿÿÿÿÿÿÿÿÿÿÿÿÿÿÿÿÿÿÿÿÿÿÿÿÿÿÿÿÿÿÿÿÿÿÿÿÿÿÿÿÿÿÿÿÿÿÿÿÿÿÿÿÿÿÿÿÿÿÿÿÿÿÿÿÿÿÿÿÿÿÿÿÿÿÿÿÿÿÿÿÿÿÿÿÿÿÿÿÿÿÿÿÿÿÿÿÿÿÿÿÿÿÿÿÿÿÿÿÿÿÿÿÿÿÿÿÿÿÿÿÿÿÿÿÿÿÿÿÿÿÿÿÿÿÿÿÿÿÿÿÿÿÿÿÿÿÿÿÿÿÿÿÿÿÿÿÿÿÿÿÿÿÿÿÿÿÿÿÿÿÿÿÿÿÿÿÿÿÿÿÿÿÿÿÿÿÿÿÿÿÿÿÿÿÿÿÿÿÿÿÿÿÿÿÿÿÿÿÿÿÿÿÿÿÿÿÿÿÿÿ© ÿÿÿÿíèâÚÏÏÈ¾¾°¬¥–ƒ{uuuuuuuuuuuuuuuuuuuuuƒ{ )ÿÿÿÿÿÿÿÿÿÿÿÿÿÿÿÿÿÿÿÿÿÿÿÿÿÿÿÿÿÿÿÿÿÿÿÿÿÿÿÿÿÿÿÿÿÿÿÿÿÿÿÿÿÿÿÿÿÿÿÿÿÿÿÿÿÿÿÿÿÿÿÿÿÿÿÿÿÿÿÿÿÿÿÿÿÿÿÿÿÿÿÿÿÿÿÿÿÿÿÿÿÿÿÿÿÿÿÿÿÿÿÿÿÿÿÿÿÿÿÿÿÿÿÿÿÿÿÿÿÿÿÿÿÿÿÿÿÿÿÿÿÿÿÿÿÿÿÿÿÿÿÿÿÿÿÿÿÿÿÿÿÿÿÿÿÿÿÿÿÿÿÿÿÿÿÿÿÿÿÿÿÿÿÿÿÿÿÿÿÿÿÿÿÿÿÿÿÿÿÿÿÿÿÿÿÿÿÿÿÿÿÿÿÿÿÿÿÿÿÿÿÿÿÿÿÿÿÿÿÿÿÿÿÿÿÿÿÿÿÿÿÿÿÿÿÿÿÿ¥   ÿÿÿÿííâÚÏÏÈ¾¾°¬¥–ƒƒƒqqqquuuuuuuuuuuuuuuuuƒ{ )ÿÿÿÿÿÿÿÿÿÿÿÿÿÿÿÿÿÿÿÿÿÿÿÿÿÿÿÿÿÿÿÿÿÿÿÿÿÿÿÿÿÿÿÿÿÿÿÿÿÿÿÿÿÿÿÿÿÿÿÿÿÿÿÿÿÿÿÿÿÿÿÿÿÿÿÿÿÿÿÿÿÿÿÿÿÿÿÿÿÿÿÿÿÿÿÿÿÿÿÿÿÿÿÿÿÿÿÿÿÿÿÿÿÿÿÿÿÿÿÿÿÿÿÿÿÿÿÿÿÿÿÿÿÿÿÿÿÿÿÿÿÿÿÿÿÿÿÿÿÿÿÿÿÿÿÿÿÿÿÿÿÿÿÿÿÿÿÿÿÿÿÿÿÿÿÿÿÿÿÿÿÿÿÿÿÿÿÿÿÿÿÿÿÿÿÿÿÿÿÿÿÿÿÿÿÿÿÿÿÿÿÿÿÿÿÿÿÿÿÿÿÿÿÿÿÿÿÿÿÿÿÿÿÿÿÿÿÿÿÿÿÿÿÿÿÿ™     ÿÿÿÿíèâÚÏÏÈ¾µ°¬¥––ƒƒ{uqqqqqqquuuuuuuuuuuuuƒ{ )ÿÿÿÿÿÿÿÿÿÿÿÿÿÿÿÿÿÿÿÿÿÿÿÿÿÿÿÿÿÿÿÿÿÿÿÿÿÿÿÿÿÿÿÿÿÿÿÿÿÿÿÿÿÿÿÿÿÿÿÿÿÿÿÿÿÿÿÿÿÿÿÿÿÿÿÿÿÿÿÿÿÿÿÿÿÿÿÿÿÿÿÿÿÿÿÿÿÿÿÿÿÿÿÿÿÿÿÿÿÿÿÿÿÿÿÿÿÿÿÿÿÿÿÿÿÿÿÿÿÿÿÿÿÿÿÿÿÿÿÿÿÿÿÿÿÿÿÿÿÿÿÿÿÿÿÿÿÿÿÿÿÿÿÿÿÿÿÿÿÿÿÿÿÿÿÿÿÿÿÿÿÿÿÿÿÿÿÿÿÿÿÿÿÿÿÿÿÿÿÿÿÿÿÿÿÿÿÿÿÿÿÿÿÿÿÿÿÿÿÿÿÿÿÿÿÿÿÿÿÿÿÿÿÿÿÿÿÿÿÿÿÿÿõŠ    ZòÿÿÿÿííâÚÏÏÈ¾µ°°¥–ƒ{uuuuqqqquuuuuuqquuuuu{{ )ÿÿÿÿÿÿÿÿÿÿÿÿÿÿÿÿÿÿÿÿÿÿÿÿÿÿÿÿÿÿÿÿÿÿÿÿÿÿÿÿÿÿÿÿÿÿÿÿÿÿÿÿÿÿÿÿÿÿÿÿÿÿÿÿÿÿÿÿÿÿÿÿÿÿÿÿÿÿÿÿÿÿÿÿÿÿÿÿÿÿÿÿÿÿÿÿÿÿÿÿÿÿÿÿÿÿÿÿÿÿÿÿÿÿÿÿÿÿÿÿÿÿÿÿÿÿÿÿÿÿÿÿÿÿÿÿÿÿÿÿÿÿÿÿÿÿÿÿÿÿÿÿÿÿÿÿÿÿÿÿÿÿÿÿÿÿÿÿÿÿÿÿÿÿÿÿÿÿÿÿÿÿÿÿÿÿÿÿÿÿÿÿÿÿÿÿÿÿÿÿÿÿÿÿÿÿÿÿÿÿÿÿÿÿÿÿÿÿÿÿÿÿÿÿÿÿÿÿÿÿÿÿÿÿÿÿÿÿÿÿÿàj    fúÿÿÿÿÿÿííâÚÏÏ¾¾µ°°¥–ƒƒ{qqqqqqqqqqqqqqqqqqqqqƒ{ )ÿÿÿÿÿÿÿÿÿÿÿÿÿÿÿÿÿÿÿÿÿÿÿÿÿÿÿÿÿÿÿÿÿÿÿÿÿÿÿÿÿÿÿÿÿÿÿÿÿÿÿÿÿÿÿÿÿÿÿÿÿÿÿÿÿÿÿÿÿÿÿÿÿÿÿÿÿÿÿÿÿÿÿÿÿÿÿÿÿÿÿÿÿÿÿÿÿÿÿÿÿÿÿÿÿÿÿÿÿÿÿÿÿÿÿÿÿÿÿÿÿÿÿÿÿÿÿÿÿÿÿÿÿÿÿÿÿÿÿÿÿÿÿÿÿÿÿÿÿÿÿÿÿÿÿÿÿÿÿÿÿÿÿÿÿÿÿÿÿÿÿÿÿÿÿÿÿÿÿÿÿÿÿÿÿÿÿÿÿÿÿÿÿÿÿÿÿÿÿÿÿÿÿÿÿÿÿÿÿÿÿÿÿÿÿÿÿÿÿÿÿÿÿÿÿÿÿÿÿÿÿÿÿÿÿÿÿÿë³R     )rõÿÿÿÿÿÿÿÿíèâÚÏÏÈ¾µ°¬¥––ƒ{qqqqqqqqqqqquuuuuuuuu{{ )ÿÿÿÿÿÿÿÿÿÿÿÿÿÿÿÿÿÿÿÿÿÿÿÿÿÿÿÿÿÿÿÿÿÿÿÿÿÿÿÿÿÿÿÿÿÿÿÿÿÿÿÿÿÿÿÿÿÿÿÿÿÿÿÿÿÿÿÿÿÿÿÿÿÿÿÿÿÿÿÿÿÿÿÿÿÿÿÿÿÿÿÿÿÿÿÿÿÿÿÿÿÿÿÿÿÿÿÿÿÿÿÿÿÿÿÿÿÿÿÿÿÿÿÿÿÿÿÿÿÿÿÿÿÿÿÿÿÿÿÿÿÿÿÿÿÿÿÿÿÿÿÿÿÿÿÿÿÿÿÿÿÿÿÿÿÿÿÿÿÿÿÿÿÿÿÿÿÿÿÿÿÿÿÿÿÿÿÿÿÿÿÿÿÿÿÿÿÿÿÿÿÿÿÿÿÿÿÿÿÿÿÿÿÿÿÿÿÿÿÿÿÿÿÿÿÿÿÿÿÿÿÿÿÿÿÿ×Š)     <”ÿÿÿÿÿÿÿÿÿÿÿííâÚÏÏÈ¾µ°¬¥–ƒ{uqqqqqquuuuuuuuuuuuuuƒ{ )ÿÿÿÿÿÿÿÿÿÿÿÿÿÿÿÿÿÿÿÿÿÿÿÿÿÿÿÿÿÿÿÿÿÿÿÿÿÿÿÿÿÿÿÿÿÿÿÿÿÿÿÿÿÿÿÿÿÿÿÿÿÿÿÿÿÿÿÿÿÿÿÿÿÿÿÿÿÿÿÿÿÿÿÿÿÿÿÿÿÿÿÿÿÿÿÿÿÿÿÿÿÿÿÿÿÿÿÿÿÿÿÿÿÿÿÿÿÿÿÿÿÿÿÿÿÿÿÿÿÿÿÿÿÿÿÿÿÿÿÿÿÿÿÿÿÿÿÿÿÿÿÿÿÿÿÿÿÿÿÿÿÿÿÿÿÿÿÿÿÿÿÿÿÿÿÿÿÿÿÿÿÿÿÿÿÿÿÿÿÿÿÿÿÿÿÿÿÿÿÿÿÿÿÿÿÿÿÿÿÿÿÿÿÿÿÿÿÿÿÿÿÿÿÿÿÿÿÿÿÿÿÿÿë©Z    R¼ÿÿÿÿÿÿÿÿÿÿÿÿÿëëâÚÚÈÈ¾µ°¬¥–ƒ{uqqquuuuuuuuuuuuuuuuuƒ{ )ÿÿÿÿÿÿÿÿÿÿÿÿÿÿÿÿÿÿÿÿÿÿÿÿÿÿÿÿÿÿÿÿÿÿÿÿÿÿÿÿÿÿÿÿÿÿÿÿÿÿÿÿÿÿÿÿÿÿÿÿÿÿÿÿÿÿÿÿÿÿÿÿÿÿÿÿÿÿÿÿÿÿÿÿÿÿÿÿÿÿÿÿÿÿÿÿÿÿÿÿÿÿÿÿÿÿÿÿÿÿÿÿÿÿÿÿÿÿÿÿÿÿÿÿÿÿÿÿÿÿÿÿÿÿÿÿÿÿÿÿÿÿÿÿÿÿÿÿÿÿÿÿÿÿÿÿÿÿÿÿÿÿÿÿÿÿÿÿÿÿÿÿÿÿÿÿÿÿÿÿÿÿÿÿÿÿÿÿÿÿÿÿÿÿÿÿÿÿÿÿÿÿÿÿÿÿÿÿÿÿÿÿÿÿÿÿÿÿÿÿÿÿÿÿÿÿÿÿÿÿÿÅ{     )vàÿÿÿÿÿÿÿÿÿÿÿÿÿÿÿíèâÚÚÏÈ¾¾°¬¥–ƒ{uuuuuuuuuuuuuuuuuuuuuƒ{ )ÿÿÿÿÿÿÿÿÿÿÿÿÿÿÿÿÿÿÿÿÿÿÿÿÿÿÿÿÿÿÿÿÿÿÿÿÿÿÿÿÿÿÿÿÿÿÿÿÿÿÿÿÿÿÿÿÿÿÿÿÿÿÿÿÿÿÿÿÿÿÿÿÿÿÿÿÿÿÿÿÿÿÿÿÿÿÿÿÿÿÿÿÿÿÿÿÿÿÿÿÿÿÿÿÿÿÿÿÿÿÿÿÿÿÿÿÿÿÿÿÿÿÿÿÿÿÿÿÿÿÿÿÿÿÿÿÿÿÿÿÿÿÿÿÿÿÿÿÿÿÿÿÿÿÿÿÿÿÿÿÿÿÿÿÿÿÿÿÿÿÿÿÿÿÿÿÿÿÿÿÿÿÿÿÿÿÿÿÿÿÿÿÿÿÿÿÿÿÿÿÿÿÿÿÿÿÿÿÿÿÿÿÿÿÿÿÿÿÿÿÿÿÿÿÿÿÿÿÌŠ3      Z©õÿÿÿÿÿÿÿÿÿÿÿÿÿÿÿÿÿííâÚÚÏÈ¾µ°°¥–ƒƒuuuuuuuuuuuuuuu{{{{{uƒ{ )ÿÿÿÿÿÿÿÿÿÿÿÿÿÿÿÿÿÿÿÿÿÿÿÿÿÿÿÿÿÿÿÿÿÿÿÿÿÿÿÿÿÿÿÿÿÿÿÿÿÿÿÿÿÿÿÿÿÿÿÿÿÿÿÿÿÿÿÿÿÿÿÿÿÿÿÿÿÿÿÿÿÿÿÿÿÿÿÿÿÿÿÿÿÿÿÿÿÿÿÿÿÿÿÿÿÿÿÿÿÿÿÿÿÿÿÿÿÿÿÿÿÿÿÿÿÿÿÿÿÿÿÿÿÿÿÿÿÿÿÿÿÿÿÿÿÿÿÿÿÿÿÿÿÿÿÿÿÿÿÿÿÿÿÿÿÿÿÿÿÿÿÿÿÿÿÿÿÿÿÿÿÿÿÿÿÿÿÿÿÿÿÿÿÿÿÿÿÿÿÿÿÿÿÿÿÿÿÿÿÿÿÿÿÿÿÿÿÿÿÿÿÿÿÿõÅ{<      @Š×ÿÿÿÿÿÿÿÿÿÿÿÿÿÿÿÿÿÿÿÿíèâÚÏÏÈ¾¾°°¥––ƒƒuuuuuuuuuuuuuu{{{{{{{{ƒ )ÿÿÿÿÿÿÿÿÿÿÿÿÿÿÿÿÿÿÿÿÿÿÿÿÿÿÿÿÿÿÿÿÿÿÿÿÿÿÿÿÿÿÿÿÿÿÿÿÿÿÿÿÿÿÿÿÿÿÿÿÿÿÿÿÿÿÿÿÿÿÿÿÿÿÿÿÿÿÿÿÿÿÿÿÿÿÿÿÿÿÿÿÿÿÿÿÿÿÿÿÿÿÿÿÿÿÿÿÿÿÿÿÿÿÿÿÿÿÿÿÿÿÿÿÿÿÿÿÿÿÿÿÿÿÿÿÿÿÿÿÿÿÿÿÿÿÿÿÿÿÿÿÿÿÿÿÿÿÿÿÿÿÿÿÿÿÿÿÿÿÿÿÿÿÿÿÿÿÿÿÿÿÿÿÿÿÿÿÿÿÿÿÿÿÿÿÿÿÿÿÿÿÿÿÿÿÿÿÿÿÿÿÿÿÿÿÿÿÿÿÿë³f3      ){¼ÿÿÿÿÿÿÿÿÿÿÿÿÿÿÿÿÿÿÿÿÿÿÿííâÚÚÏÈ¾¾°°¥¥––ƒ{uuuuuuuuu{{{{{{{{{{{ƒƒ )ÿÿÿÿÿÿÿÿÿÿÿÿÿÿÿÿÿÿÿÿÿÿÿÿÿÿÿÿÿÿÿÿÿÿÿÿÿÿÿÿÿÿÿÿÿÿÿÿÿÿÿÿÿÿÿÿÿÿÿÿÿÿÿÿÿÿÿÿÿÿÿÿÿÿÿÿÿÿÿÿÿÿÿÿÿÿÿÿÿÿÿÿÿÿÿÿÿÿÿÿÿÿÿÿÿÿÿÿÿÿÿÿÿÿÿÿÿÿÿÿÿÿÿÿÿÿÿÿÿÿÿÿÿÿÿÿÿÿÿÿÿÿÿÿÿÿÿÿÿÿÿÿÿÿÿÿÿÿÿÿÿÿÿÿÿÿÿÿÿÿÿÿÿÿÿÿÿÿÿÿÿÿÿÿÿÿÿÿÿÿÿÿÿÿÿÿÿÿÿÿÿÿÿÿÿÿÿÿÿÿÿÿÿÿÿÿÿÿ×”L      ){¼òÿÿÿÿÿÿÿÿÿÿÿÿÿÿÿÿÿÿÿÿÿÿÿÿÿíèâÚÚÏÈ¾¾°°¥¥––ƒƒ{{{{{{{{{{{{{{{{{{{{{ƒƒ )ÿÿÿÿÿÿÿÿÿÿÿÿÿÿÿÿÿÿÿÿÿÿÿÿÿÿÿÿÿÿÿÿÿÿÿÿÿÿÿÿÿÿÿÿÿÿÿÿÿÿÿÿÿÿÿÿÿÿÿÿÿÿÿÿÿÿÿÿÿÿÿÿÿÿÿÿÿÿÿÿÿÿÿÿÿÿÿÿÿÿÿÿÿÿÿÿÿÿÿÿÿÿÿÿÿÿÿÿÿÿÿÿÿÿÿÿÿÿÿÿÿÿÿÿÿÿÿÿÿÿÿÿÿÿÿÿÿÿÿÿÿÿÿÿÿÿÿÿÿÿÿÿÿÿÿÿÿÿÿÿÿÿÿÿÿÿÿÿÿÿÿÿÿÿÿÿÿÿÿÿÿÿÿÿÿÿÿÿÿÿÿÿÿÿÿÿÿÿÿÿÿÿÿÿÿÿÿÿÿÿÿÿÿÿà¥Z)      <„ÌõÿÿÿÿÿÿÿÿÿÿÿÿÿÿÿÿÿÿÿÿÿÿÿÿÿÿÿÿíèâÚÚÏÈ¾¾µ¬¬¥–ƒ{{{{{{{{{{{{{{{{{{{{{ƒƒ ÿÿÿÿÿÿÿÿÿÿÿÿÿÿÿÿÿÿÿÿÿÿÿÿÿÿÿÿÿÿÿÿÿÿÿÿÿÿÿÿÿÿÿÿÿÿÿÿÿÿÿÿÿÿÿÿÿÿÿÿÿÿÿÿÿÿÿÿÿÿÿÿÿÿÿÿÿÿÿÿÿÿÿÿÿÿÿÿÿÿÿÿÿÿÿÿÿÿÿÿÿÿÿÿÿÿÿÿÿÿÿÿÿÿÿÿÿÿÿÿÿÿÿÿÿÿÿÿÿÿÿÿÿÿÿÿÿÿÿÿÿÿÿÿÿÿÿÿÿÿÿÿÿÿÿÿÿÿÿÿÿÿÿÿÿÿÿÿÿÿÿÿÿÿÿÿÿÿÿÿÿÿÿÿÿÿÿÿÿÿÿÿÿÿÿÿÿÿÿÿÿÿÿÿÿÿÿÿÿÿÌ™R      R¥òÿÿÿÿÿÿÿÿÿÿÿÿÿÿÿÿÿÿÿÿÿÿÿÿÿÿÿÿÿÿÿÿííâÚÏÏÈÈ¾µ¬¬¥–ƒ{{{{{{{{{{{{{{{{{{{{{ƒƒ ÿÿÿÿÿÿÿÿÿÿÿÿÿÿÿÿÿÿÿÿÿÿÿÿÿÿÿÿÿÿÿÿÿÿÿÿÿÿÿÿÿÿÿÿÿÿÿÿÿÿÿÿÿÿÿÿÿÿÿÿÿÿÿÿÿÿÿÿÿÿÿÿÿÿÿÿÿÿÿÿÿÿÿÿÿÿÿÿÿÿÿÿÿÿÿÿÿÿÿÿÿÿÿÿÿÿÿÿÿÿÿÿÿÿÿÿÿÿÿÿÿÿÿÿÿÿÿÿÿÿÿÿÿÿÿÿÿÿÿÿÿÿÿÿÿÿÿÿÿÿÿÿÿÿÿÿÿÿÿÿÿÿÿÿÿÿÿÿÿÿÿÿÿÿÿÿÿÿÿÿÿÿÿÿÿÿÿÿÿÿÿÿÿÿÿÿÿÿÿÿÿÿÿÿÿà³{)        3{ÌÿÿÿÿÿÿÿÿÿÿÿÿÿÿÿÿÿÿÿÿÿÿÿÿÿÿÿÿÿÿÿÿÿÿÿÿíëâÚÚÏÈÈ¾¾¬¬¥–ƒ{{{{{{{{{{{{{{{{{{{{{ƒ ÿÿÿÿÿÿÿÿÿÿÿÿÿÿÿÿÿÿÿÿÿÿÿÿÿÿÿÿÿÿÿÿÿÿÿÿÿÿÿÿÿÿÿÿÿÿÿÿÿÿÿÿÿÿÿÿÿÿÿÿÿÿÿÿÿÿÿÿÿÿÿÿÿÿÿÿÿÿÿÿÿÿÿÿÿÿÿÿÿÿÿÿÿÿÿÿÿÿÿÿÿÿÿÿÿÿÿÿÿÿÿÿÿÿÿÿÿÿÿÿÿÿÿÿÿÿÿÿÿÿÿÿÿÿÿÿÿÿÿÿÿÿÿÿÿÿÿÿÿÿÿÿÿÿÿÿÿÿÿÿÿÿÿÿÿÿÿÿÿÿÿÿÿÿÿÿÿÿÿÿÿÿÿÿÿÿÿÿÿÿÿÿÿÿÿÿÿÿÿëÅ”f)         3r¼ÿÿÿÿÿÿÿÿÿÿÿÿÿÿÿÿÿÿÿÿÿÿÿÿÿÿÿÿÿÿÿÿÿÿÿÿÿÿÿÿíëâÚÚÏÈÈ¾µ¬¬¥––ƒ{{{{{{{{{{{{{{{{{{{{{ƒ )ÿÿÿÿÿÿÿÿÿÿÿÿÿÿÿÿÿÿÿÿÿÿÿÿÿÿÿÿÿÿÿÿÿÿÿÿÿÿÿÿÿÿÿÿÿÿÿÿÿÿÿÿÿÿÿÿÿÿÿÿÿÿÿÿÿÿÿÿÿÿÿÿÿÿÿÿÿÿÿÿÿÿÿÿÿÿÿÿÿÿÿÿÿÿÿÿÿÿÿÿÿÿÿÿÿÿÿÿÿÿÿÿÿÿÿÿÿÿÿÿÿÿÿÿÿÿÿÿÿÿÿÿÿÿÿÿÿÿÿÿÿÿÿÿÿÿÿÿÿÿÿÿÿÿÿÿÿÿÿÿÿÿÿÿÿÿÿÿÿÿÿÿÿÿÿÿÿÿÿÿÿÿÿÿÿÿÿÿÿÿÿÿà¼™rL           RŠÌÿÿÿÿÿÿÿÿÿÿÿÿÿÿÿÿÿÿÿÿÿÿÿÿÿÿÿÿÿÿÿÿÿÿÿÿÿÿÿÿÿÿÿÿíëâÚÚÏÈÈ¾¾°¬¥–ƒƒ{{{{{{{{{{{{{{{{{{{{ƒ )ÿÿÿÿÿÿÿÿÿÿÿÿÿÿÿÿÿÿòòÿÿÿÿÿÿÿÿÿÿÿÿÿÿÿÿÿÿÿÿÿÿÿÿÿÿÿòòòÿÿÿÿÿÿÿÿÿÿÿÿÿÿÿÿÿÿÿÿÿÿÿõõÿÿÿÿÿÿÿÿÿÿÿÿÿÿÿòòòÿÿÿÿÿÿÿÿÿÿõÿÿÿÿÿÿÿÿÿÿÿÿÿÿÿÿÿÿÿÿÿÿÿÿÿÿÿÿÿÿÿÿÿÿÿÿÿÿÿÿÿÿÿÿÿÿÿÿÿÿÿÿÿÿÿÿÿÿÿÿÿÿÿÿÿÿÿÿÿÿÿÿÿòëà×Å³ Švf@3              L{°ëÿÿÿÿÿÿÿÿÿÿÿÿÿÿÿÿÿÿÿÿÿÿÿÿÿÿÿÿÿÿÿÿÿÿÿÿÿÿÿÿÿÿÿÿÿÿÿÿíëâÚÚÏÏÈ¾¾°¬¥–ƒƒ{{{{{{{{{{{ƒƒƒƒ{ƒƒƒƒƒ    %//L)%  )Lv¥³Á¼×ÿò¹’{<        @f)@ ÃõÌãÌÌÌ×ÌÌÅ°ÌÛÅÅÒÒàëúÿÿÿÿÿú¹¥j      3<3fŠŠ³¥™™™™”<))                                                                                         R{¥ÌÿÿÿÿÿÿÿÿÿÿÿÿÿÿÿÿÿÿÿÿÿÿÿÿÿÿÿÿÿÿÿÿÿÿÿÿÿÿÿÿÿÿÿÿÿÿÿÿÿÿÿÿÿÿííââÚÏÈÈ¾¾°¬¥¥––ƒƒƒƒƒƒƒƒƒƒƒƒƒƒƒƒƒƒƒƒƒƒ //%<7/3Z3„àÁ7%7/%  3Lf@        )f™§Ìõë{R3”ÿÃëààà×ÌÌÌ°Èèÿÿÿÿÿÿÿí³€L     3@@v™ ¼³Å¼Å¥’’’’’© úL„ÌŠ3@f                                                                           )Lf„¥ÅàÿÿÿÿÿÿÿÿÿÿÿÿÿÿÿÿÿÿÿÿÿÿÿÿÿÿÿÿÿÿÿÿÿÿÿÿÿÿÿÿÿÿÿÿÿÿÿÿÿÿÿÿÿÿÿÿÿÿÿÿííââÚÏÏÈ¾¾°°¥¥–ƒƒƒƒƒƒƒƒƒƒƒƒƒƒƒƒƒƒƒƒƒ  %//@L333%3Z@)¼ÈGGGLL^@3)3  Rv¼ãõÿÿí¹¹¹°§fLÿÒ×ÌÌÌàòÿÿÿÿÿÿòÁŠf/       @ ¥ÌÖÃ¼ÌÁfZ ™””’ ¯ÈÒ¹ èc‚ÛÌ¹×ÌRR3 3 <L))Z„ŠrR<<@@R^jjR  33)%))%/ZjR%<fjjjjjjjjjr{{„”™¥³¼Ì×ëúÿÿÿÿÿÿÿÿÿÿÿÿÿÿÿÿÿÿÿÿÿÿÿÿÿÿÿÿÿÿÿÿÿÿÿÿÿÿÿÿÿÿÿÿÿÿÿÿÿÿÿÿÿÿÿÿÿÿÿÿÿÿÿÿÿÿÿÿííââÚÏÈÈ¾¾°¬¬¥–ƒƒƒƒƒƒƒƒƒƒƒƒƒƒƒƒƒƒƒƒƒ @  %%%/<RR)™× ////3333@R@„ÿÿ°°àÿÿÿõõàÿÈ’¥¥°×¼LLÿÈÿÿÿÿÿÿÿ×Šv@     )Z™”™Ì¥ÿ©ÒÈ³³©©©¥’³ÛÌÁ¹™„„„  ív‚ÌÁ¢¹¹rÌõ°°×¥)ZRR)R3)@”àÿÿÿÿë×××õÿõ××ŠfR„™jcRRjvfj‚ZcŠ™™ŠRàÿÿÿÿÿÿÿÿÿÿÿÿÿÿÿÿÿÿÿÿÿÿÿÿÿÿÿÿÿÿÿÿÿÿÿÿÿÿÿÿÿÿÿÿÿÿÿÿÿÿÿÿÿÿÿÿÿÿÿÿÿÿÿÿÿÿÿÿÿÿÿÿÿÿÿÿÿÿÿÿÿÿÿÿÿÿÿÿÿÿííââÚÏÏÈ¾¾°¬¬–ƒƒƒƒƒƒƒƒƒƒƒƒƒƒƒƒƒƒƒƒƒ–  Š™Š€fRL3    )<jÒ %///))33@@/òëã×ëàÌàÿÿÿÿÒòÿ×¼¥¥¥”ÿÿÿÛ©vG       ”„ÖõãÌÅ¼Á’Û™© ©  ¹¹©ÁÁ³³ÈÈÌÌÌŠR{’ÁZ’Ì³ÁÁÈÈ¥ ¹ÁÒ³¹¼f)3)@@ )  3f³ÿÿë³”¼°ÅÅÅ³õjv™ŠR/<RRZZ<//RxG©ÿÿÿÿÿÿÿÿÿÿÿÿÿÿÿÿÿÿÿÿÿÿÿÿÿÿÿÿÿÿÿÿÿÿÿÿÿÿÿÿÿÿÿÿÿÿÿÿÿÿÿÿÿÿÿÿÿÿÿÿÿÿÿÿÿÿÿÿÿÿÿÿÿÿÿÿÿÿÿÿÿÿÿÿÿÿÿÿÿÿííââÚÏÏÈ¾¾°°¥¥–ƒƒƒƒƒƒƒƒƒƒƒƒƒƒƒƒƒƒƒƒƒ– v™ŠŠŠ””””””ŠjLL< @Ì%//%///@@L/{Û¼ÅëÿÿÿÿÅ¼§€R@„°Ìààà¼ÿ     @rr”×ÅÌ×Å”™™j„ © ¹ŠÒ©’© Ì³™³³©’©¹©³©¹ÒèèÁíZ„Å ÁÁ³©³Á¹¢ ¢¢¥¼¥° RRR3  )ff×ÿÿ×°¥Ìÿÿà”rrfj’³™ZLLL@ffZZ ÿÿÿÿÿÿÿÿÿÿÿÿÿÿÿÿÿÿÿÿÿÿÿÿÿÿÿÿÿÿÿÿÿÿÿÿÿÿÿÿÿÿÿÿÿÿÿÿÿÿÿÿÿÿÿÿÿÿÿÿÿÿÿÿÿÿÿÿÿÿÿÿÿÿÿÿÿÿÿÿÿÿÿÿÿÿÿÿÿÿííââÚÚÏÈ¾¾µ¬¬¥––ƒƒƒƒƒƒƒƒƒƒƒƒƒƒƒƒƒƒƒƒƒ– Z”€€‚‚‚‚‚‚‚”™¥™™™”È//%/777GLL”ÿÿÿà™Z 3Rr„v”¼¼³×ÿf^    R”×ÿÿÿÿÿ©³Ò©©³¹Š’’ è§××Å¼¥™¼¼¥³³™™ ™™   © ÿ„’í¹©€{’™³’©³ÌÁ¹ÌÁ™ÅZRà°”vZRRfv   ¥Ìÿ¼@ RrcccZ{ ’¥™{ffRRZ ÿÿÿÿÿÿÿÿÿÿÿÿÿÿÿÿÿÿÿÿÿÿÿÿÿÿÿÿÿÿÿÿÿÿÿÿÿÿÿÿÿÿÿÿÿÿÿÿÿÿÿÿÿÿÿÿÿÿÿÿÿÿÿÿÿÿÿÿÿÿÿÿÿÿÿÿÿÿÿÿÿÿÿÿÿÿÿÿÿÿííââÚÏÏÈ¾¾µ¬¬¥––ƒƒƒƒƒƒƒƒƒƒƒƒƒƒƒƒƒƒƒƒƒ¥  „”„„„„„„„„„€€€ŠŠŠ™¹7//<<<L)3r”   )Z™™{  )f   ³à¼ Š    <”r¼ÿÿÿÿÒ™ÁÁÈÁÛŠ™™™ °ÅL7ÒÁ©™™ ©© ¯  Š¼RjÁÁÛí¹©™’™¹³³  Á¹ëõõà×àÃ™3@   {{’vjZ<Gcj^LRZ@Zr{rrZZ™ÿÿÿÿÿÿÿÿÿÿÿÿÿÿÿÿÿÿÿÿÿÿÿÿÿÿÿÿÿÿÿÿÿÿÿÿÿÿÿÿÿÿÿÿÿÿÿÿÿÿÿÿÿÿÿÿÿÿÿÿÿÿÿÿÿÿÿÿÿÿÿÿÿÿÿÿÿÿÿÿÿÿÿÿÿÿÿÿÿÿííèâÚÚÏÈÈ¾µ°¬¥–ƒƒƒƒƒƒƒƒƒƒƒƒƒƒƒƒƒƒƒƒƒ¥  ŠŠ„„„„„„„„„‚‚‚Š€€”È//)”ã@3°ÿÿÿõõRRR)R    @Zv”ëÿÌÅ     )f¼ÿÿèÿ’{Rà¥ÅÅ³©©Á©©ÁÈâÈ¼©  ©Á³ëjv©©™³¹ÒèèÛÁŠ™³  ©³       )3@fZZ3rÃÛòÈ”””Ûÿòè¹c))<@frrrRLRfv3¥ÿÿÿÿÿÿÿÿÿÿÿÿÿÿÿÿÿÿÿÿÿÿÿÿÿÿÿÿÿÿÿÿÿÿÿÿÿÿÿÿÿÿÿÿÿÿÿÿÿÿÿÿÿÿÿÿÿÿÿÿÿÿÿÿÿÿÿÿÿÿÿÿÿÿÿÿÿÿÿÿÿÿÿÿÿÿÿÿÿÿííââÚÏÏÈÈ¾µµ¬¥¥–ƒ¥  Š”„Š„„„„„„„„„„ŠŠŠŠ%¹ %@r„f@)Z” ”ÿÿë¼¥¥°Èrà””<<< L  3  vŠ³ÌÌë¥R    L„ëÿÿÿÒ’È³¼È¹©    ©ÌÒ¹¹¹™Åj^³ ’Š{{{’ Èà×Á³³©„°Å Ãàòÿÿÿÿÿòÿ¥@³ÒÁòÿÛë ³íÿÿÿÿÿÿÿÿëÿÿëÿÿõ¼™3”ÿÿÿÿÿÿÿÿÿÿÿÿÿÿÿÿÿÿÿÿÿÿÿÿÿÿÿÿÿÿÿÿÿÿÿÿÿÿÿÿÿÿÿÿÿÿÿÿÿÿÿÿÿÿÿÿÿÿÿÿÿÿÿÿÿÿÿÿÿÿÿÿÿÿÿÿÿÿÿÿÿÿÿÿÿÿÿÿÿÿííèâÚÚÏÈÈ¾µ°¬¥¥–¥  ŠŠ{„„„„„„„„„„„„„Š{°ZÅ¼à×¼ãÿÿë×°)€Å¥¼°°Å×f³r€//LL °ëÌ„ŠRZ)  )L  3„Ì¼¼×„j@    f°àÿàÿÌ ×ÈÒ¹³ ™„’™  ëjvÁ{„¹„ ©Šv’„©¹ÛÛÛÛëÌ’¥Å™™„„„¥¥’ÌÌòÿ×Å”™rv3     Šàë× °ÃÌëÿàëÿÿÿÿÿÿÿÿÿÿÿÿÿÿÿÿÿÿÿÿÿÿÿÿÿÿÿÿÿÿÿÿÿÿÿÿÿÿÿÿÿÿÿÿÿÿÿÿÿÿÿÿÿÿÿÿÿÿÿÿÿÿÿÿÿÿÿÿÿÿÿÿÿÿÿÿÿÿÿÿÿÿÿÿÿÿÿÿÿÿííèâÚÚÏÈÈ¾¾°¬¬¥–¥  ’’’‚ŠŠŠŠŠŠŠ’„„Š{™{Ì¼×°”)Z”<°¼°”L¥×°¼¼°ÅÒf¼r€<v”§Åf„%ZŠrZRf)      Z”Ìàà”f    )Z™ÌàÌÿÁ³ÛÈÛÁ³³ Û^v¹ÌÌÁ©™ ³¹¥ Š{{vŠ ÁÒÁ™   Á¹   ¹ <        rR@@   f3Rëë¼×Ì°¥ëÿÿÿÿÿÿÿÿÿÿÿÿÿÿÿÿÿÿÿÿÿÿÿÿÿÿÿÿÿÿÿÿÿÿÿÿÿÿÿÿÿÿÿÿÿÿÿÿÿÿÿÿÿÿÿÿÿÿÿÿÿÿÿÿÿÿÿÿÿÿÿÿÿÿÿÿÿÿÿÿÿÿÿÿÿÿÿÿÿÿííèâÚÚÏÈÈ¾¾µ¬¬¥–¥– Rcx^Rjj‚xxŠ’’’’Š’v^”¼Ì”{3r„LÅ¼¼ L¥Ò°¼¼¼ÌÌf¼r‚%//R™^jL°°¥¼ŠLŠR<Šc7     3) Ñ°vvR)    <³¹àèÛëëÁè„^³’Š{ ©¹³¹ ™™¹   „„’  ÌÛÒ¹¹¹¹¢ R)3R”¼Åàèííâèú°)33R   RR3”¼××ëÿÿÿÿÿÿÿÿÿÿÿÿÿÿÿÿÿÿÿÿÿÿÿÿÿÿÿÿÿÿÿÿÿÿÿÿÿÿÿÿÿÿÿÿÿÿÿÿÿÿÿÿÿÿÿÿÿÿÿÿÿÿÿÿÿÿÿÿÿÿÿÿÿÿÿÿÿÿÿÿÿÿÿÿÿÿÿÿÿÿííèâÚÚÏÏÈ¾¾°°¬¥–¥–  ccRG777RG7GGv‚^™ €òrõ×¼”7’ L°Å°”L¥Ì§¼¼¼ÌÌf¼vŠ//)L3Z©rj   3r%%@„3vÁ¹””RRrR    L„™™ ™Z@   3{”°¼ëŠ{ÿÁÁ¹©©’’ © ¹¹¹Á™   Š„rv’ ¯ÌÌÁ©ÅëàÌ×Ì©¹¹¹ ¹¯¯”fÅ@LLr3     @Š×ÿÿÿÿÿÿÿÿÿÿÿÿÿÿÿÿÿÿÿÿÿÿÿÿÿÿÿÿÿÿÿÿÿÿÿÿÿÿÿÿÿÿÿÿÿÿÿÿÿÿÿÿÿÿÿÿÿÿÿÿÿÿÿÿÿÿÿÿÿÿÿÿÿÿÿÿÿÿÿÿÿÿÿÿÿÿÿÿÿÿííèâÚÚÏÏÈ¾¾µ°¬¥–¥– RRGRRRR7/7//7/vjZòc^@°ÌŠŠ3°Å³’L°Ì°¼¼°ÌÌfÅrŠ%/73j¥jj ) G7/LGc€’rÈŠr°j%G@     <r””ŠjL3Z)R³¹ÈëëÈÈ¹¹™™¢™™’’©³³’ ¹¹¯¢™™¥³Á¹ ³³ ’    ¯Á¹à¹ Rÿÿf¥³fLR3 ZÿÿÿÿÿÿÿÿÿÿÿÿÿÿÿÿÿÿÿÿÿÿÿÿÿÿÿÿÿÿÿÿÿÿÿÿÿÿÿÿÿÿÿÿÿÿÿÿÿÿÿÿÿÿÿÿÿÿÿÿÿÿÿÿÿÿÿÿÿÿÿÿÿÿÿÿÿÿÿÿÿÿÿÿÿÿÿÿÿÿííâââÚÏÏÈ¾¾°°¬¥–¥– ccR<<GG%%<RL<ÿ  °ÌŠ’@¼¼¼”G°Ì°°°°ÒÅrÈfŠ)%%3R³ff %%/G%7%<f  ^°Šff){àŠ”@<jL33LRr„ŠŠf@)%%3@Z™ÅíààòòÅÅ³³©³³„’¹³¹¹©© ™™’’ ¹ÛÁ°ÒÈÈ¢¯ Á’ <×Å™ÛÅÅà„ZfR vÿÿÿÿÿÿÿÿÿÿÿÿÿÿÿÿÿÿÿÿÿÿÿÿÿÿÿÿÿÿÿÿÿÿÿÿÿÿÿÿÿÿÿÿÿÿÿÿÿÿÿÿÿÿÿÿÿÿÿÿÿÿÿÿÿÿÿÿÿÿÿÿÿÿÿÿÿÿÿÿÿÿÿÿÿÿÿÿÿÿííèâÚÚÏÏÈ¾¾µµ¬¥¥–¥– GRR<//<%%<<@ÿG Ì¼ ”¼¼¼Š@¥Ì¼¼ÌÌ×¼3fÒr€3/7)°{^ )/<%<R{//R ”f %%„³ R3¥ÅÅ°)L3 Z{ZjfL3)@jÁÌëòÿÌÁ¼¼©     ³³¹³©©™    ³ÁÁÈÁÈÈ¢Š ¬™™Á©¹Û™ ÿ¼{@¼ÿÿÿÿÿÿÿÿÿÿÿÿÿÿÿÿÿÿÿÿÿÿÿÿÿÿÿÿÿÿÿÿÿÿÿÿÿÿÿÿÿÿÿÿÿÿÿÿÿÿÿÿÿÿÿÿÿÿÿÿÿÿÿÿÿÿÿÿÿÿÿÿÿÿÿÿÿÿÿÿÿÿÿÿÿÿÿÿÿÿííèâÚÚÏÏÈÈ¾µµ¬¬¥–––––––––¥– %%) 3@LàR  ÅÅ)v  ××¼€LàÿàëÌ°×È% Å€Š%3G%GLLL  €^/%%%7//){j73^©”j))))f”™Z)fR3f{jÌ¥„^337ZRfrf3)Rj’ ÌëÛàííÛÁ¥¹©©©©©°¹©©©  ©¹¯¹¹ÒöÛ¹ Š©™™³Š{Û¹¹¹àÿÿÿÿÿÿÿÿÿÿÿÿÿÿÿÿÿÿÿÿÿÿÿÿÿÿÿÿÿÿÿÿÿÿÿÿÿÿÿÿÿÿÿÿÿÿÿÿÿÿÿÿÿÿÿÿÿÿÿÿÿÿÿÿÿÿÿÿÿÿÿÿÿÿÿÿÿÿÿÿÿÿÿÿÿÿÿÿÿÿííèââÚÏÏÈÈ¾¾°°¬¥––––––––––––––––¥–  {r^L<//   ¥L  ¼¼3”jÅõÅ¼’GŠ„L@  ÒÒ R Š %33L°vfLG<<<33’f@¥™f)///f¥™Z%333Z3f„„×€/33@@@” jRjR)3{v@{™³ÁëëëëÛÁ°™™¥©©³³¹¹¯¯¢  ¢¹Ò³³Ì³¯¯{r³Š™™ÒÿÿÿÿÿÿÿÿÿÿÿÿÿÿÿÿÿÿÿÿÿÿÿÿÿÿÿÿÿÿÿÿÿÿÿÿÿÿÿÿÿÿÿÿÿÿÿÿÿÿÿÿÿÿÿÿÿÿÿÿÿÿÿÿÿÿÿÿÿÿÿÿÿÿÿÿÿÿÿÿÿÿÿÿÿÿÿÿÿÿíííâÚÚÏÏÈ¾¾¾µ°¬¥–––––––––––––––––––––¥– ¥° §§  ’ŠŠ€f^RL</f¹™ÌÌ”)×ò 33à’      @×©Š€^€Š@G/   r¥R /7<<LL3™j/<<)%/ { j/%L°™ZG<//<f  @R¼f%%3@L )Š)LL<v’vZ@@<@fvŠ¼ÛÛöëÌÌ¯¯© ©¢³³¹¹¹  ©’ ÅÅÅÒ™„× ”vÅÿÿÿÿÿÿÿÿÿÿÿÿÿÿÿÿÿÿÿÿÿÿÿÿÿÿÿÿÿÿÿÿÿÿÿÿÿÿÿÿÿÿÿÿÿÿÿÿÿÿÿÿÿÿÿÿÿÿÿÿÿÿÿÿÿÿÿÿÿÿÿÿÿÿÿÿÿÿÿÿÿÿÿÿÿÿÿÿÿÿííèââÚÒÏÈÈ¾¾°°°¥¥–––––––––––––––––––––¥  Š’„ŠŠŠŠ’’  §§§§’ÁfLà¼ŠÅ¥     ë€@v™¼Òëà×°LÅò^„^Š¹© „vZRR c   )©j/LRL^{ r33%%%j°f/7//Lj3L^³^%<%3@)R ŠŠ3vf@@ZZ^fjjL<Lv™¥ààííÒÒÁ¹¯¯¯©¯³³§ § ¯Á’„ë¼³¥àÿÿÿÿÿÿÿÿÿÿÿÿÿÿÿÿÿÿÿÿÿÿÿÿÿÿÿÿÿÿÿÿÿÿÿÿÿÿÿÿÿÿÿÿÿÿÿÿÿÿÿÿÿÿÿÿÿÿÿÿÿÿÿÿÿÿÿÿÿÿÿÿÿÿÿÿÿÿÿÿÿÿÿÿÿÿÿÿÿÿííèâÚÚÚÏÈÈ¾¾°°¬¬¥–––––––––––––––––––––¥  ’’ŠŠ€€€€€€€€€€€€°Rr@  ×°L{¥ÅÒÅ’ ÿÿëëëÈ×°fÒfŠ//ŠÁÁ¹ÈÛÒ°^€^ €fZGG/™f) Z¥jL@)GR¼^))///%Rv %/RÁj)%3<)3@ZZ°LLŠ©Š”{G<L„v@@3<33Rfr’©ÒÒàöÛÛÁ³ ¹Š©¹¹³Á™v¯Š°°ÛÿÿÿÿÿÿÿÿÿÿÿÿÿÿÿÿÿÿÿÿÿÿÿÿÿÿÿÿÿÿÿÿÿÿÿÿÿÿÿÿÿÿÿÿÿÿÿÿÿÿÿÿÿÿÿÿÿÿÿÿÿÿÿÿÿÿÿÿÿÿÿÿÿÿÿÿÿÿÿÿÿÿÿÿÿÿÿÿÿÿíííââÚÚÏÈÈ¾¾µ°°¥¥–––––––––––––––––––––¥¥  ’’€€€ŠŠŠŠŠŠŠŠŠŠ€°L^”j°Å””ëÒ§ÿà¼Š3¼×³¼Å³à§7{Ìf’<<’¥ ’™³j°fr<’ÛÒÁÁÒÒ§€ff€cG@@™r LÈ^3<GGG/f{3</”{)<R3<^ r°@  @Š¼j§”fv€RZfffLG)77<^fŠ ÒòòÿÛ ¹©© ¹ ‚Á ³ÁÿÿÿÿÿÿÿÿÿÿÿÿÿÿÿÿÿÿÿÿÿÿÿÿÿÿÿÿÿÿÿÿÿÿÿÿÿÿÿÿÿÿÿÿÿÿÿÿÿÿÿÿÿÿÿÿÿÿÿÿÿÿÿÿÿÿÿÿÿÿÿÿÿÿÿÿÿÿÿÿÿÿÿÿÿÿÿÿÿÿòíëââÚÒÏÏÈ¾¾µ°°¥¥–––––––––––––––––––––¥¥  ’’„„ŠŠŠŠŠŠŠŠŠŠŠ€³RGúÿÿ¼€3^7R¥¥ÈŠLÌ×ÅÅÅ³à 3{Òf’%7LZ{‚jŠr™rj%j¹© ¯¢³¼Š^R¹ÛÈ©¹³ ’rZjR<)¥v  %/’j)@@R vv%%Š<Rr3R°¥R /Zvf Lr@@@’’Rv</^^^GGZ@))@@Z’™³ÛàíÌà v¹ ¥’ÌÿÿÿÿÿÿÿÿÿÿÿÿÿÿÿÿÿÿÿÿÿÿÿÿÿÿÿÿÿÿÿÿÿÿÿÿÿÿÿÿÿÿÿÿÿÿÿÿÿÿÿÿÿÿÿÿÿÿÿÿÿÿÿÿÿÿÿÿÿÿÿÿÿÿÿÿÿÿÿÿÿÿÿÿÿÿÿÿÿÿòííââÚÚÏÏÈ¾¾°°°¬¥¥––––––––––––––––––¥¥  ™¥™™™™’’’’ŠŠŠŠŠ€³<LöÿÛ¼’)G^Š¼³Ì€LÌÌ¼ÅÅ³ë 7{Ìf’<</r©€^Lj‚’‚j€™Šj/ŠÁÁ¯Á™È’cZÅÅÁ¹¹’„rZZ@3)%™Z ) jr%%/€jŠÌ3Rà”L @^%/L{Z)7’¼f@3%Rf„ R@™Z@3<<<3<L{™Ì¥ í¹¥”×ÿÿÿÿÿÿÿÿÿÿÿÿÿÿÿÿÿÿÿÿÿÿÿÿÿÿÿÿÿÿÿÿÿÿÿÿÿÿÿÿÿÿÿÿÿÿÿÿÿÿÿÿÿÿÿÿÿÿÿÿÿÿÿÿÿÿÿÿÿÿÿÿÿÿÿÿÿÿÿÿÿÿÿÿÿÿÿÿÿÿòííâÚÚÚÏÏÈ¾¾¾°°¬¥¥¶¥ ^^ZZfffrr{{„„€’ŠÁc R^È©<vvŠàÅÅ€GÌÌ¼¼¼°ë™/„Ìf’ %/^Ár^ <RL’¥Šf)RjŠŠ€^ ’r)™¹ÌÁ³Å ZrÌÌ¹¹©„„jRR<<3Š33/j©”^Šÿ%3{Š°Z//<<%%)j{)GŠÅR %™<%Š)) Š€„<<R¼Šf)3))3v¼× ×ÿÿÿÿÿÿÿÿÿÿÿÿÿÿÿÿÿÿÿÿÿÿÿÿÿÿÿÿÿÿÿÿÿÿÿÿÿÿÿÿÿÿÿÿÿÿÿÿÿÿÿÿÿÿÿÿÿÿÿÿÿÿÿÿÿÿÿÿÿÿÿÿÿÿÿÿÿÿÿÿÿÿÿÿÿÿÿÿÿÿòííââÚÚÏÏÈ¾¾¾°°°¥¥¶¥ ™ŠrrfZff^^^^jv€v™jÒ% à³%c^^Ì¼Ò€<Ì×ÅÌàÈò’/ŠÈf’%/¼v^ %G/Š³’Z)@7j©™r)Zc™{rŠ ^<³ÒÁ¹¼°Š^’Ò¹³³  LG7 ³§^Z@ò ÅR<3)f3R3)’G)Z¼f  Rà Z)Z)<€ L3”ÿÿ×ã°°Rf§ÿ¼ÌÿÿÿÿÿÿÿÿÿÿÿÿÿÿÿÿÿÿÿÿÿÿÿÿÿÿÿÿÿÿÿÿÿÿÿÿÿÿÿÿÿÿÿÿÿÿÿÿÿÿÿÿÿÿÿÿÿÿÿÿÿÿÿÿÿÿÿÿÿÿÿÿÿÿÿÿÿÿÿÿÿÿÿÿÿÿÿÿÿÿòííââÚÚÏÏÈ¾¾¾µ°°°¥¶¥ )ÿÿÿÿÿÿÿàÒëÅ§¹³j^^¢¹ )ò )vR@ÿ×Ìv^ÿÿõõë¼ë’7ŠÅf’%< ¹€^ )@<  R)Z³™j%/Zj³”f)Lv’rr””LjÅÅÅ ³¥R/RvR³r   úL%’^  <Z  „Š L<)¼ G×< RZ@%c¹”R3³™ ¥™°””^’°ÌÿÿÿÿÿÿÿÿÿÿÿÿÿÿÿÿÿÿÿÿÿÿÿÿÿÿÿÿÿÿÿÿÿÿÿÿÿÿÿÿÿÿÿÿÿÿÿÿÿÿÿÿÿÿÿÿÿÿÿÿÿÿÿÿÿÿÿÿÿÿÿÿÿÿÿÿÿÿÿÿÿÿÿÿÿÿÿÿÿÿòííââÚÚÏÏÈÈ¾¾µ°°¥¥¶¥ 3ÿÌÛÌÌÛ¼¥¥  ©{3Á©G€R)3ò <‚Rfÿ³ÛŠvj<3 )ú’7ŠÅrŠ    / È{f %L)3  R))’¥r%%LL¹¥fL<r¼”R)Rv{f”°R7RL¼^€×¼°€È”fŠ™rj{{<) <”   „)Å^%LLZ%7/‚³)„™%77 G™ÌÿÿÿÿÿÿÿÿÿÿÿÿÿÿÿÿÿÿÿÿÿÿÿÿÿÿÿÿÿÿÿÿÿÿÿÿÿÿÿÿÿÿÿÿÿÿÿÿÿÿÿÿÿÿÿÿÿÿÿÿÿÿÿÿÿÿÿÿÿÿÿÿÿÿÿÿÿÿÿÿÿÿÿÿÿÿÿÿÿÿòííèâÚÚÏÏÈÈ¾¾µ°°¬¥¥¥¥¥¥¶¥  j’fL^% ¥¢cv í¹Lr<%%ÿ     %ÿ^   )^ú™„ÅrŠ<<<33 Š™< )%¥¥R %/Š©r%GjÁj%/L°”R%3j¼³GG7<  Zrë°ÈR°¥Z³úÒÁÁŠ„ÒÁ©™Šff^<fr  Š<  R3<3R¼% <Ì{ %)))3r°ÌÿÿÿÿÿÿÿÿÿÿÿÿÿÿÿÿÿÿÿÿÿÿÿÿÿÿÿÿÿÿÿÿÿÿÿÿÿÿÿÿÿÿÿÿÿÿÿÿÿÿÿÿÿÿÿÿÿÿÿÿÿÿÿÿÿÿÿÿÿÿÿÿÿÿÿÿÿÿÿÿÿÿÿÿÿÿÿÿÿÿòòëëâÚÚÏÏÈÈ¾¾¾°°°¥¥¥¥¥¥¥¥¥¶¥ <Û^Rv/ ÌÌG<  è³     ÿv <LLŠÛ ’¥°¼¼Ò¼ë€™ÅZ€„„€€€vvrfj”j3G<<)%  j³L     r¹j L%vÁj)3„°L33Š°R<)Š  f^È°×R¥¥f3{ v©ŠZÁÒ ³v”ë×³ {’°{™f</ Rf   ”<  ÿRLLZZZ3€ÌãÿÿÿÿÿÿÿÿÿÿÿÿÿÿÿÿÿÿÿÿÿÿÿÿÿÿÿÿÿÿÿÿÿÿÿÿÿÿÿÿÿÿÿÿÿÿÿÿÿÿÿÿÿÿÿÿÿÿÿÿÿÿÿÿÿÿÿÿÿÿÿÿÿÿÿÿÿÿÿÿÿÿÿÿÿÿÿÿÿÿòííèââÚÚÏÈÈÈ¾¾°°°¥¥¥¥¥¥¥¥¥¥¥¥¥¥¥¥¥¥¥¥¥¥¶¥ @úR    Å      à©Lf”” Å³³ÌÌÒÛÒ¹Òèòòòÿÿúÿ§à ëŠ ©™ ©   ™™„{Š„’’’ŠŠŠjjŠv^^LL<< <©f    <Ûf   /Š¼LLf³fZ Š¥f^¼§×R¥°f ZjÌ’%/jjÁ„L”³’ v¼àÅ”€ëë³¹j’{{”< 3R          °ÿÿÿÿÿÿÿÿÿÿÿÿÿÿÿÿÿÿÿÿÿÿÿÿÿÿÿÿÿÿÿÿÿÿÿÿÿÿÿÿÿÿÿÿÿÿÿÿÿÿÿÿÿÿÿÿÿÿÿÿÿÿÿÿÿÿÿÿÿÿÿÿÿÿÿÿÿÿÿÿÿÿÿÿÿÿÿÿÿÿòííèââÚÏÏÏÈ¾¾¾µ°°¥¥¥¥¥¥¥¥¥¥¥¥¥¥¥¥¥¥¥¥¥¥¶¥ 7Û 3GÅ³„§³ÒÁ¹©ÒÒÒÛÒÒÒàòÿÿÿúúúòò×ÒÅ³ ’€v”7LL^^jrr„„’™™§§©©©    ™™’„Š’’’’’’„{„{„€vjR<< v 3¼@  / jÌ@3™™” ffë³ÌR¥°f //7©©7RÁ™LŠÈjZ™ fŠÁ„¹fúÒ³³    ))@Lfff{ŠL°ÿÿÿÿÿÿÿÿÿÿÿÿÿÿÿÿÿÿÿÿÿÿÿÿÿÿÿÿÿÿÿÿÿÿÿÿÿÿÿÿÿÿÿÿÿÿÿÿÿÿÿÿÿÿÿÿÿÿÿÿÿÿÿÿÿÿÿÿÿÿÿÿÿÿÿÿÿÿÿÿÿÿÿÿÿÿÿÿÿÿòòëèââÚÏÏÏÈÈ¾¾¾°°¬¥¥¥¥¥¥¥¥¥¥¥¥¥¥¥¥¥¥¥¥¥¶¬  ÁÁÅààààÅÅàëëíòúòÿÿÿúúíÛÒÁ§Šv^R<L7)<)33)%)<3<@RZfr{„Š’™ §§§§§§§§™™ ™™ ™ ’r„™™’„„rZŠrL<//  @r¥„”°fv×¼àR§°f %7/ Å7„³3L¹€ŠëG RŠ¹Z<””’¹ë××àëëëàààààë°ÌÿÿÿÿÿÿÿÿÿÿÿÿÿÿÿÿÿÿÿÿÿÿÿÿÿÿÿÿÿÿÿÿÿÿÿÿÿÿÿÿÿÿÿÿÿÿÿÿÿÿÿÿÿÿÿÿÿÿÿÿÿÿÿÿÿÿÿÿÿÿÿÿÿÿÿÿÿÿÿÿÿÿÿÿÿÿÿÿÿÿòòíèââÚÚÏÏÈÈ¾¾µ°°¬¥¥¥¥¥¥¥¥¥¥¥¥¥¥¥¥¥¥¥¥¥¶° )ÿúòÿòòòòíàÈÁ©™„jZ/%      /<<<<L^RvZ )))))))<LRR^j{{{Š’™™ ³©¥¥°©©© Š™©³© °’{Š’ŠŠŠ°{  rú^€°R  ZÌ7™Ì /³ŠÅR)LàL R™³ ³³¼¼¼³³³³³³³Å”ÅÿÿÿÿÿÿÿÿÿÿÿÿÿÿÿÿÿÿÿÿÿÿÿÿÿÿÿÿÿÿÿÿÿÿÿÿÿÿÿÿÿÿÿÿÿÿÿÿÿÿÿÿÿÿÿÿÿÿÿÿÿÿÿÿÿÿÿÿÿÿÿÿÿÿÿÿÿÿÿÿÿÿÿÿÿÿÿÿÿÿòòíèèÚÚÚÏÏÈÈ¾¾¾µ¬¬¥¥¥¥¥¥¥¥¥¥¥¥¥¥¥¥¥¥¥¥¥½°  ³rRZ<      333@LZZZZffffvrrŠ¥Š™¥¼””¥’„rvj^^RLLL@<<3)33%%%%%3)%%%//<<<LR^jv{„” ’’   ©€’’Š’’©fZ°°×RÅ™vrvZ7@ 7% <©  ŠŠ ÒR3 Ìf <3’¹³³³¼¼ÁÁÁÁ¹¹ÅÌ™ÌÿÿÿÿÿÿÿÿÿÿÿÿÿÿÿÿÿÿÿÿÿÿÿÿÿÿÿÿÿÿÿÿÿÿÿÿÿÿÿÿÿÿÿÿÿÿÿÿÿÿÿÿÿÿÿÿÿÿÿÿÿÿÿÿÿÿÿÿÿÿÿÿÿÿÿÿÿÿÿÿÿÿÿÿÿÿÿÿÿÿòòíèââÚÚÏÏÈÈÈ¾¾°°°¥¥¥¥¥¥¥¥¥¥¥¥¥¥¥¬¥¥¥¥¥½°      %<LLZjvr„„’„„fŠ¥™”¥°ÅÅààõÿÿÿÿÿëÿÿÿÿÿÿëëëõ¥³Ì¼Å××Ì°° ©© ’’Š€vvr7%3%%))))%))33{Š™”Š™€ ÿÿëò™×¼”¹©³¹§„©¹¯ ŠŠ„rj<^€< ’R ©r 3™Ò³³³¼¼¼Å³¼ÅÌÌÌŠÅÿÿÿÿÿÿÿÿÿÿÿÿÿÿÿÿÿÿÿÿÿÿÿÿÿÿÿÿÿÿÿÿÿÿÿÿÿÿÿÿÿÿÿÿÿÿÿÿÿÿÿÿÿÿÿÿÿÿÿÿÿÿÿÿÿÿÿÿÿÿÿÿÿÿÿÿÿÿÿÿÿÿÿÿÿÿÿÿÿÿòòíèââÚÚÏÏÈÈ¾¾¾¾°°¥¥¥¥¥¥¥¥¥¥¥¥¥¥¥¬¬¬¬¬¥½°  ™™°¼¹¹¹³³³ÁÁÌÒÒÛòòÿÿÿíúÿÿÿÿÿÿÿëŠ€€€7/RL</€ffff„ŠfZjffrv{{’’™©¹ÁÒ³€Ûÿöëà×Ã¼ ™™€{rf^^^RR@L@@@7///))%   ¥Š”¥”¥™^RRZL LZRffv{’’’’ © ³ÁÁÒ§™ÁÌ©Š’¥’ZjŠ<<%v™’Å³r”×r’ÅÅ3È ¼ÿÿÿÿÿÿÿÿÿÿÿÿÿÿÿÿÿÿÿÿÿÿÿÿÿÿÿÿÿÿÿÿÿÿÿÿÿÿÿÿÿÿÿÿÿÿÿÿÿÿÿÿÿÿÿÿÿÿÿÿÿÿÿÿÿÿÿÿÿÿÿÿÿÿÿÿÿÿÿÿÿÿÿÿÿÿÿÿÿÿòòíèââÚÚÚÏÈÈÈ¾¾¾°°¬¬¬¬¬¬¬¬¬¬¬¬¬¬¬¬¬¬¬¬¬½°  ŠŠx‚’ŠŠ„{Š’  ³¹©™™’ÿëvj{{jffjŠf™×Åàëv/@Rf ×ÿÿÿÿÿ<%%/33L’)<<@R<RŠëÿÿÿÿÿÿÿÿÿÿÿÿÿÿÿÿÿÿÿõã×Å¹¹ÒÁ© ’„{jf@LŠŠ„°R    3        %%7<<GLfjr€Š’’©©Ò¯¯ÒÒ¹‚’ È³Š°ÒÌú§È¼°× ÅÿÿÿÿÿÿÿÿÿÿÿÿÿÿÿÿÿÿÿÿÿÿÿÿÿÿÿÿÿÿÿÿÿÿÿÿÿÿÿÿÿÿÿÿÿÿÿÿÿÿÿÿÿÿÿÿÿÿÿÿÿÿÿÿÿÿÿÿÿÿÿÿÿÿÿÿÿÿÿÿÿÿÿÿÿÿÿÿÿÿòòííââÚÚÏÏÏÈÈ¾¾µµ°¬¬¬¬¬¬¬¬¬¬¬¬¬¬¬¬¬¬¬¬¬½°  x¢G  L)%3Rvc/7/j™Z¼¥™™’©ÿÿÿÿí3 3 ³ÿààÿ³@fZZRR@@@LŠ%% <õò°°°°¥™„ŠŠŠŠv{ZZŠ™™„„r„{{{{{Š¥°¼ÌÒÒÒ°™Švfj™¼Òàòÿ×’’’„„fR3          %/7GR ©‚Ò³v™×¥¥©Ò€rÒ ÅÿÿÿÿÿÿÿÿÿÿÿÿÿÿÿÿÿÿÿÿÿÿÿÿÿÿÿÿÿÿÿÿÿÿÿÿÿÿÿÿÿÿÿÿÿÿÿÿÿÿÿÿÿÿÿÿÿÿÿÿÿÿÿÿÿÿÿÿÿÿÿÿÿÿÿÿÿÿÿÿÿÿÿÿÿÿÿÿÿÿööíèèââÚÏÏÏÈÈ¾¾¾°°¬¬¬¬¬¬¬¬¬¬¬¬¬¬¬¬¬¬¬¬¬½°  v’G7 / 7Š‚Z™<„ÿëúúòòÛÒÅÒ©©¼°  Š¥  © ³ÛÌàÌ×ÁÒÁÁ©¥°©© §™™Š{{rrrv„’™¥vfrfr³”¥¼¼¼¥³ÌÌÌÌ°„Š{{™vfr„Š°×àÅ×ëŠRjvvŠ ³³ÈÈ³³ÿÿòòòàÈàÅ ³³Š™Š^^v@@Z) %7vj’ÒÁ©©ë€€ÒÒŠ”Ò§ÌÿÿÿÿÿÿÿÿÿÿÿÿÿÿÿÿÿÿÿÿÿÿÿÿÿÿÿÿÿÿÿÿÿÿÿÿÿÿÿÿÿÿÿÿÿÿÿÿÿÿÿÿÿÿÿÿÿÿÿÿÿÿÿÿÿÿÿÿÿÿÿÿÿÿÿÿÿÿÿÿÿÿÿÿÿÿÿÿÿÿöòííèâÚÚÏÏÏÈÈ¾¾¾µ°¬¬¬¬¬¬¬¬¬¬¬¬¬¬¬¬¬¬¬¬¬½° xvvŠ„v{{{{{{vvvRvx/G77 RrÅÁŠ ©™™€§’Š¼³¥Ò¥¥’jÁ7©Š Á^ÒRÛŠŠ{™Šà¼È×ŠàÈ„GG^GLRR^^^„Å³Å¥³òZ{ ™¥³©©Ì×¼õÿÿÿõ%   {ÿÿÿÿ€    L  ZÈÿõúòëÿÿòòÿàëÿ×ÅÿÌ©òò™³ò’^°©%‚ò L©òr<ÁëZLÛ ¼ÿÿÿÿÿÿÿÿÿÿÿÿÿÿÿÿÿÿÿÿÿÿÿÿÿÿÿÿÿÿÿÿÿÿÿÿÿÿÿÿÿÿÿÿÿÿÿÿÿÿÿÿÿÿÿÿÿÿÿÿÿÿÿÿÿÿÿÿÿÿÿÿÿÿÿÿÿÿÿÿÿÿÿÿÿÿÿÿÿÿöòííââÚÚÚÒÏÈÈ¾¾¾µµ¬¬¬¬¬¬¬¬¬¬¬¬¬¬¬¬¬¬¬¬¬½µ  ŠŠ‚Š’„„Š’ŠŠ‚‚‚Šrj’r‚xv€c^Š©L„Š{„^” ^jff¥^R„fà³r’Ò×àf€R„€Å™§¼R¼cG^GG// Lë¼×’f×    @7    ¼ÿàÿë™„„j„^vàÒÁÈ³’Š™”r°rZrR3ÅŠ ”” r× ú  ú< òR ×à Lÿ3 Èÿ  ÿ’ ^ÿ3 ™ÿ ÛŠ™ÿÿÿÿÿÿÿÿÿÿÿÿÿÿÿÿÿÿÿÿÿÿÿÿÿÿÿÿÿÿÿÿÿÿÿÿÿÿÿÿÿÿÿÿÿÿÿÿÿÿÿÿÿÿÿÿÿÿÿÿÿÿÿÿÿÿÿÿÿÿÿÿÿÿÿÿÿÿÿÿÿÿÿÿÿÿÿÿÿÿööííèâÚÚÚÚÏÈÈ¾¾¾¾°¬¬¬¬¬¬¬¬¬¬¬¬°°°°°°°°°½½  „„{vvvvvvvvvvvv€^^vvv‚c^^’³ZŠ™„’{™’rŠŠr™„R§^¼3³rŠ§@Ò3à7 ’r™Š€€”R¼ÒÚúŠc‚‚‚xx’L{×³Ì‚ÒÒ)3ZR  rj)^f°Ò‚rúR/Ò/©Èÿ¼)ÿ©<ÿ×)¼°3¼ÌL§àjŠàŠŠÒ©™È³©ÈÈ¹ÒÈÈÒÈÒààÈÒòàÅòÿÒÒÿÿè™ÌÿÿÿÿÿÿÿÿÿÿÿÿÿÿÿÿÿÿÿÿÿÿÿÿÿÿÿÿÿÿÿÿÿÿÿÿÿÿÿÿÿÿÿÿÿÿÿÿÿÿÿÿÿÿÿÿÿÿÿÿÿÿÿÿÿÿÿÿÿÿÿÿÿÿÿÿÿÿÿÿÿÿÿÿÿÿÿÿÿÿöòííèâÚÚÚÏÏÏÈÈ¾¾¾µ°°°°°°°°°°°°°°°°°°°°°½¾  {{rrrr{{r{rrvvvvvRxxx‚‚j7v @rr^ŠrŠr^{{Zr„R™^”<§€€€jÁ<ë/¥’”””€””Š¼ÒÈâxRxvxvv‚^{ÌÅÅ‚ÅÛ %rRRR  ŠŠG< L¥/ Ûòààú×òÿÅàÿ¼òÿÌ×ÿààÿ××ÿë¼ÿÿ¼òÿ¼òÿÈëÿ×Áÿë¹òÿÒÅëòÈ¼àÌ¼×ÛÈÈ××Û ÅÿÿÿÿÿÿÿÿÿÿÿÿÿÿÿÿÿÿÿÿÿÿÿÿÿÿÿÿÿÿÿÿÿÿÿÿÿÿÿÿÿÿÿÿÿÿÿÿÿÿÿÿÿÿÿÿÿÿÿÿÿÿÿÿÿÿÿÿÿÿÿÿÿÿÿÿÿÿÿÿÿÿÿÿÿÿÿÿÿÿööííèââÚÚÚÏÏÈÈ¾¾¾µ°°°°°°°°°°°°°°°°°°°°°½½  {{{„„’’„ŠŠ{€v‚v‚ccccxxR’òàààààëëëààëëëàòòàëëúëëëàúàúëëòòõëòòëëÿÒ’ ‚jccRRL@Gv×³È„Šè )))G/‚™„§ÿf3è’<¢R7¢R%à³©×€È°€Ò°’× „×³LÅ¼{×§3¼×Gvà™™ëf3ë€ ÈÈ{fÿ@ Ûõ %òÈ^{ú3úÛ) Á¯¼ÿÿÿÿÿÿÿÿÿÿÿÿÿÿÿÿÿÿÿÿÿÿÿÿÿÿÿÿÿÿÿÿÿÿÿÿÿÿÿÿÿÿÿÿÿÿÿÿÿÿÿÿÿÿÿÿÿÿÿÿÿÿÿÿÿÿÿÿÿÿÿÿÿÿÿÿÿÿÿÿÿÿÿÿÿÿÿÿÿÿööííèèâÚÚÚÏÏÈÈ¾¾¾¾°°°°°°°°°°°°°°°°°°°°°½¾  –ŠxxjjŠŠ ’‚‚Š‚Š‚‚x‚‚‚xxGfÌÌ{¥¼¥”™°¥„’ŠŠ¼jŠëfÈ<©r”¼LÁGÈ^Šrr{©™”°Š¼¯Š^cc^RR//7%{Ì°°àvf//)/ ¼ŠÅÿR Á{%R^R’^à€Rò%Û€ë§RÿŠ õ³ ÈàZë© ™ÿZë” úRúv ÈàŠfÿL ëÿ ò×v{ÿLÿè< Ì¹ÁÿÿÿÿÿÿÿÿÿÿÿÿÿÿÿÿÿÿÿÿÿÿÿÿÿÿÿÿÿÿÿÿÿÿÿÿÿÿÿÿÿÿÿÿÿÿÿÿÿÿÿÿÿÿÿÿÿÿÿÿÿÿÿÿÿÿÿÿÿÿÿÿÿÿÿÿÿÿÿÿÿÿÿÿÿÿÿÿÿÿööííèââÚÚÚÏÏÈÈ¾¾¾¾µ°°°°°°°°°°°°°°°°°°°°½½ ²²–Š‚xcRRGGGRRccccvvv‚v€<f©)f„{ffŠ”Rr^j¥Z@ RÛ ©RŠÅÈ%×jrfvvÅ™§³’ÈŠL7GR7G7%7j×Èà  <)333){Šr”ëR ™Z<Z/ {cè fú%Á³àÅ<ú  ú¼ ÁàfÅ³³ò Lÿ§rò^ëŠ Áà„@ÿL Òÿ úÒ^ZÿL Ûò3 È¹ÁÿÿÿÿÿÿÿÿÿÿÿÿÿÿÿÿÿÿÿÿÿÿÿÿÿÿÿÿÿÿÿÿÿÿÿÿÿÿÿÿÿÿÿÿÿÿÿÿÿÿÿÿÿÿÿÿÿÿÿÿÿÿÿÿÿÿÿÿÿÿÿÿÿÿÿÿÿÿÿÿÿÿÿÿÿÿÿÿÿÿööííèèâÚÚÚÏÏÏÈÈ¾¾¾µµµµ°°°°°°µµµµµµµµµµ°Ï¾  uuu–¬¬¬¬–Šuucc7GG7GGLRRrfŠ³RŠ’ŠŠ€ ’r”{{’ G ^Ì3Áj’³GÈ@ÛjŠ’v™°§§³”Èrc‚RGGGGGGGjòÒ^ @L@@LLL@3)3@ZZZ7 Zc à„™öG¼°LÛ¼fú’Rÿ©Gí¹’à³vëÒj°ë¥™Û’Šë ŠÛÒ°™òŠ™ë×Š§àÁ °ë™’ÒÛ™ è©ÈÿÿÿÿÿÿÿÿÿÿÿÿÿÿÿÿÿÿÿÿÿÿÿÿÿÿÿÿÿÿÿÿÿÿÿÿÿÿÿÿÿÿÿÿÿÿÿÿÿÿÿÿÿÿÿÿÿÿÿÿÿÿÿÿÿÿÿÿÿÿÿÿÿÿÿÿÿÿÿÿÿÿÿÿÿÿÿÿÿÿööíííâââÚÚÏÏÏÈÈ¾¾¾µµµµµµµµµµµµµµµµµµµµ°Ï¾ xcccccuuŠ–ª²¬¬¬’’jjvjR<<r  j™Š€ ’ rr’’jv™RÈL¥G³{{Š^Á7à  j™vvv”^³íúÿŠc’‚‚‚’’x©Ò3^^RRRRL@@@@<3)RRZZ <73 ÿR@ÿ<Å™3í„ÿ{3ú§à§×Å³àG”ú3^ú{fë€@èÁ”úrLÈÿ@^ÿ©©ë„<¹í^@Û©¼ÿÿÿÿÿÿÿÿÿÿÿÿÿÿÿÿÿÿÿÿÿÿÿÿÿÿÿÿÿÿÿÿÿÿÿÿÿÿÿÿÿÿÿÿÿÿÿÿÿÿÿÿÿÿÿÿÿÿÿÿÿÿÿÿÿÿÿÿÿÿÿÿÿÿÿÿÿÿÿÿÿÿÿÿÿÿÿÿÿÿòòòíèâââÚÚÚÏÈÈÈ¾¾¾µµµµµµµµµµµµµµµµµµµµµÏ¾  ––uuuuucccccxxèŠèÿÿÿÿÿÿÿòÛÒÛÛÛÛÛàÛÌàëëÈÒ×àëÅ×ÁèÛÁÁÒÛ©ë”àÌ××³§³³ ¼ÈÁÛ‚c‚vjjvvvvLR€€^vŠv€€€€€€€€¥r^¥jRL<R3jò™)ÿR©Ò à³ ú’ ×È ¹È ³Ò ‚úLÿ@úrà„ Òë @ÿZ  ÿ  ú¹ Zÿ^ Šÿ3 Á  ÿÿÿÿÿÿÿÿÿÿÿÿÿÿÿÿÿÿÿÿÿÿÿÿÿÿÿÿÿÿÿÿÿÿÿÿÿÿÿÿÿÿÿÿÿÿÿÿÿÿÿÿÿÿÿÿÿÿÿÿÿÿÿÿÿÿÿÿÿÿÿÿÿÿÿÿÿÿÿÿÿÿÿÿÿÿÿÿÿÿööííèâââÚÚÏÏÏÏÈ¾¾¾µµµµµµµµµµµµµµµµµµµµµÚ¾  uuuuuuuuuuuRuc¢R©ÿÅ)@©òRG¹è^jÛÛRv¯ú¥r{àÿ¥™vúè³ ’ëö’Òÿ™ÿ©³Å¼òòëàÿÒ’’‚vcccR<GGGcjrRrRv¯<R ŠŠ’ Š³ÿL ¼<³„ ë3ŠÿÿÒÿëàÿààÿÁÛòÌÈÿíÛòÒÈúÛÁèÿ×èò¹×òÁÒÿèÁöë©àÿÛÌÿúÌÛÿàÌÿÿòÒëÿÿ¹×ÿÿÿÿÿÿÿÿÿÿÿÿÿÿÿÿÿÿÿÿÿÿÿÿÿÿÿÿÿÿÿÿÿÿÿÿÿÿÿÿÿÿÿÿÿÿÿÿÿÿÿÿÿÿÿÿÿÿÿÿÿÿÿÿÿÿÿÿÿÿÿÿÿÿÿÿÿÿÿÿÿÿÿÿÿÿÿÿÿÿööííèâââÚÚÏÏÏÏÈÈ¾¾¾¾¾¾µµµµµµµµ¾¾¾¾¾¾¾¾³Ú¾  uuuuuuuuuuu–¬–cRr^<  /^  <j  fZ  G’  Š™ ³Š ¹Ò ’’GëLÿÿëëÿ×™Š^ccRcL/77vc%/G7^Èjjvvv€€rŠõ^’^v€< <”fZ©Š{ ™Š©v¹¹òòÿëëúx¯ÿ×Ûèààú’€öúÛöíÈÿ’ŠèúèÛë¹ÛÒààÈÒà×È³  ³ë¼¼€°ÿÿÿÿÿÿÿÿÿÿÿÿÿÿÿÿÿÿÿÿÿÿÿÿÿÿÿÿÿÿÿÿÿÿÿÿÿÿÿÿÿÿÿÿÿÿÿÿÿÿÿÿÿÿÿÿÿÿÿÿÿÿÿÿÿÿÿÿÿÿÿÿÿÿÿÿÿÿÿÿÿÿÿÿÿÿÿÿÿÿöööííèââÚÚÚÚÏÈÈÈ¾¾¾¾¾¾¾¾¾¾¾¾¾¾¾¾¾¾¾¾¾¾¾Ú¾ ªª›››––––ªµÀ¢ÏÒ ‚@RxxL7RL/%<<))3)%%%% /  // ) )@   rrrrrŠvRRGR<G/%77//RGR¹È§r‚‚‚Šv”×°Ò¯¹’©È§³™° ŠrŠ€„„Šc¢‚òÛÛÛèÁGxÿèèëààÿ™€ëëàèöÿÿR’ÿÿúÿÒRÈ³„™© ’©¹^<³à <fÿÿÿÿÿÿÿÿÿÿÿÿÿÿÿÿÿÿÿÿÿÿÿÿÿÿÿÿÿÿÿÿÿÿÿÿÿÿÿÿÿÿÿÿÿÿÿÿÿÿÿÿÿÿÿÿÿÿÿÿÿÿÿÿÿÿÿÿÿÿÿÿÿÿÿÿÿÿÿÿÿÿÿÿÿÿÿÿÿÿöööííèèâÚÚÚÏÏÏÏÈÈ¾¾¾¾¾¾¾¾¾¾¾¾¾¾¾¾¾¾¾¾¾¾ÚÈ ÈÏ¾³³³³³³³³²›Àë¢¹úúúúÿÿÿÿúúòàÅÅ×Ì¼§ÁÁ³™™³°©vv’’Š^^„^^f3fRRR%%3)^³Š¢cRc^c€€j€v^cccR^©ÒŠj‚€€Šv™àrv €ÒŠf€ròf^¥jÿR{ŠÅ©¬¼¬––––¢–c¢Ò°ëÌ¼òÿÿÌ°¥™°ÅÅ™™vjjr€rŠ’’ ™™™™’™™„ÈàŠj³ÿÿÿÿÿÿÿÿÿÿÿÿÿÿÿÿÿÿÿÿÿÿÿÿÿÿÿÿÿÿÿÿÿÿÿÿÿÿÿÿÿÿÿÿÿÿÿÿÿÿÿÿÿÿÿÿÿÿÿÿÿÿÿÿÿÿÿÿÿÿÿÿÿÿÿÿÿÿÿÿÿÿÿÿÿÿÿÿÿÿöööííèâââÚÚÚÏÏÈÈÈ¾¾¾¾¾¾¾¾¾¾¾¾¾¾¾¾¾¾¾¾¾¾ÚÈ ¾Àª²²²²²²²²²²›–Š¢ÁÁÁ×¥™°°³¹Ûòòèèèíííÿÿÿÿÿàúÿÿÿàÿÿÿÿÿÿÿöÿÿòòòà××ÒÒÒÒö‚cŠvv¹¹³ ÈŠvvcRv©<G’x€€Šv’ÿ3 ’/³f { ò ° ëZ’Ò¬²¬¬¬¬¬À–RŠÁ™Å¼¼°¼¼°”„{Z3LŠr‚‚™™™™ ¹ÁÁ¹¹¹¹³¹¼§ÒÒ³¼©ëÿÿÿÿÿÿÿÿÿÿÿÿÿÿÿÿÿÿÿÿÿÿÿÿÿÿÿÿÿÿÿÿÿÿÿÿÿÿÿÿÿÿÿÿÿÿÿÿÿÿÿÿÿÿÿÿÿÿÿÿÿÿÿÿÿÿÿÿÿÿÿÿÿÿÿÿÿÿÿÿÿÿÿÿÿÿÿÿÿÿööíííèâââÚÚÏÏÏÈÈÈÈ¾¾¾¾¾¾¾¾¾¾¾¾¾¾¾¾¾¾¾¾¾ÚÈ ³³ªªªªªªªªªªªªª²¬¢–¬¬% %‚È¢¬¬¬¬¬©’’ €Áà¼§Š°×Å¼ÈÒ××ÛòíúúëÿÿÿÿÿÿÛíú‚jŠcc  ™’¯‚cccRj©^v€v€€€v’ÿ) ’^^ ” ™L¹ŠZŠ3jÁ²²²²²²²¼–x¢¯„„„„€€rr€Š°§¼¼””³ÛÛòú³©©™¥¥¥¥¥¥©”ŠÒàZf’×ÿÿÿÿÿÿÿÿÿÿÿÿÿÿÿÿÿÿÿÿÿÿÿÿÿÿÿÿÿÿÿÿÿÿÿÿÿÿÿÿÿÿÿÿÿÿÿÿÿÿÿÿÿÿÿÿÿÿÿÿÿÿÿÿÿÿÿÿÿÿÿÿÿÿÿÿÿÿÿÿÿÿÿÿÿÿÿÿÿÿöööííèâââÚÚÏÏÏÏÈÈÈ¾¾¾¾¾¾¾¾¾¾¾¾¾¾¾¾¾¾¾¾¾ÚÈ ³³ªªªªªªªªªªªª²²²²ª³ª››››››ª²ªªªªª¼¼‚xxvc¼³rrë’fv€r”³){j„°){Åj)LRGvc7RR Ì³¹¹Ò¢Gc^^cÁÌŠrŠ€€Š{’àŠ’© „°³³³Š³Å©©„Å¹³™¯²²²²²ª¬¬²¬¼ÒŠj{{{{{€’°^Šòà©àjR„ÿvŠ§ŠŠŠŠŠŠŠ„rÒòRRf³ÿÿÿÿÿÿÿÿÿÿÿÿÿÿÿÿÿÿÿÿÿÿÿÿÿÿÿÿÿÿÿÿÿÿÿÿÿÿÿÿÿÿÿÿÿÿÿÿÿÿÿÿÿÿÿÿÿÿÿÿÿÿÿÿÿÿÿÿÿÿÿÿÿÿÿÿÿÿÿÿÿÿÿÿÿÿÿÿÿÿöööíííèââÚÚÚÏÏÏÈÈÈ¾¾¾¾¾¾¾¾¾¾¾¾¾¾¾¾¾¾¾¾¾ÚÏ ³³¬ªªª¬¬¬¬°°ªªªªªªª°°ÀÏÀÀÀÈµª°°°°ªÀÒŠv€¥/¯¯xŠ¹cG’‚€r × ^/ ³ Gr )3jGZG/<{™Š’’‚‚<jGGRÛë {’’’’Š™Û’¯©’³ ”„ŠÌ{{™€àZ‚’Á¬²°²²°²²°°°°â vŠŠŠŠŠ §§j à¹§’Ûí^©ÿR °™™™™™’’ŠvÒö)R3rÿÿÿÿÿÿÿÿÿÿÿÿÿÿÿÿÿÿÿÿÿÿÿÿÿÿÿÿÿÿÿÿÿÿÿÿÿÿÿÿÿÿÿÿÿÿÿÿÿÿÿÿÿÿÿÿÿÿÿÿÿÿÿÿÿÿÿÿÿÿÿÿÿÿÿÿÿÿÿÿÿÿÿÿÿÿÿÿÿÿööòíííèââÚÚÚÒÏÏÏÈÈ¾¾¾¾¾¾¾¾¾¾¾¾¾¾¾¾¾¾¾¾¾ÚÏ ³µªª°°°°°°°°ªªªªªªª°°°°ªªªªª°°°°°ªÀÁŠ€Š€Šòc’r©ÒŠ‚ŠŠr¥Òjj LfR{ÿò€€„@%   %/R7%c¹cc’€ŠŠŠ€’òLŠRÒfr)ÿ<³ÿ)j/¯¼ª°°²²²²°°°°Úv<^^RRffR€ÿÿÛ’‚¹x ‚Òÿòÿ§€’’™™™™ ’‚Òò<ZL”ÿÿÿÿÿÿÿÿÿÿÿÿÿÿÿÿÿÿÿÿÿÿÿÿÿÿÿÿÿÿÿÿÿÿÿÿÿÿÿÿÿÿÿÿÿÿÿÿÿÿÿÿÿÿÿÿÿÿÿÿÿÿÿÿÿÿÿÿÿÿÿÿÿÿÿÿÿÿÿÿÿÿÿÿÿÿÿÿÿÿöööíííèââÚÚÚÚÏÏÏÈÈÈÈÈÈ¾¾¾¾¾¾ÈÈÈÈÈÈÈÈÈÈ¾ÚÏ µµªªª¬¬¬¬¬°ªªªªªªªªªªªª°°°³ªªªª²²ª³¼Š€’jÒú§Š%™è €’’€§¹ ©©©’©’ŠÅÿà„Š”vfr{{{{{™Á ŠŠŠŠ ‚%^ €€€Šv’ÿ7 ¥)ŠZ   ³% ³ ™3jvÈ²°°²²²²²²²³ÚÅÅÅÅÅÁÁÁÁ³¹¯©³³È‚¯’³³³Èv^€rrrrffRRÈà©¹ ÛÿÿÿÿÿÿÿÿÿÿÿÿÿÿÿÿÿÿÿÿÿÿÿÿÿÿÿÿÿÿÿÿÿÿÿÿÿÿÿÿÿÿÿÿÿÿÿÿÿÿÿÿÿÿÿÿÿÿÿÿÿÿÿÿÿÿÿÿÿÿÿÿÿÿÿÿÿÿÿÿÿÿÿÿÿÿÿÿÿÿöööíííèâââÚÚÚÏÏÏÏÈÈÈÈÈÈÈÈÈÈÈÈÈÈÈÈÈÈÈÈÈÈÚÏ µ¾ªªª¬¬¬¬¬°ªªªªªªªªªªªª°°°°ªªªª³³ª²¼Š€Š <§Á™R’ÛŠ€ŠŠ€©È€^{©€GfÿÿÿÿÿÿÿÅÒàëàÿÿÿŠcvxŠj^Û©vŠŠŠŠr’ò< ¥LL{Z™j€’Š³ Š¼¼¼’¯³³³²²²²ªª²²³ÈÒÒÏÏÚââííÛÛÒë¹‚‚ŠŠ¹âÁëõõàòòààààà³¼Ò§³ŠÒÿÿÿÿÿÿÿÿÿÿÿÿÿÿÿÿÿÿÿÿÿÿÿÿÿÿÿÿÿÿÿÿÿÿÿÿÿÿÿÿÿÿÿÿÿÿÿÿÿÿÿÿÿÿÿÿÿÿÿÿÿÿÿÿÿÿÿÿÿÿÿÿÿÿÿÿÿÿÿÿÿÿÿÿÿÿÿÿÿÿöööòííèâââÚÚÚÏÏÏÏÈÈÈÈÈÈÈÈÈÈÈÈÈÈÈÈÈÈÈÈÈ¾ÚÏ µ¾ª³°¬¬¬¬¬°ªªªªªªªªª³°°°°°°°°°°°°ª³¼Š€‚ <³’€’ÒRG™‚Šr©Ò r< Á ^3{r3R™L§’‚ŠŠ’ZàÒv’‚c^Ò¹ €’’’’€™à³×°È§°×§Á³ ¹  ÅŠ’’¹¢°°°²²²²²²²²ªªªª›››››–¢–²Ò¹–¼c‚v¢í¯‚¥ëëÁ×××Ò¹ÒÒÒÁ––u¼ÿÿÿÿÿÿÿÿÿÿÿÿÿÿÿÿÿÿÿÿÿÿÿÿÿÿÿÿÿÿÿÿÿÿÿÿÿÿÿÿÿÿÿÿÿÿÿÿÿÿÿÿÿÿÿÿÿÿÿÿÿÿÿÿÿÿÿÿÿÿÿÿÿÿÿÿÿÿÿÿÿÿÿÿÿÿÿÿÿÿöööíííèâââÚÚÚÚÏÏÏÈÈÈÈÈÈÈÈÈÈÈÈÈÈÈÈÈÈÈÈÈÈÚÏ ½½ªªª¬¬¬¬¬ªªªªªªªªª°°³³°°ªª³³³³³³ª³¼Š€’^¹ÿjŠL©í’x‚‚r§Èvv/’jvŠ^{{rr^^€Èvv€€€^„×à³x%vÿ¹’€’’’’Š àrr”fÒv<jGòL %ÿ3f<¹¹ª°°²²²²²²²²²°°°°°°°°°°›ÈÏ––¹cŠx’â’3™í™r³°¥–––ªªª°›ÒÿÿÿÿÿÿÿÿÿÿÿÿÿÿÿÿÿÿÿÿÿÿÿÿÿÿÿÿÿÿÿÿÿÿÿÿÿÿÿÿÿÿÿÿÿÿÿÿÿÿÿÿÿÿÿÿÿÿÿÿÿÿÿÿÿÿÿÿÿÿÿÿÿÿÿÿÿÿÿÿÿÿÿÿÿÿÿÿÿÿöööòííèèââÚÚÚÚÏÏÏÈÈÈÈÈÈÈÈÈÈÈÈÈÈÈÈÈÈÈÈÈÈÚÏ ¾¾ªªªª°ªª³ªª²²²²²²²²²°°°°ª°³³³³³³ª³²Š€’‚vÒÁ’/’í©€ŠŠ€©³™© ¹’  ’³™ŠŠvÃ<¼Š„’Š{¼RÒ”vcÈÛf©€ŠŠŠv™ú<™3©j € Û% Á Å3r ‚¼²°°°°°°°°³³³³³³³²²²°°³›ÈÚ–x¼Gxv ö¯7GGÒÿ³ÌëÌ°°°°°°°›ÒÿÿÿÿÿÿÿÿÿÿÿÿÿÿÿÿÿÿÿÿÿÿÿÿÿÿÿÿÿÿÿÿÿÿÿÿÿÿÿÿÿÿÿÿÿÿÿÿÿÿÿÿÿÿÿÿÿÿÿÿÿÿÿÿÿÿÿÿÿÿÿÿÿÿÿÿÿÿÿÿÿÿÿÿÿÿÿÿÿÿöööíííèèâââÚÚÚÚÏÏÏÈÈÈÈÈÈÈÈÈÈÈÈÈÈÈÈÈÈÈÈÈâÏ ¾¾ªªª¬¬¬¬°°°²²²²²²²²²²°°°ª°°°°°°°¬µ¼‚‚‚¹‚È’c© xŠŠŠ€°ÈŠRj¯ rGf„ vZ ¼ vŠŠ’r©íÈv ’’ír’Š€ŠŠŠr™ú)  Rf™€^G©R€™©’Š¹³³³²³³³³³³³³²²²²²²²²°°›¾È ŠÁ^‚j™×³Gc%Šè¹³„’À²°°°°°›ÒÿÿÿÿÿÿÿÿÿÿÿÿÿÿÿÿÿÿÿÿÿÿÿÿÿÿÿÿÿÿÿÿÿÿÿÿÿÿÿÿÿÿÿÿÿÿÿÿÿÿÿÿÿÿÿÿÿÿÿÿÿÿÿÿÿÿÿÿÿÿÿÿÿÿÿÿÿÿÿÿÿÿÿÿÿÿÿÿÿÿöööòíííèâââÚÚÚÚÏÏÏÈÈÈÈÈÈÈÈÈÈÈÈÈÈÏÈÈÈÏÏÈâÚ ¾¾ªªªªªª°°°²²²²²²²²²²²°°ªª°°°°°¬¬¬ÀÀŠ‚’‚ví€€ŠÈ‚cŠŠŠr©Û j3 ¹ cG{{GG{L¼’Š’’©v¹ÿ©j’jjòÈ {’’ŠŠ€’írf° v°³³¼™³Ò§Å©© ³¹¬³³³³³³³³³°°°°°°°²²²°°°ª²¥ÃÌ¹ÒÒÅ¼°f^fRLL<<7G²²¬¬¬²²›ÒÿÿÿÿÿÿÿÿÿÿÿÿÿÿÿÿÿÿÿÿÿÿÿÿÿÿÿÿÿÿÿÿÿÿÿÿÿÿÿÿÿÿÿÿÿÿÿÿÿÿÿÿÿÿÿÿÿÿÿÿÿÿÿÿÿÿÿÿÿÿÿÿÿÿÿÿÿÿÿÿÿÿÿÿÿÿÿÿÿÿöööòíííèâââÚÚÚÚÏÏÏÏÈÈÈÈÈÈÈÈÈÈÈÈÏÏÏÏÏÏÏÈÚÚ ½½ªª°°°°°°°°°°°°°°°°°°°°°°°°°°°°°ªµÀŠ€”rÁÿ‚‚<©Û™‚’Šr©Å<ŠŠR™™’’€”¼”©™Š ¼€€’ŠŠr¹èÅÅ‚7jÿ×§Š  ™ ”§à¥Á  ÁŠŠ‚xècR™Rõ@jRÁ¯³³³³³³³³³³³³³³³³°°°°²²²²²²¼¯¹¹¹¹ÁcRx‚ŠŠ–›³ªª³¬¬¬¬³–ÒÿÿÿÿÿÿÿÿÿÿÿÿÿÿÿÿÿÿÿÿÿÿÿÿÿÿÿÿÿÿÿÿÿÿÿÿÿÿÿÿÿÿÿÿÿÿÿÿÿÿÿÿÿÿÿÿÿÿÿÿÿÿÿÿÿÿÿÿÿÿÿÿÿÿÿÿÿÿÿÿÿÿÿÿÿÿÿÿÿÿöööòíííèèâââÚÚÚÚÏÏÏÏÏÏÏÏÏÏÏÏÏÏÏÏÏÏÏÏÏÏÈâÚ ½½ªª°°°°°°°°°°°°°°°°°°°°°°°°°°°°°ª¾¼ŠŠŠ¥7’ÈŠ/ ú¹‚’’Š³³’ ŠÁ„v’‚©”L{RÅfÈŠŠ’Š€ÅRÛ”GG³ëŠvŠŠŠŠ”€¥ëL/’LÈr%v%ö7¼ à)f ‚È³³³³³³³³³³³³³³³³°°°°²²²²²ªª²²²²²²²²²¾¾¾¾¾µµµ¬¬¬¬¬³–ÏÿÿÿÿÿÿÿÿÿÿÿÿÿÿÿÿÿÿÿÿÿÿÿÿÿÿÿÿÿÿÿÿÿÿÿÿÿÿÿÿÿÿÿÿÿÿÿÿÿÿÿÿÿÿÿÿÿÿÿÿÿÿÿÿÿÿÿÿÿÿÿÿÿÿÿÿÿÿÿÿÿÿÿÿÿÿÿÿÿÿöööòíííèèâââÚÚÚÚÏÏÏÏÏÏÏÏÏÏÏÏÏÏÏÏÏÏÏÏÏÏÈëÚ ½½ªª°°°°°°°°°°°°°°°°°°°°°°°°°°°°°°¾¯rrŠ¥³’’R’j^’„’v³Á ŠRc° ‚GRŠ { ZZ ¼™v‚€€€ ÒÒ ’¯¹Ò r©ŠŠŠŠ€™ÿ< ŠR ™  / ³ Šr™vŠ¼³³³³³³³³³³³³³³³³°°°°°°µµ¬°°°°°°°°°µµ¬¬¬¬ªªª°°°°¬¬¬–ÒÿÿÿÿÿÿÿÿÿÿÿÿÿÿÿÿÿÿÿÿÿÿÿÿÿÿÿÿÿÿÿÿÿÿÿÿÿÿÿÿÿÿÿÿÿÿÿÿÿÿÿÿÿÿÿÿÿÿÿÿÿÿÿÿÿÿÿÿÿÿÿÿÿÿÿÿÿÿÿÿÿÿÿÿÿÿÿÿÿÿööööííííèâââÚÚÚÚÚÏÏÏÏÏÏÏÏÏÏÏÏÏÏÏÏÏÏÏÏÏÈâÚ ½½ªª°°°°°°°°°°°°°°°°°°°°°°°°°°°°°ª³¼™€€R ú©’‚Û rŠŠ’v³Ò v/ ¹ ^L‚<‚jj’‚È”” ’’€ ö¹7Šccÿë¥v’€Š’€ ÿ% ™LL’f ©{ÁÛ°àŠÌ³Á¯¯³³³³³³³³³³³³³³³³³³°°³³¬¬µµµ°°°°°°°°°¬¬¬³¬²³¬¬¬³³³³–ÏÿÿÿÿÿÿÿÿÿÿÿÿÿÿÿÿÿÿÿÿÿÿÿÿÿÿÿÿÿÿÿÿÿÿÿÿÿÿÿÿÿÿÿÿÿÿÿÿÿÿÿÿÿÿÿÿÿÿÿÿÿÿÿÿÿÿÿÿÿÿÿÿÿÿÿÿÿÿÿÿÿÿÿÿÿÿÿÿÿÿöööòòíííèââââÚÚÚÚÏÏÏÏÏÏÏÏÏÏÏÏÏÏÏÏÏÏÏÏÏÏëÚ ½½ªª¬¬¬°°°°°°°°°°°°°°°°°°°°°°°°°°°ª²ÈÚÚÚ¬¢’¯Š¹Ò©rrr^™ÈG’’{ © ³©Š¬ŠŠ–cŠÈ‚€’’”{Áö³¹’‚xè™™Š™™’ŠŠ à°ë¹×³¼à°©Èvv’fà<jjÁ¬³³³³³³³³³³³³³³³³³°°°³³³°°°°°°°°°°°°ªª°°°¬¬¬¬¬°°°°°–ÒÿÿÿÿÿÿÿÿÿÿÿÿÿÿÿÿÿÿÿÿÿÿÿÿÿÿÿÿÿÿÿÿÿÿÿÿÿÿÿÿÿÿÿÿÿÿÿÿÿÿÿÿÿÿÿÿÿÿÿÿÿÿÿÿÿÿÿÿÿÿÿÿÿÿÿÿÿÿÿÿÿÿÿÿÿÿÿÿÿÿööööííííèèâââÚÚÚÚÚÏÏÏÏÏÏÏÏÏÏÏÏÏÏÏÏÏÏÏÏÏëÚ ½½ªª°°°°°°°°°°°°°°°°°°°°°°°°°°°°°°°ª›ªªµªÚ²¢c ¹¹ëàë§Ò ’Š‚™v„vj‚uu––––²¼‚‚’’v¼Rà™’vÿ©’’’’’ ’©àr„’f×RZ)ÿ/³ö7{¢È²³³³³³³³³³³³³³³³³°°°°°°°°°°°°°°°°°°²²²²²³°°°°°°°°°–ÒÿÿÿÿÿÿÿÿÿÿÿÿÿÿÿÿÿÿÿÿÿÿÿÿÿÿÿÿÿÿÿÿÿÿÿÿÿÿÿÿÿÿÿÿÿÿÿÿÿÿÿÿÿÿÿÿÿÿÿÿÿÿÿÿÿÿÿÿÿÿÿÿÿÿÿÿÿÿÿÿÿÿÿÿÿÿÿÿÿÿööööòíííèèââââÚÚÚÚÏÏÏÏÏÏÏÏÏÏÏÏÏÏÏÏÏÏÏÏÏëÚ ½½ªª°°°°°°°°°°°°°°°°°°°°°°°°°°°°ª°°µµ°°°›Ï––u¬¢ r)^íÈvf©¹‚ ©’ ¹Ú¾¾¾½½ÀÀxxŠŠŠ©@’ÒvcGöÈ f©‚’’Šv ÿ  <³f™ È<Å ™<{x¼³³³³³³³³³³³³³³³³³°°°°°°°°°°°°°°°°°°²²³³³³µ°°°°°°°°–ÒÿÿÿÿÿÿÿÿÿÿÿÿÿÿÿÿÿÿÿÿÿÿÿÿÿÿÿÿÿÿÿÿÿÿÿÿÿÿÿÿÿÿÿÿÿÿÿÿÿÿÿÿÿÿÿÿÿÿÿÿÿÿÿÿÿÿÿÿÿÿÿÿÿÿÿÿÿÿÿÿÿÿÿÿÿÿÿÿÿÿöööööííííèââââÚÚÚÚÏÏÏÏÏÏÏÏÏÏÏÏÏÏÏÏÏÏÏÏÏëÚ ½½ªª°°°°°°°°°°°°°°°°°°°°°°°°°°°°°°°°¬¬°°›Ú›–u¼¬/v7× ¼ Á³©©© RŠÈªª°°¬°ÀŠŠ’ŠŠRèÿÒŠŠ©Ší€’’‚Š’’€ ú3¹Zf¥rr^§§™Ì¹Û¯¯³³³³³³³³³³³³³³³³³³³°°°°°°°°°°°°°°°°³³³³¬¬¬°°°°°°°°–ÒÿÿÿÿÿÿÿÿÿÿÿÿÿÿÿÿÿÿÿÿÿÿÿÿÿÿÿÿÿÿÿÿÿÿÿÿÿÿÿÿÿÿÿÿÿÿÿÿÿÿÿÿÿÿÿÿÿÿÿÿÿÿÿÿÿÿÿÿÿÿÿÿÿÿÿÿÿÿÿÿÿÿÿÿÿÿÿÿÿÿúúúòòííííèèââââÚÚÚÚÚÚÚÚÚÚÚÚÚÚÚÚÚÚÚÚÚÚÚÒëÚ ½½ªª³³³³°°°°°°°°°°°µµµ°°°°°°°°°°°°°°°³°°½cx‚ŠŠGcxGrvZj^^ff^^v²¾µ°°°°ªµÚÚÚÚÚÒ––ŠÛ©ÈÒÈÿ™f’€€€v úR3¥™v°¹–à’§Ò–¼––uuuª³³³³³³³³³³³³³³³³°°°°µµ°°µµµ°°°°°°°°³³³³³ªª³³³°°°°³–ÒÿÿÿÿÿÿÿÿÿÿÿÿÿÿÿÿÿÿÿÿÿÿÿÿÿÿÿÿÿÿÿÿÿÿÿÿÿÿÿÿÿÿÿÿÿÿÿÿÿÿÿÿÿÿÿÿÿÿÿÿÿÿÿÿÿÿÿÿÿÿÿÿÿÿÿÿÿÿÿÿÿÿÿÿÿÿÿÿÿÿúúúòòííííèèââââÚÚÚÚÚÚÚÚÚÚÚÚÚÚÚÚÚÚÚÚÚÚÚÒëâ µ½ªª³³¬³³³³¬¬¬°°°°°°°°°°°°°°°°°°°°°°°°°°¾uŠŠxcŠŠ–âGŠ©„Š’’    ¬³µ¬¬¬°°ªªªª³¾Ï²Ï¼¹Š‚x¯ ÈÒ¼©  ”™×°Ò ¹° ¢’c‚‚xŠŠ›¬¬¾½³µµµµ³³³³³³³³³³³°°°°°µµ°°µµµ°°°°°°°°³³³³³¬¬³³°°°°°°›ÒÿÿÿÿÿÿÿÿÿÿÿÿÿÿÿÿÿÿÿÿÿÿÿÿÿÿÿÿÿÿÿÿÿÿÿÿÿÿÿÿÿÿÿÿÿÿÿÿÿÿÿÿÿÿÿÿÿÿÿÿÿÿÿÿÿÿÿÿÿÿÿÿÿÿÿÿÿÿÿÿÿÿÿÿÿÿÿÿÿÿúúúòòííííèèèâââÚÚÚÚÚÚÚÚÚÚÚÚÚÚÚÚÚÚÚÚÚÚÚÒëâ ½½ª¬¬¬¬³³¬¬¬¬¬¬¬¬¬¬¬¬°°°°°°°°°°°°°°°°°°°°ÏÏÈÀµµÀÀÏÿ¯úÿ‚’Š––––Šªµ°°°°°°°°ªªªªª›ÀÏ‚–Š‚âvj¯ ëÛÈÛ×Å„€‚‚™™‚è–²â²ÀÏ½½½½µµµµµµ³³³³³³³³³³³³³³³³°°°°°°°°°°°°°°°°°°°°°°°°°°°°°°ÒÿÿÿÿÿÿÿÿÿÿÿÿÿÿÿÿÿÿÿÿÿÿÿÿÿÿÿÿÿÿÿÿÿÿÿÿÿÿÿÿÿÿÿÿÿÿÿÿÿÿÿÿÿÿÿÿÿÿÿÿÿÿÿÿÿÿÿÿÿÿÿÿÿÿÿÿÿÿÿÿÿÿÿÿÿÿÿÿÿÿúööööòííííèèââââÚÚÚÚÚÚÚÚÚÚÚÚÚÚÚÚÚÚÚÚÚÚÚíâ ½½¬¬¬¬¬¬¬¬¬¬¬¬¬¬¬¬¬¬¬°°°°°°°°°°°°°°°°°°°µ¬¬¬µµµ°µ¬›ÏªÀ–›ª°°°³Àµµ°°°°°°°°°°°°µ¬ÏÏŠ‚’ŠÈL^’à’Å¼³³™¥¹Šc²²À¬–µ°°°¬¬µ°¬µµµµµ³³³³³³³³°°°°°°°°°°°°°°°°°°°°°°°°°°°°°°°°°°°°µÒÿÿÿÿÿÿÿÿÿÿÿÿÿÿÿÿÿÿÿÿÿÿÿÿÿÿÿÿÿÿÿÿÿÿÿÿÿÿÿÿÿÿÿÿÿÿÿÿÿÿÿÿÿÿÿÿÿÿÿÿÿÿÿÿÿÿÿÿÿÿÿÿÿÿÿÿÿÿÿÿÿÿÿÿÿÿÿÿÿÿÿöööööíííííèèââââÚÚÚÚÚÚÚÚÚÚÚÚÚÚÚÚÚÚÚÚÚÚíâ ½½¬¬¬¬¬¬¬¬¬¬¬¬¬¬¬¬°°°°¬°°°°°°°°°°°°°°°°°°°°°¬¬¬¬¬¬°°Ÿ¬½½½½µµµµ¬¬°°°°°°°°°°°°°°³¬–€ŠŠÈ”R€@G¹Š{rr€jjj3G°°°µ½µµ°°°³³³³³³³³°°°°³³³³³°°°°°°°°¬¬¬¬¬¬°°°°°°°°°°°°°°°°°°°°°°µ–ÒÿÿÿÿÿÿÿÿÿÿÿÿÿÿÿÿÿÿÿÿÿÿÿÿÿÿÿÿÿÿÿÿÿÿÿÿÿÿÿÿÿÿÿÿÿÿÿÿÿÿÿÿÿÿÿÿÿÿÿÿÿÿÿÿÿÿÿÿÿÿÿÿÿÿÿÿÿÿÿÿÿÿÿÿÿÿÿÿÿÿÿÿööööíííííèèâââââÚÚÚÚÚÚÚÚÚÚÚÚÚÚÚÚÚÚÚÚÚúâ ½½¬¬¬¬¬¬¬¬¬¬°°¬¬¬¬°°°°°°°°°°°°°°°°°°°°°°°°°°°³³³³³³°µ°°°¬¬°¬¬¬°°°°°°°°°°°°°°°½–u‚’‚’xRGLL7/7R^j„{{–Š¢°Àµµµµµ°°°³³³³µµ°°°°°°°°°°°°°°°°°°°°°°°°°°°°°°°°°°°°°°°°°°°°°°°°–ÒÿÿÿÿÿÿÿÿÿÿÿÿÿÿÿÿÿÿÿÿÿÿÿÿÿÿÿÿÿÿÿÿÿÿÿÿÿÿÿÿÿÿÿÿÿÿÿÿÿÿÿÿÿÿÿÿÿÿÿÿÿÿÿÿÿÿÿÿÿÿÿÿÿÿÿÿÿÿÿÿÿÿÿÿÿÿÿÿÿÿÿúúúòòòíííííèèââââÚÚÚÚÚÚÚÚÚÚÚÚÚÚÚÚÚÚÚÚÚöâ ½½¬¬¬¬¬¬¬¬¬¬¬°¬¬¬¬µ°°°°°°°°°°°°°°°°°°°°°°°³³³°°°°°°°°°¬¬¬¬¬°°°°°°°°°°°°°°°°°°°›ª¢›–¢uR‚¢¹j³ÛÒ€§§ ––ŠŠªµ³³³°°°°°°°°°°°°°°°°°°°°°°°°µµµ°°¬°°°°°°°°°°°°°°°°°°°°°°°°°°°°°ÏÿÿÿÿÿÿÿÿÿÿÿÿÿÿÿÿÿÿÿÿÿÿÿÿÿÿÿÿÿÿÿÿÿÿÿÿÿÿÿÿÿÿÿÿÿÿÿÿÿÿÿÿÿÿÿÿÿÿÿÿÿÿÿÿÿÿÿÿÿÿÿÿÿÿÿÿÿÿÿÿÿÿÿÿÿÿÿÿÿÿÿúööööííííííèâââââÚÚÚÚÚÚÚÚÚÚÚÚÚÚÚâââââÚúë ½½¬¬¬¬¬¬¬¬¬¬¬¬¬¬°°°°°°°°°°°°°°°°°°°°°°°°°°°°°°°°°°°°°°°°°°°°°°°°°°°°°°°°°°°°¬¬µµµµµµµµÏëëÈúÿëxŠ‚––––›°°°°³³³°°°°°°°°°°°°°°°°°°°°°°°°°°°°°°°°°°°°°°°°°°°°°°°°°°°°°°°°µ–ÏÿÿÿÿÿÿÿÿÿÿÿÿÿÿÿÿÿÿÿÿÿÿÿÿÿÿÿÿÿÿÿÿÿÿÿÿÿÿÿÿÿÿÿÿÿÿÿÿÿÿÿÿÿÿÿÿÿÿÿÿÿÿÿÿÿÿÿÿÿÿÿÿÿÿÿÿÿÿÿÿÿÿÿÿÿÿÿÿÿÿÿúúúúòòííííííèââââââââââââââââââââââââÚúë ½½¬¬¬°°°°°°°°°°°¬¬¬¬¬¬¬¬¬¬¬¬¬¬°°°°¬¬°°°°°°°°°°°°°°°°°°°°°°°°°°°°°°°°°°°°°°°°°°°°°°µµµµµ¬ª¼¬¼–x–¼°°À½½µ¬¬µµ°°°°°°°°°°°°°°°°°°°°°°°°°°°°°°°°°°°°°°°°°°°°°°°°°°°°°°°°°°°–Ïÿÿÿÿÿÿÿÿÿÿÿÿÿÿÿÿÿÿÿÿÿÿÿÿÿÿÿÿÿÿÿÿÿÿÿÿÿÿÿÿÿÿÿÿÿÿÿÿÿÿÿÿÿÿÿÿÿÿÿÿÿÿÿÿÿÿÿÿÿÿÿÿÿÿÿÿÿÿÿÿÿÿÿÿÿÿÿÿÿÿÿÿöööööíííííèèèââââââââââââââââââââââââúë ½½¬¬¬¬¬¬¬¬¬¬¬¬¬¬¬¬¬¬¬¬¬¬¬¬¬¬¬¬°°°°¬¬°°°°°°°°°°¬°°°°°°°°°°°°°°°°°°°°°°°°°°°°°°°°°°°°°°°¬¬¬¬¬¬uu°½°°°°°°°°°°°°°°°°°°°°°°°°°°°°°°°°°°°°°°°°°°°°°°°°°°¬¬¬¬¬¬¬¬°°°°°°°°°°°–Ïÿÿÿÿÿÿÿÿÿÿÿÿÿÿÿÿÿÿÿÿÿÿÿÿÿÿÿÿÿÿÿÿÿÿÿÿÿÿÿÿÿÿÿÿÿÿÿÿÿÿÿÿÿÿÿÿÿÿÿÿÿÿÿÿÿÿÿÿÿÿÿÿÿÿÿÿÿÿÿÿÿÿÿÿÿÿÿÿÿÿÿÿöööòòòííííííèèâââââââââââââââââââââââúë ½µ¬¬¬¬¬¬¬¬¬¬¬¬¬¬¬¬¬¬¬¬¬¬¬¬¬¬¬¬°°°°°°°°°°°°°°°°°°°°°°°°°°°°°°°°°°°¬¬¬¬¬¬°°°°°°°°°°°°°°³³³°½µµÏ½½¬µ°°µµ°°°°°°°°°°°°°°°°°°°°°°°°°°°°°°°°°°°°°°°°°°°°°¬¬¬¬¬¬¬¬¬¬¬¬¬¬¬¬¬¬°–Ïÿÿÿÿÿÿÿÿÿÿÿÿÿÿÿÿÿÿÿÿÿÿÿÿÿÿÿÿÿÿÿÿÿÿÿÿÿÿÿÿÿÿÿÿÿÿÿÿÿÿÿÿÿÿÿÿÿÿÿÿÿÿÿÿÿÿÿÿÿÿÿÿÿÿÿÿÿÿÿÿÿÿÿÿÿÿÿÿÿÿÿÿÿöööööíííííííèâââââââââââââââââââââââúë ½½¬¬¬¬¬¬¬¬¬¬¬¬¬¬¬¬¬¬¬¬¬¬¬¬¬°°°°°°°°°°°°°°°°°°°°°°°°°°°°°°°°°°°°°°°°°°°°°°°°°°°°°°°°°°°°°°°°°¾³³³°°°°°°°°°°°°°°°°°°°°°°°°°°°°°°°°°¬¬°°°°°°°°°°°°°°°°°°°°¬¬¬¬¬¬¬°°°°°°°–Ïÿÿÿÿÿÿÿÿÿÿÿÿÿÿÿÿÿÿÿÿÿÿÿÿÿÿÿÿÿÿÿÿÿÿÿÿÿÿÿÿÿÿÿÿÿÿÿÿÿÿÿÿÿÿÿÿÿÿÿÿÿÿÿÿÿÿÿÿÿÿÿÿÿÿÿÿÿÿÿÿÿÿÿÿÿÿÿÿÿÿÿÿúöööööòííííííèèèâââââââââââââââââââââúí ½½¬¬¬¬¬¬¬¬¬°°°°°°°°°¬¬¬¬¬¬¬°°°°°°°°°°°°°°°°°°°°°°°°°°°°°°°°°°°°°°°°°°°°°°°°°°°°°°°°°°°°°°°°°µ°°°°°°°°°°°°°°°°°°°°°°°°°°°°°°°°°°°¬¬°°°°°°°°¬¬¬¬°°¬¬°°°°°°°°°°°°°°°°°°°–Ïÿÿÿÿÿÿÿÿÿÿÿÿÿÿÿÿÿÿÿÿÿÿÿÿÿÿÿÿÿÿÿÿÿÿÿÿÿÿÿÿÿÿÿÿÿÿÿÿÿÿÿÿÿÿÿÿÿÿÿÿÿÿÿÿÿÿÿÿÿÿÿÿÿÿÿÿÿÿÿÿÿÿÿÿÿÿÿÿÿÿÿÿÿöööòòòííííííèèèâââââââââââââââââââââúí ½½¬¬¬¬¬¬¬¬¬¬¬¬¬¬¬¬¬¬¬¬¬¬¬¬¬°°°°°°°°°°°°°°°°°°°°°°°°°°°°°°°°°°°°°°°°°°°°°°°°°°¬¬¬¬°°°°°°°°°°°°°°°°¬¬°°°°°°°°°°°°°°°°°°°°°°°°°°°°°¬°°°°°°¬¬¬¬°°°°°°°¬¬¬¬¬°°°°°°°°°°°°°°–Ïÿÿÿÿÿÿÿÿÿÿÿÿÿÿÿÿÿÿÿÿÿÿÿÿÿÿÿÿÿÿÿÿÿÿÿÿÿÿÿÿÿÿÿÿÿÿÿÿÿÿÿÿÿÿÿÿÿÿÿÿÿÿÿÿÿÿÿÿÿÿÿÿÿÿÿÿÿÿÿÿÿÿÿÿÿÿÿÿÿÿÿÿÿööööòòòòíííííèèèèèèèèèèèèèèèèèèèèèèâúí ½½¬¬°°°°°°°¬¬¬¬¬¬¬¬¬¬¬¬¬°°°°°°°°°°°°°°¬¬¬¬°°°°°°°°°°°°°°°°°°°°°°°°°°°°°°°°°°°°°°°°°°°°°°°°°°¬°°°°°°°°°°°°°°°°°°°°°°°°°°°°°°°°°°°¬¬°°°°°°°°°°°°°°°°°°°°°°°°°°°°¬¬¬¬°°°Ïÿÿÿÿÿÿÿÿÿÿÿÿÿÿÿÿÿÿÿÿÿÿÿÿÿÿÿÿÿÿÿÿÿÿÿÿÿÿÿÿÿÿÿÿÿÿÿÿÿÿÿÿÿÿÿÿÿÿÿÿÿÿÿÿÿÿÿÿÿÿÿÿÿÿÿÿÿÿÿÿÿÿÿÿÿÿÿÿÿÿÿÿööööööööíííííííèèèèèèèèèèèèèèèèèèèèèâÿò µµ¬¬ªªªªªªª¬¬¬¬¬¬¬¬¬¬¬¬¬¬¬¬¬¬¬¬¬¬¬¬¬¬¬¬¬¬¬¬¬¬¬¬¬¬¬¬¬¬¬¬¬¬¬¬¬¬¬¬¬¬¬¬¬¬¬°°°°°°°¬¬¬¬¬¬¬¬°°°°°°°°°°°°°°°°°°°¬¬¬°µµµµµµµµµ°°°µµµµ°°°°°°°°°°°¬¬µµ°°°°°°°°°°°°°°°°°°°°°°°°°µÏÿÿÿÿÿÿÿÿÿÿÿÿÿÿÿÿÿÿÿÿÿÿÿÿÿÿÿÿÿÿÿÿÿÿÿÿÿÿÿÿÿÿÿÿÿÿÿÿÿÿÿÿÿÿÿÿÿÿÿÿÿÿÿÿÿÿÿÿÿÿÿÿÿÿÿÿÿÿÿÿÿÿÿÿÿÿÿÿÿÿÿÿÿÿööööööòòíííííëëèèèèèèèèèèèèëëèèèèèèÿò ¶¶¶¶¶¶¶¶¶¶¶¶¶¶¶¶¶¶¶¶¶¶¶¶¶¶¶¶¶¶¶¶¶¶¶¶¶¶¶¶¶¶¶¶¶¶¶¶¶¶¶¶¶¶¶¶¶¶¶¶¶¶¶¶¶¶¶¶¶¶¶¶¶¶¶¶¶¶¶¶¶¶¶¶¶¶¶¶¶¶¶¶¥¥¶¶¶¥¥¥¥¥¥¥¥¥¥¥¥¥¥¥¥¥¥¥¥¥¥¥¥¥¥¥¥¥¥¥¥¥¥¥¥¥¥¥¥¥¥¥¥¥¥¥ŸŸŸŸŸŸŸŸŸŸŸŸŸŸŸŸŸŸŸŸŸq½ÿÿÿÿÿÿÿÿÿÿÿÿÿÿÿÿÿÿÿÿÿÿÿÿÿÿÿÿÿÿÿÿÿÿÿÿÿÿÿÿÿÿÿÿÿÿÿÿÿÿÿÿÿÿÿÿÿÿÿÿÿÿÿÿÿÿÿÿÿÿÿÿÿÿÿÿÿÿÿÿÿÿÿÿÿÿÿÿÿÿÿÿÿöööööööööòíííííëëëëëëëëëëëëëëëëëëëëèÿò  §§¥¥¥¥¥¥¥¥¥¥¥¥¥¥¥¥¥¥¥¥¥¥¥§§§§§§§§§§§§§§§§§§§§§§§§§§§§§§§§§§§§§§§§§§§§§§§§§§§§§§§§§§§§§§§§¼¼¼¼¼¼¼¼¼¼¼¼¼¼¼¼¼¼¼¼¼¼¼¼¼¼¼¼¼¼¼¼¼¼¼¼¼¼¼¼¼¼¼¼ÀÀÀÀÀÀÀÀÀÀÀÀÀÀÀÀÀÀÀÀÀÀÀÀÀÀÀÀÀÀÀÏ°Úÿÿÿÿÿÿÿÿÿÿÿÿÿÿÿÿÿÿÿÿÿÿÿÿÿÿÿÿÿÿÿÿÿÿÿÿÿÿÿÿÿÿÿÿÿÿÿÿÿÿÿÿÿÿÿÿÿÿÿÿÿÿÿÿÿÿÿÿÿÿÿÿÿÿÿÿÿÿÿÿÿÿÿÿÿÿÿÿÿÿÿÿÿÿöööööööööòíííííëëëííííííííííííííííèÿò jjjjjjjjjjjjjjjjjjjjjjj€€€€€€€€€€€€€€€€€€€€€€€‘‘‘‘‘‘–––––––––––¡¡¡¡¡¡¡¡¡¡¡¡¡§§§§§§§§³³³³³ººººººººººººº¼¼¼¼¼¼¼ÅÅÅÅÅÒÒÒÒÒÒÒÒÒÒÒÒÒÒÒÒÒÒÒÒÒÖÖÖãããããããããããããããëëëõõõõõõõõõõõõõõõõõõõõõÿÿÿÿÿÿÿÿÿÿÿÿÿÿÿÿÿÿÿÿÿÿÿÿÿÿÿÿÿÿÿÿÿÿÿÿÿÿÿÿÿÿÿÿÿÿÿÿÿÿÿÿÿÿÿÿÿÿÿÿÿÿÿÿÿÿÿÿÿÿÿÿÿÿ°3ÿÿÿÿÿÿÿúúúööööööòòòíííííííííííííííííííííííèÿò jjjjjjjjjjjjj€€€€€€€€€€€€€€€€€€€€€€€€€€‘‘‘‘‘‘‘‘‘‘––––––––––––¡¡¡¡¡¡¡¡¡¡§§§§§§§§§§§³³³³³³³³³³³³¼¼¼¼¼¼¼¼¼¼¼¼¼ÅÅÅÅÅÅÅÅÅÅÎÎÎÎÎÎÎÎÎÎÎÎÑÑÖÖÖÖÖÖÖããããããããããããããããããããëëëõõõõõõõõõõõõõõõõÿÿÿÿÿÿÿÿÿÿÿÿÿÿÿÿÿÿÿÿÿÿÿÿÿÿÿÿÿÿÿÿÿÿÿÿÿÿÿÿÿÿÿÿÿÿÿÿÿÿÿÿÿÿÿÿÿÿÿÿÿÿÿÿÿÿÿÿÿÿÿÿ³)  ÿÿÿÿÿÿÿÿöööööööööööòòííííííííííííííííííííííÿò €€€€€€€€€€€€€€€€€€€€€€€€€€€€‘‘‘‘€‘‘‘‘‘‘‘‘‘‘‘‘–––––––––¡¡‘¡¡¡¡¡¡¡¡§§§§§§§§§§§§§³³³³³³§§§§³¼¼¼¼¼¼¼¼¼¼¼¼¼¼¼ÅÅÅÅÅÅÅÅÅÅÎÎÎÎÅÅÅÅÅÎÎÑÑÑÑÎÎÎÎÑÖÖÖÖÖãããããããããããõãããããëëëëãëõõõõõõõõõõõõõõÿÿÿÿÿÿÿÿÿÿÿÿÿÿÿÿÿÿÿÿÿÿÿÿÿÿÿÿÿÿÿÿÿÿÿÿÿÿÿÿÿÿÿÿÿÿÿÿÿÿÿÿÿÿÿÿÿÿÿÿÿÿÿÿÿÿÿÿÿÿÿ°    ÿÿÿÿÿÿÿÿÿÿúöööööööòòòííííííííííííííííííííííÿò FFFFFFFFFj€€‘jFFFFFFF€jFFFFFFFFj–€FjjjjjjjF¡‘jjjjjjj‘¼¡¡º€jjjj€§§€€€€€§Å‘€€€Ò§€‘‘‘‘Åãããã¼‘–––––¡¡¡¡¡¡¡¡§Å³§§ÅÅ³³³³³³³ÅÿÿÿÿÿÑ³¼¼¼ÎÿÿÿÿãÅÅÅÅÎÎÎÎÎÑÑÑÑÑõÿëÿÿããããããõÿÿããëëëëëÿÿÿõõõõõÿÿÿÿÿÿÿÿÿÿÿÿÿÿÿÿÿÿÿÿÿÿÿÿÿÿÿÿÿÿÿÿÿÿÿÿÿÿÿÿÿÿÿÿÿÿÿÿÿÿÿÿÿÿÿÿÿÿÿÿÿÿÿÿÿÿÿÿ©     Lÿÿÿÿÿÿÿÿÿÿúúööööööööíííííííííííííííííííííííÿõ ÿÿÿÿÿÿÿÿÿ‰(((ãÿÿÿÿÿÿõA¼ÿÿÿÿÿÿÿÿõW”ÿÿÿÿÿÿÿÿÿW‰ÿÿÿÿÿÿÿã(((AÿÿÿÿÿÿttÿÿÿÿÿtAõÿÿÿ(ªÿÿÿÿÿt((((”ÿÿÿÿÿÿÿÿÿÿÿÿÿÿÿtãÿÿÎtÿÿÿÿÿÿÿë(((((¼ÿÿÿÿëA(((ÅÿÿÿÿÿÿÿÿÿÿÿÿÿÿÖ(((tÿÿÿÿÿÿÎAÅÿÿÿÿÿÿÿ¼3ëÿÿÿÿÿÿÿÅ3((((Ñÿÿÿÿÿÿÿÿÿÿÿÿÿÿÿÿÿÿÿÿÿÿÿÿÿÿÿÿÿÿÿÿÿÿÿÿÿÿÿÿÿÿÿÿÿÿÿÿÿÿÿÿÿÿÿÿÿ       RÛÿÿÿÿÿÿÿÿÿÿÿÿúöööööööòòòòòòòòòòòòòòòòòòòòòòòíÿõ ÿÿÿÿÿÿÿÿt(õÿ”(ãÿÿÿÿÿõA¼ÿÿÿÿÿÿÿÿõA”ÿÿÿÿÿÿÿÿÿW‰ÿÿÿÿÿÿÎ(§ÿÿWtÿÿÿÿÿttÿÿÿÿÿõ3ëÿÿã3ãÿÿÿÿÿWtÿÖÖõÿÿÿÿÿÿÿÿÿÿÿÿÿÿõ(ÎÿÿW3ÿÿÿÿÿÿÿã(ÿÖÖÖõÿÿÿÿÖAãÿã(‰ÿÿÿÿÿÿÿÿÿÿÿÿÿã”ÿÿ(§ÿÿÿÿÿÑAÅÿÿÿÿÿÿÿÅ3õÿÿÿÿÿÿÿ¼3ëãÖÖÿÿÿÿÿÿÿÿÿÿÿÿÿÿÿÿÿÿÿÿÿÿÿÿÿÿÿÿÿÿÿÿÿÿÿÿÿÿÿÿÿÿÿÿÿÿÿÿÿÿÿÿÿÿÿÿr      jíÿúöÿÿÿÿÿÿÿÿÿÿÿÿúöööööööòòòòòòòòòòòòòòòòòòòòòòòÿõ ÿÿÿÿÿÿÿÿ(ÅÿÿÿW3ÿÿÿÿÿõA¼ÿÿÿÿÿÿÿÿõA”ÿÿÿÿÿÿÿÿÿW‰ÿÿÿÿÿÿ(WÿÿÿÿÿÿÿÿÿÿttÿÿÿÿÿÿW33A(WÿÿÿÿÿÿW‰ÿÿÿÿÿÿÿÿÿÿÿÿÿÿÿÿÿÿ§(‰ÿÿ((õÿÿÿÿÿÿã(ÿÿÿÿÿÿÿÿÿÖAÅÿÿ”3ãÿÿÿÿÿÿÿÿÿÿÿÿÿÿÿÿ‰WÿÿÿÿÿÑWÅÿÿÿÿÿÿÿÅAõÿÿÿÿÿÿÿ¼3ÿÿÿÿÿÿÿÿÿÿÿÿÿÿÿÿÿÿÿÿÿÿÿÿÿÿÿÿÿÿÿÿÿÿÿÿÿÿÿÿÿÿÿÿÿÿÿÿÿÿÿÿÿÿÿÿÿÌ@      rëÿöâââÿÿÿÿÿÿÿÿÿÿÿÿÿúöööööööòòòòòòòòòòòòòòòòòòòòòòÿò ÿÿÿÿÿÿÿ”3ÿÿÿÿÅ(ÿÿÿÿÿëAÅÿÿÿÿÿÿÿÿõAªÿÿÿÿÿÿÿÿÿW‰ÿÿÿÿÿã(ãÿÿÿÿÿÿÿÿÿÿttÿÿÿÿÿÿÅAÿÿ3ÅÿÿÿÿÿÿW‰ÿÿÿÿÿÿÿÿÿÿÿÿÿÿÿÿÿÿAtAÿÑ3W‰ÿÿÿÿÿÿã(ÿÿÿÿÿÿÿÿÿÖAÖÿÿtAõÿÿÿÿÿÿÿÿÿÿÿÿÿÿÿÿ3”ÿÿÿÿÿÑWÅÿÿÿÿÿÿÿÅAõÿÿÿÿÿÿÿ¼3ÿÿÿÿÿÿÿÿÿÿÿÿÿÿÿÿÿÿÿÿÿÿÿÿÿÿÿÿÿÿÿÿÿÿÿÿÿÿÿÿÿÿÿÿÿÿÿÿÿÿÿÿÿÿÿ„      ‚ëÿâÚÚÚÚÚÿÿÿÿÿÿÿÿÿÿÿÿÿÿÿúöööööööööööööööööööööööööööÿò ÿÿÿÿÿÿÿtAÿÿÿÿõ(ÿÿÿÿÿõAWª‰ãÿÿÿÿÿõWW³‰ÖÿÿÿÿÿÿW‰ÿÿÿÿÿÑ(ÿÿÿÿÿÿÿÿÿÿÿttÿÿÿÿÿÿÿ3ÿõAÖÿÿÿÿÿÿW‰ÿÿÿÿÿÿÿÿÿÿÿÿÿÿÿÿÿÖ(ÿ3ÿt”³Aÿÿÿÿÿÿã(¼‰”õÿÿÿÿÿÖA”ÿ§3Åÿÿÿÿÿÿÿÿÿÿÿÿÿÿÿ‰(AÿÿÿÿÿÿÑWÅÿÿÿÿÿÿÿÅAõÿÿÿÿÿÿÿÅ3””‰ÿÿÿÿÿÿÿÿÿÿÿÿÿÿÿÿÿÿÿÿÿÿÿÿÿÿÿÿÿÿÿÿÿÿÿÿÿÿÿÿÿÿÿÿÿÿÿÿÿ¼@      /¢úÿëÚââââââÿÿÿÿÿÿÿÿÿÿÿúúúúúúööööööööööööööööööööööööööÿõ ÿÿÿÿÿÿÿ‰3ÿÿÿÿã(ÿÿÿÿÿõA3A3ÅÿÿÿÿÿÿW(A3³ÿÿÿÿÿÿW‰ÿÿÿÿÿã(ÿÿÿÿÿÿÿÿÿÿÿttÿÿÿÿÿÿÿt”‰tÿÿÿÿÿÿÿW‰ÿÿÿÿÿÿÿÿÿÿÿÿÿÿÿÿÿ‰Aÿtª(ÿõ(ÿÿÿÿÿÿã(WAWëÿÿÿÿÿãA333ªÿÿÿÿÿÿÿÿÿÿÿÿÿÿÿA(ÅÿÿÿÿÿÿÿÑWÅÿÿÿÿÿÿÿÅAõÿÿÿÿÿÿÿÅ3AAAÿÿÿÿÿÿÿÿÿÿÿÿÿÿÿÿÿÿÿÿÿÿÿÿÿÿÿÿÿÿÿÿÿÿÿÿÿÿÿÿÿÿÿÿÿÿÌj      jÒÿÿöëëëòòòöööÿÿÿÿÿÿÿÿÿÿÿÿÿúúúúúúúúööööööööööööööööööööööÿò ÿÿÿÿÿÿÿÅ3ãÿÿÿ”3ÿÿÿÿÿëWõÿÿÿÿÿÿÿÿõWÅÿÿÿÿÿÿÿÿÿW‰ÿÿÿÿÿÿ3‰ÿÿÿÿÿÿÿÿÿÿttÿÿÿÿÿÿÿëA3ÅÿÿÿÿÿÿÿW‰ÿÿÿÿÿÿÿÿÿÿÿÿÿÿÿÿÿAtÿÿ3(ÿÿ3³ÿÿÿÿÿã(ÿÿÿÿÿÿÿÿÿÑWÿÿÿ3‰ÿÿÿÿÿÿÿÿÿÿÿÿÿ¼(ÿÿÿÿÿÿÿÿÿÑWÅÿÿÿÿÿÿÿÎAõÿÿÿÿÿÿÿ¼AÿÿÿÿÿÿÿÿÿÿÿÿÿÿÿÿÿÿÿÿÿÿÿÿÿÿÿÿÿÿÿÿÿÿÿÿÿÿÿÿÿÿÿÿÿÿÌ{     <³öÿÿííííííííííííÿÿÿÿÿÿÿÿÿÿÿÿÿÿÿÿÿÿöööööööööööööööööööööööööÿõ ÿÿÿÿÿÿÿÿ3Wÿÿÿ(”ÿÿÿÿÿõAªÿÿÿÿÿÿÿÿõA”ÿõÿÿÿÿÿÿÿW‰ÿÿÿÿÿÿ”(ëÿÿÿÿÿÿÿÿÿttÿÿÿÿÿÿÿÿA3ÿÿÿÿÿÿÿÿW‰ÿÿÿÿÿÿÿÿÿÿÿÿÿÿÿÿã3¼ÿÿ3tÿÿWWÿÿÿÿÿã(ÿÿÿÿÿÿÿÿÿÖA¼ÿÿ3‰ÿÿÿÿÿÿÿÿÿÿÿÿÿ¼(ÿÿëÿÿÿÿÿÿÑAÅÿÿÿÿÿõÿÅAõÿÿÿÿÿÿÿ¼3ÿÿÿÿÿÿÿÿÿÿÿÿÿÿÿÿÿÿÿÿÿÿÿÿÿÿÿÿÿÿÿÿÿÿÿÿÿÿÿÿÿÿÿÅr      )‚ÚÿÿúâÚââââââââââââÿÿÿÿÿÿÿÿÿÿÿÿÿÿÿÿÿÿÿÿÿúúúúúúúúúúúúúúúúúúúúúúÿò ÿÿÿÿÿÿÿÿõ33W(Aÿÿÿÿÿÿõ3(33(”ÿÿÿÿõA(A3(‰ÿÿÿÿÿAtÿÿÿÿÿÿÿt(AA3ÿÿÿÿÿÿWWÿÿÿÿÿÿÿÿ”tÿÿÿÿÿÿÿÿAtÿÿÿÿÿÿÿÿÿÿÿÿÿÿÿÿt3ÖÿÿAÑÿÿ§(õÿÿÿÿã(3333Åÿÿÿÿã333(WÿÿÿÿÿÿÿÿÿÿÿÿÿÿÿW(W3õÿÿÿÿÿÅ3¼ÿÿÿÿÅ333(3(3ÿÿÿÿÿ¼(3333Öÿÿÿÿÿÿÿÿÿÿÿÿÿÿÿÿÿÿÿÿÿÿÿÿÿÿÿÿÿÿÿÿÿÿë¥Z       vÈöÿÿëÚÚÚÚÚÚÚÚÚÚÚÚââââÿÿÿÿÿÿÿÿÿÿÿÿÿÿÿÿÿÿÿÿÿÿÿÿÿÿÿÿÿÿÿÿÿÿÿÿÿÿÿÿÿÿÿÿõ ÿÿÿÿÿÿÿÿÿÿ”t¼ÿÿÿÿÿÿÿÿëÑÅÑÅãÿÿÿÿÿëÑÅÑÅãÿÿÿÿÿãõÿÿÿÿÿÿÿÿÎt‰ÅÿÿÿÿÿÿõõÿÿÿÿÿÿÿÿÿëÿÿÿÿÿÿÿÿëõÿÿÿÿÿÿÿÿÿÿÿÿÿÿÿÿëëÿÿÿõÿÿÿÿÖÿÿÿÿÿÿãÅÑÎÎõÿÿÿÿÿëÑÅÖÿÿÿÿÿÿÿÿÿÿÿÿÿÿÿÿÿªtÅÿÿÿÿÿÿÿëÿÿÿÿÿõÑÅÖãÑÅÑÿÿÿÿÿÿãÎÎÎÎõÿÿÿÿÿÿÿÿÿÿÿÿÿÿÿÿÿÿÿÿÿÿÿÿÿÿÿÿÿÿÿÅŠ3       %j¼ëúúëÚÚÚââëââââââëëëëëëëÿÿÿÿÿÿÿÿÿÿÿÿÿÿÿÿÿÿÿÿÿÿÿÿÿÿÿÿÿÿÿÿÿÿÿÿÿÿÿÿÿÿÿÿò ÿÿÿÿÿÿÿÿÿÿÿÿÿÿÿÿÿÿÿÿÿÿÿÿÿÿÿÿÿÿÿÿÿÿÿÿÿÿÿÿÿÿÿÿÿÿÿÿÿÿÿÿÿÿÿÿÿÿÿÿÿÿÿÿÿÿÿÿÿÿÿÿÿÿÿÿÿÿÿÿÿÿÿÿÿÿÿÿÿÿÿÿÿÿÿÿÿÿÿÿÿÿÿÿÿÿÿÿÿÿÿÿÿÿÿÿÿÿÿÿÿÿÿÿÿÿÿÿÿÿÿÿÿÿÿÿÿÿÿÿÿÿÿÿÿÿÿÿÿÿÿÿÿÿÿÿÿÿÿÿÿÿÿÿÿÿÿÿÿÿÿÿÿÿÿÿÿÿÿÿÿÿÿÿÿÿÿÿÿÿÿÿÿÿÿÿÿÿÿÿÿÿÿÿÿÿÿÿÿÿÿÿÿÌŠ@        7‚ÈëúúëÚÚÚÚÚÚÚÚÚÚÚÚÚÚâëëëëëëëÿÿÿÿÿÿÿÿÿÿÿÿÿÿÿÿÿÿÿÿÿÿÿÿÿÿÿÿÿÿÿÿÿÿÿÿÿÿÿÿÿÿÿÿõ ÿÿÿÿÿÿÿÿÿÿÿÿÿÿÿÿÿÿÿÿÿÿÿÿÿÿÿÿÿÿÿÿÿÿÿÿÿÿÿÿÿÿÿÿÿÿÿÿÿÿÿÿÿÿÿÿÿÿÿÿÿÿÿÿÿÿÿÿÿÿÿÿÿÿÿÿÿÿÿÿÿÿÿÿÿÿÿÿÿÿÿÿÿÿÿÿÿÿÿÿÿÿÿÿÿÿÿÿÿÿÿÿÿÿÿÿÿÿÿÿÿÿÿÿÿÿÿÿÿÿÿÿÿÿÿÿÿÿÿÿÿÿÿÿÿÿÿÿÿÿÿÿÿÿÿÿÿÿÿÿÿÿÿÿÿÿÿÿÿÿÿÿÿÿÿÿÿÿÿÿÿÿÿÿÿÿÿÿÿÿÿÿÿÿÿÿÿÿÿÿÿÿÿÿÿÿÿÿÿ¼{@        R–ÚúëëëÚÚÚÚÚâââââââââââëííííííííÿÿÿÿÿÿÿÿÿÿÿÿÿÿÿÿÿÿÿÿÿÿÿÿÿÿÿÿÿÿÿÿÿÿÿÿÿÿÿÿÿÿÿÿõ ÿÿÿÿÿÿÿÿÿÿÿÿÿÿÿÿÿÿÿÿÿÿÿÿÿÿÿÿÿÿÿÿÿÿÿÿÿÿÿÿÿÿÿÿÿÿÿÿÿÿÿÿÿÿÿÿÿÿÿÿÿÿÿÿÿÿÿÿÿÿÿÿÿÿÿÿÿÿÿÿÿÿÿÿÿÿÿÿÿÿÿÿÿÿÿÿÿÿÿÿÿÿÿÿÿÿÿÿÿÿÿÿÿÿÿÿÿÿÿÿÿÿÿÿÿÿÿÿÿÿÿÿÿÿÿÿÿÿÿÿÿÿÿÿÿÿÿÿÿÿÿÿÿÿÿÿÿÿÿÿÿÿÿÿÿÿÿÿÿÿÿÿÿÿÿÿÿÿÿÿÿÿÿÿÿÿÿÿÿÿÿÿÿÿÿÿÿÿÿÿÿÿööÅŠR        7x¼úúúëâââââèèèíííííííööööööööööööööÿÿÿÿÿÿÿÿÿÿÿÿÿÿÿÿÿÿÿÿÿÿÿÿÿÿÿÿÿÿÿÿÿÿÿÿÿÿÿÿÿÿÿÿõ ÿÿÿÿÿÿÿÿÿÿÿÿÿÿÿÿÿÿÿÿÿÿÿÿÿÿÿÿÿÿÿÿÿÿÿÿÿÿÿÿÿÿÿÿÿÿÿÿÿÿÿÿÿÿÿÿÿÿÿÿÿÿÿÿÿÿÿÿÿÿÿÿÿÿÿÿÿÿÿÿÿÿÿÿÿÿÿÿÿÿÿÿÿÿÿÿÿÿÿÿÿÿÿÿÿÿÿÿÿÿÿÿÿÿÿÿÿÿÿÿÿÿÿÿÿÿÿÿÿÿÿÿÿÿÿÿÿÿÿÿÿÿÿÿÿÿÿÿÿÿÿÿÿÿÿÿÿÿÿÿÿÿÿÿÿÿÿÿÿÿÿÿÿÿÿÿÿÿÿÿÿÿÿÿÿÿÿÿÿÿÿÿÿÿÿÿëëÅ”f<         7‚¬ëÿÿúëââââëëëëëëëëëëííííööööööööööööööÿÿÿÿÿÿÿÿÿÿÿÿÿÿÿÿÿÿÿÿÿÿÿÿÿÿÿÿÿÿÿÿÿÿÿÿÿÿÿÿÿÿÿÿõ ÿÿÿÿÿÿÿÿÿÿÿÿÿÿÿÿÿÿÿÿÿÿÿÿÿÿÿÿÿÿÿÿÿÿÿÿÿÿÿÿÿÿÿÿÿÿÿÿÿÿÿÿÿÿÿÿÿÿÿÿÿÿÿÿÿÿÿÿÿÿÿÿÿÿÿÿÿÿÿÿÿÿÿÿÿÿÿÿÿÿÿÿÿÿÿÿÿÿÿÿÿÿÿÿÿÿÿÿÿÿÿÿÿÿÿÿÿÿÿÿÿÿÿÿÿÿÿÿÿÿÿÿÿÿÿÿÿÿÿÿÿÿÿÿÿÿÿÿÿÿÿÿÿÿÿÿÿÿÿÿÿÿÿÿÿÿÿÿÿÿÿÿÿÿÿÿÿÿÿÿÿÿÿÿÿõëëà×Ì¥„f@           c’¼úÿÿÿíëëëëííííííííííööööööööööööööööööööööÿÿÿÿÿÿÿÿÿÿÿÿÿÿÿÿÿÿÿÿÿÿÿÿÿÿÿÿÿÿÿÿÿÿÿÿÿÿÿÿÿÿÿÿò ¥¥™                                                                                                                                                                            ™””„{rfZ@3              )7j ¼ëÿÿÿÿúëââëííííííííííííííöööööööööíííííííííöööö                                                                                                                                                                                                                                                                                                                                                                                                                                                                                                                                                                                                                                                                                                                                                